<?xml version="1.0" encoding="UTF-8"?>
<map version="1.10" tiledversion="1.10.2" orientation="orthogonal" renderorder="right-down" compressionlevel="0" width="58" height="34" tilewidth="16" tileheight="16" infinite="0" nextlayerid="11" nextobjectid="46">
 <properties>
  <property name="AmbientLight" value="45 45 45"/>
  <property name="CustomMapOverlay" value="Underwater"/>
  <property name="Light" value="10 15 4 16 15 4 22 12 4 28 12 4 34 15 4 38 15 4 37 2 4 44 2 4"/>
  <property name="Music" value="malha_malharuins"/>
  <property name="Warp" value="24 32 Malha_Malha 28 30 25 32 Malha_Malha 28 30 26 32 Malha_Malha 28 30"/>
  <property name="WindowLight" value="19 29 6 31 29 6 4 3 6 12 3 6 18 14 6 32 14 6"/>
 </properties>
 <tileset firstgid="1" name="1" tilewidth="16" tileheight="16" tilecount="2176" columns="32">
  <image source="townInterior.ru-RU.png" width="512" height="1088"/>
  <tile id="546">
   <animation>
    <frame tileid="546" duration="150"/>
    <frame tileid="546" duration="150"/>
    <frame tileid="546" duration="150"/>
    <frame tileid="546" duration="150"/>
    <frame tileid="546" duration="150"/>
    <frame tileid="547" duration="150"/>
    <frame tileid="548" duration="150"/>
    <frame tileid="546" duration="150"/>
    <frame tileid="547" duration="150"/>
    <frame tileid="548" duration="150"/>
    <frame tileid="546" duration="150"/>
    <frame tileid="547" duration="150"/>
    <frame tileid="548" duration="150"/>
    <frame tileid="546" duration="150"/>
    <frame tileid="547" duration="150"/>
    <frame tileid="548" duration="150"/>
    <frame tileid="546" duration="150"/>
    <frame tileid="547" duration="150"/>
    <frame tileid="548" duration="150"/>
    <frame tileid="546" duration="150"/>
    <frame tileid="547" duration="150"/>
    <frame tileid="548" duration="150"/>
    <frame tileid="546" duration="150"/>
    <frame tileid="546" duration="150"/>
    <frame tileid="546" duration="150"/>
    <frame tileid="546" duration="150"/>
    <frame tileid="546" duration="150"/>
    <frame tileid="546" duration="150"/>
    <frame tileid="546" duration="150"/>
    <frame tileid="546" duration="150"/>
    <frame tileid="546" duration="150"/>
    <frame tileid="546" duration="150"/>
    <frame tileid="546" duration="150"/>
    <frame tileid="546" duration="150"/>
    <frame tileid="546" duration="150"/>
    <frame tileid="546" duration="150"/>
   </animation>
  </tile>
 </tileset>
 <tileset firstgid="2177" name="2" tilewidth="16" tileheight="16" tilecount="1312" columns="32">
  <image source="townInterior_2.png" width="512" height="656"/>
 </tileset>
 <tileset firstgid="3489" name="Paths" tilewidth="16" tileheight="16" tilecount="64" columns="4">
  <image source="paths" width="64" height="256"/>
 </tileset>
 <tileset firstgid="3553" name="z_MalhaInterior" tilewidth="16" tileheight="16" tilecount="900" columns="30">
  <image source="z_MalhaInterior.png" width="480" height="480"/>
  <tile id="602">
   <animation>
    <frame tileid="602" duration="1000"/>
    <frame tileid="631" duration="1000"/>
   </animation>
  </tile>
  <tile id="632">
   <animation>
    <frame tileid="632" duration="1000"/>
    <frame tileid="661" duration="1000"/>
   </animation>
  </tile>
 </tileset>
 <layer id="1" name="Back" width="58" height="34">
  <data encoding="csv">
0,0,0,0,0,0,0,0,0,0,0,0,0,0,0,0,0,0,0,0,0,0,0,0,0,0,0,0,0,0,0,0,0,0,0,0,0,0,0,0,0,0,0,0,0,0,0,0,0,0,0,0,0,0,0,0,0,0,
0,0,0,0,0,0,0,0,0,0,0,0,0,0,0,0,0,0,0,0,0,0,0,0,0,0,0,0,0,0,0,0,0,0,0,0,0,4189,4189,4189,4189,4189,4189,4189,4189,0,0,0,0,0,0,0,0,0,0,0,0,0,
0,0,0,4188,4189,4189,4189,4189,4189,4189,4189,4189,4189,4189,4190,0,0,0,0,0,0,0,0,0,0,0,0,0,0,0,0,0,0,0,0,0,0,3915,3915,3915,3915,3915,3915,3915,3915,0,0,0,0,0,0,0,0,0,0,0,0,0,
0,0,0,4218,3915,3915,3915,3915,3915,3915,3915,3915,3915,3915,4220,0,0,0,0,0,0,0,0,0,0,0,0,0,0,0,0,0,0,0,0,0,0,3945,3945,3945,3945,3945,3945,3945,3945,0,0,0,0,0,0,0,0,0,0,0,0,0,
0,0,0,3915,0,3887,3948,3948,0,0,0,0,0,0,3915,0,0,0,0,0,0,0,0,0,0,0,0,0,0,0,0,0,0,0,0,0,0,3853,3823,3853,3823,3853,3823,3853,3823,0,0,0,0,0,0,0,0,0,0,0,0,0,
0,0,0,4095,3975,3975,3975,3975,3975,3975,3975,3975,3975,3975,4125,608,0,0,0,0,0,0,0,0,0,0,0,0,0,0,0,0,0,0,0,0,0,3823,3853,3823,3853,3823,3853,3823,3853,0,0,0,0,0,0,0,0,0,0,0,0,0,
0,0,0,3855,3855,3855,3855,3855,3855,3855,3855,3855,3855,3855,3855,606,0,0,0,0,0,0,0,0,0,0,0,0,0,0,0,0,0,0,0,0,0,3853,3823,3853,3823,3853,3823,3853,3823,0,0,0,0,0,0,0,0,0,0,0,0,0,
0,0,0,3855,3855,3855,3855,3855,3855,3855,4187,3855,3855,3855,3855,608,0,0,0,0,0,0,0,0,0,0,0,0,0,0,0,0,0,0,0,0,0,4264,4264,4264,4264,4264,4264,4264,4264,0,0,0,0,0,0,0,0,0,0,0,0,0,
0,0,0,3855,3855,3855,3855,3855,3855,3855,3855,3855,3855,3855,3855,640,0,0,0,0,0,0,0,0,0,0,0,0,0,0,0,0,0,0,0,0,0,3703,3703,3703,3703,3703,3703,3703,4263,0,0,0,0,0,0,0,0,0,0,0,0,0,
0,0,0,3855,3855,3855,3855,3855,3855,3855,3855,4066,4067,4068,3855,0,0,0,0,0,0,0,0,0,0,0,0,0,0,0,0,0,0,0,0,0,0,3703,3703,3703,3703,3703,3703,3703,3703,0,0,0,0,0,0,0,0,0,0,0,0,0,
0,0,0,3855,3855,3855,3855,3855,3855,3855,3855,4096,4097,4098,3855,0,0,0,0,0,0,0,0,0,0,0,0,0,0,0,0,0,0,0,0,0,0,3703,3703,3703,3703,3703,3703,3703,3703,0,0,0,0,0,0,0,0,0,0,0,0,0,
0,0,0,3855,3855,3855,3855,3855,3855,3855,3855,3855,3855,3855,3855,0,0,0,0,0,0,3883,3883,0,0,0,0,0,0,0,0,0,0,0,0,0,0,0,0,3703,0,0,0,0,0,0,0,0,0,0,0,0,0,0,0,0,0,0,
0,0,0,0,0,0,0,0,0,3703,0,0,0,0,0,0,0,0,0,0,0,3883,3883,0,0,0,0,0,0,0,0,0,0,0,0,0,0,0,0,3703,0,0,0,0,0,0,0,0,0,0,0,0,0,0,0,0,0,0,
0,0,0,0,0,0,0,0,0,3703,0,0,0,0,0,0,0,0,0,0,0,0,0,0,0,0,0,0,0,0,0,0,0,0,0,0,0,0,0,3703,0,0,0,0,0,0,0,0,0,0,0,0,0,0,0,0,0,0,
0,0,0,0,0,0,0,0,0,3795,0,0,0,0,0,0,0,0,0,0,0,0,0,3703,3703,3703,3703,3703,0,0,0,0,0,0,0,0,0,0,0,3703,0,0,0,0,0,0,0,0,0,0,0,0,0,0,0,0,0,0,
0,0,0,0,0,0,0,0,0,3825,0,0,0,0,0,0,0,0,3703,3703,3703,3703,3703,3703,3704,3705,3706,3703,3703,3703,3703,3703,3703,3703,0,0,0,0,0,3703,0,0,0,0,0,0,0,0,0,0,0,0,0,0,0,0,0,0,
0,0,0,0,0,0,0,0,0,3703,0,0,0,0,0,0,0,3703,3703,3703,3703,3703,3703,3703,3734,3735,3736,3703,3703,3703,3703,3703,3703,3703,0,0,0,0,0,3703,0,0,0,0,0,0,0,0,0,0,0,0,0,0,0,0,0,0,
0,0,0,0,0,0,0,0,0,3703,3703,3703,3703,3703,3703,3703,3703,3703,3703,3703,3703,3703,3703,3703,3734,3735,3736,3703,3703,3703,3703,3703,3703,3703,3703,3703,3703,3703,3703,3703,3703,3703,3703,3703,0,0,0,0,0,0,0,0,0,0,0,0,0,0,
0,0,0,0,0,0,0,0,0,0,0,0,0,0,0,0,3703,3703,3703,3703,3703,3703,3703,3703,3711,3712,3713,3703,3703,3703,3703,3703,3703,3703,0,0,0,0,0,0,0,0,3703,0,0,0,0,0,0,0,0,0,0,0,0,0,0,0,
0,0,0,0,0,0,0,0,0,0,0,0,0,0,0,0,3703,3703,3703,3703,3703,3703,3703,3703,3734,3735,3736,3703,3703,3703,3703,3703,3703,3703,0,0,0,0,0,0,0,0,3703,0,0,0,0,0,0,0,0,0,0,0,0,0,0,0,
0,0,0,0,0,0,0,0,0,0,0,0,0,0,0,0,3703,3703,3703,3703,3703,3703,3703,3703,3734,3735,3736,3703,3703,3703,3703,3703,3703,3703,3703,0,0,0,0,0,0,0,3703,0,0,0,0,0,0,0,0,0,0,0,0,0,0,0,
0,0,0,0,0,0,0,0,0,0,0,0,0,0,0,0,3703,3703,3703,3703,3703,3703,3703,3703,3734,3735,3736,3703,3703,3703,3703,3703,3703,3703,3703,0,0,0,0,0,0,0,3703,0,0,0,0,0,0,0,0,0,0,0,0,0,0,0,
0,0,0,0,0,0,0,0,0,0,0,0,0,0,0,0,3703,3703,3703,3703,3703,3703,3703,3703,3734,3735,3736,3703,3703,3703,3703,3703,3703,3703,3703,0,0,0,0,0,0,0,3703,0,0,0,0,0,0,0,0,0,0,0,0,0,0,0,
0,0,0,0,0,0,0,0,0,0,0,0,0,0,0,0,3703,3703,3703,3703,3703,3703,3703,3703,3734,3735,3736,3703,3703,3703,3703,3703,3703,3703,3703,0,0,0,0,0,0,0,0,0,0,0,0,0,0,0,0,0,0,0,0,0,0,0,
0,0,0,0,0,0,0,0,0,0,0,0,0,0,0,0,3703,3703,3703,3703,3703,3703,3703,3703,3734,3735,3736,3703,3703,3703,3703,3703,3703,3703,3703,0,0,0,0,0,0,0,0,0,0,0,0,0,0,0,0,0,0,0,0,0,0,0,
0,0,0,0,0,0,0,0,0,0,0,0,0,0,0,0,3703,3703,3703,3703,3703,3703,3703,3703,3734,3735,3736,3703,3703,3703,3703,3703,3703,3703,3703,0,0,0,0,0,0,0,0,0,0,0,0,0,0,0,0,0,0,0,0,0,0,0,
0,0,0,0,0,0,0,0,0,0,0,0,0,0,0,0,3703,3703,3703,3703,3703,3703,3703,3703,3764,3765,3766,3703,3703,3703,3703,3703,3703,3703,3703,0,0,0,0,0,0,0,0,0,0,0,0,0,0,0,0,0,0,0,0,0,0,0,
0,0,0,0,0,0,0,0,0,0,0,0,0,0,0,0,3703,3703,3703,3703,3703,3703,3703,3703,3703,3703,3703,3703,3703,3703,3703,3703,3703,3703,3703,0,0,0,0,0,0,0,0,0,0,0,0,0,0,0,0,0,0,0,0,0,0,0,
0,0,0,0,0,0,0,0,0,0,0,0,0,0,0,0,3703,3703,3703,3703,3703,3703,3703,3703,3703,3703,3703,3703,3703,3703,3703,3703,3703,3703,3703,0,0,0,0,0,0,0,0,0,0,0,0,0,0,0,0,0,0,0,0,0,0,0,
0,0,0,0,0,0,0,0,0,0,0,0,0,0,0,0,0,0,0,0,0,0,0,0,3703,3703,3703,0,0,0,0,0,0,0,0,0,0,0,0,0,0,0,0,0,0,0,0,0,0,0,0,0,0,0,0,0,0,0,
0,0,0,0,0,0,0,0,0,0,0,0,0,0,0,0,0,0,0,0,0,0,0,0,3703,3703,3703,0,0,0,0,0,0,0,0,0,0,0,0,0,0,0,0,0,0,0,0,0,0,0,0,0,0,0,0,0,0,0,
0,0,0,0,0,0,0,0,0,0,0,0,0,0,0,0,0,0,0,0,0,0,0,0,3703,3703,3703,0,0,0,0,0,0,0,0,0,0,0,0,0,0,0,0,0,0,0,0,0,0,0,0,0,0,0,0,0,0,0,
0,0,0,0,0,0,0,0,0,0,0,0,0,0,0,0,0,0,0,0,0,0,0,0,0,0,0,0,0,0,0,0,0,0,0,0,0,0,0,0,0,0,0,0,0,0,0,0,0,0,0,0,0,0,0,0,0,0,
0,0,0,0,0,0,0,0,0,0,0,0,0,0,0,0,0,0,0,0,0,0,0,0,0,0,0,0,0,0,0,0,0,0,0,0,0,0,0,0,0,0,0,0,0,0,0,0,0,0,0,0,0,0,0,0,0,0
</data>
 </layer>
 <layer id="2" name="Buildings" width="58" height="34">
  <data encoding="csv">
0,0,0,0,0,0,0,0,0,0,0,0,0,0,0,0,0,0,0,0,0,0,0,0,0,0,0,0,0,0,0,0,0,0,0,0,3553,3553,3553,3553,3553,3553,3553,3553,3553,3553,0,0,0,0,0,0,0,0,0,0,0,0,
0,0,3553,3553,3553,3553,3553,3553,3553,3553,3553,3553,3553,3553,3553,3553,0,0,0,0,0,0,0,0,0,0,0,0,0,0,0,0,0,0,0,0,3553,0,0,0,0,0,0,0,0,3553,0,0,0,0,0,0,0,0,0,0,0,0,
0,0,3553,0,0,0,0,0,4010,0,0,0,0,0,0,3553,0,0,0,0,0,0,0,0,0,0,0,0,0,0,0,0,0,0,0,0,3553,0,0,0,0,4266,0,4267,0,3553,0,0,0,0,0,0,0,0,0,0,0,0,
0,0,3553,0,0,0,0,0,0,0,0,0,0,0,0,3553,0,0,0,0,0,0,0,0,0,0,0,0,0,0,0,0,0,0,0,0,3553,4294,4293,4294,4295,4296,4292,4297,4349,3553,0,0,0,0,0,0,0,0,0,0,0,0,
0,0,3553,3950,3948,3948,3593,3594,3948,3948,3948,3948,3948,3948,3949,3553,0,0,0,0,0,0,0,0,0,0,0,0,0,0,0,0,0,0,0,0,3553,4322,4324,4324,4325,4326,4326,4327,4379,3553,0,0,0,0,0,0,0,0,0,0,0,0,
0,0,3553,3980,4160,0,0,0,0,0,4158,4159,4185,0,3979,3553,0,0,0,0,0,0,0,0,0,0,0,0,0,0,0,0,0,0,0,0,3553,0,0,0,0,0,0,0,4379,3553,0,0,0,0,0,0,0,0,0,0,0,0,
0,0,3553,0,0,0,3651,3652,0,0,0,0,0,0,0,3553,0,0,0,0,0,0,0,0,0,0,0,0,0,0,0,0,0,0,0,0,3553,0,0,0,0,0,0,0,4409,3553,0,0,0,0,0,0,0,0,0,0,0,0,
0,0,3553,0,0,0,0,0,0,0,0,0,0,0,0,3553,0,0,0,0,0,0,0,0,0,0,0,0,0,0,0,0,0,0,0,0,3553,0,0,0,0,0,0,0,0,3553,0,0,0,0,0,0,0,0,0,0,0,0,
0,0,3553,4213,0,0,4126,4127,0,0,0,4036,4037,4038,0,3553,0,0,0,0,0,0,0,0,0,0,0,0,0,0,0,0,0,0,0,0,3553,0,0,0,0,4289,4290,4291,0,3553,0,0,0,0,0,0,0,0,0,0,0,0,
0,0,3553,4243,0,0,4156,4157,0,0,0,0,0,0,0,3553,0,0,0,0,0,0,0,0,0,0,0,0,0,0,0,0,0,0,0,0,3553,0,0,0,0,4319,4320,4321,0,3553,0,0,0,0,0,0,0,0,0,0,0,0,
0,0,3553,4273,0,0,0,0,0,0,0,0,0,0,0,3553,0,0,0,3553,3553,3553,3553,3553,3553,3553,3553,3553,3553,3553,3553,3553,0,0,0,0,3553,0,0,0,0,0,0,0,0,3553,0,0,0,0,0,0,0,0,0,0,0,0,
0,0,3553,4303,0,0,0,0,0,0,0,0,0,0,0,3553,3553,3553,3553,3553,3973,3884,3885,0,3884,3884,3884,0,3914,3884,3974,3553,3553,3553,3553,0,0,3553,3553,0,3553,3553,3553,3553,3553,3553,0,0,0,0,0,0,0,0,0,0,0,0,
0,0,3553,3553,3553,3553,3553,3553,3553,0,3553,3553,3553,3553,3553,3553,3553,4244,4244,4244,4003,3883,3883,0,3883,3883,3883,0,3883,3883,4004,4244,4244,4244,3553,3553,0,0,3553,0,3553,0,0,0,0,0,0,0,0,0,0,0,0,0,0,0,0,0,
0,0,0,0,0,0,0,0,3553,121,3553,3553,3553,3553,3553,3553,3553,3883,3883,3883,4033,3883,3883,3860,3883,3883,3883,3863,3883,3883,4034,3883,3883,3883,3883,3553,3553,3553,3553,0,3553,3553,3553,3553,0,0,0,0,0,0,0,0,0,0,0,0,0,0,
0,0,0,0,0,0,0,0,3553,0,4244,4244,4244,4244,4244,4244,4244,3883,3883,3883,4063,3913,3913,3890,3891,0,3892,3893,3913,3913,4064,3883,3883,3883,4244,4244,4244,4244,4244,0,4244,4244,4244,3553,0,0,0,0,0,0,0,0,0,0,0,0,0,0,
0,0,0,0,0,0,0,0,3553,0,4274,3883,3883,3883,3883,3883,4275,3913,3913,3913,4093,0,0,3740,0,0,0,3744,0,0,4094,3913,3913,3913,4274,3883,3883,3883,4275,0,4274,3883,3883,3553,0,0,0,0,0,0,0,0,0,0,0,0,0,0,
0,0,0,0,0,0,0,0,3553,0,4304,3913,3913,3913,3913,3913,4305,0,4333,0,0,0,3793,3740,3767,3768,3769,3744,3793,0,0,0,4333,0,4304,3913,3913,3913,4305,0,4304,3913,3913,3553,0,0,0,0,0,0,0,0,0,0,0,0,0,0,
0,0,0,0,0,0,0,0,3553,0,0,0,0,0,0,0,0,0,0,0,0,0,0,3740,0,0,0,3744,0,0,0,0,0,0,0,0,0,0,0,0,0,0,0,3553,0,0,0,0,0,0,0,0,0,0,0,0,0,0,
0,0,0,0,0,0,0,0,3553,3553,3553,3553,3553,3553,3553,3553,3553,0,0,0,0,3793,0,3710,0,0,0,3714,0,3793,0,0,0,0,3553,3553,3553,3553,3553,3553,3553,3553,0,3553,0,0,0,0,0,0,0,0,0,0,0,0,0,0,
0,0,0,0,0,0,0,0,0,0,0,0,0,0,0,0,3553,4333,0,0,0,0,0,0,0,0,0,0,0,0,0,0,4337,4338,3553,0,0,0,0,0,0,3553,0,3553,0,0,0,0,0,0,0,0,0,0,0,0,0,0,
0,0,0,0,0,0,0,0,0,0,0,0,0,0,0,0,3553,4363,0,0,0,0,0,0,0,0,0,0,0,0,0,0,4367,4368,3553,0,0,0,0,0,0,3553,0,3553,0,0,0,0,0,0,0,0,0,0,0,0,0,0,
0,0,0,0,0,0,0,0,0,0,0,0,0,0,0,0,3553,4393,0,0,0,0,0,0,0,0,0,0,0,0,0,0,4397,4398,3553,0,0,0,0,0,0,3553,121,3553,0,0,0,0,0,0,0,0,0,0,0,0,0,0,
0,0,0,0,0,0,0,0,0,0,0,0,0,0,0,0,3553,4423,0,0,0,3793,0,0,0,0,0,0,0,3793,0,0,4427,4428,3553,0,0,0,0,0,0,3553,0,3553,0,0,0,0,0,0,0,0,0,0,0,0,0,0,
0,0,0,0,0,0,0,0,0,0,0,0,0,0,0,0,3553,4333,0,0,0,0,0,0,0,0,0,0,0,0,0,0,0,4333,3553,0,0,0,0,0,0,3553,3553,3553,0,0,0,0,0,0,0,0,0,0,0,0,0,0,
0,0,0,0,0,0,0,0,0,0,0,0,0,0,0,0,3553,4363,0,0,0,0,0,0,0,0,0,0,0,0,0,0,4337,4338,3553,0,0,0,0,0,0,0,0,0,0,0,0,0,0,0,0,0,0,0,0,0,0,0,
0,0,0,0,0,0,0,0,0,0,0,0,0,0,0,0,3553,4393,0,0,0,0,0,0,0,0,0,0,0,0,0,0,4367,4368,3553,0,0,0,0,0,0,0,0,0,0,0,0,0,0,0,0,0,0,0,0,0,0,0,
0,0,0,0,0,0,0,0,0,0,0,0,0,0,0,0,3553,4423,0,0,0,3793,0,0,0,0,0,0,0,3793,0,0,4397,4398,3553,0,0,0,0,0,0,0,0,0,0,0,0,0,0,0,0,0,0,0,0,0,0,0,
0,0,0,0,0,0,0,0,0,0,0,0,0,0,0,0,3553,4333,0,0,0,0,0,0,0,0,0,0,0,0,0,0,4427,4428,3553,0,0,0,0,0,0,0,0,0,0,0,0,0,0,0,0,0,0,0,0,0,0,0,
0,0,0,0,0,0,0,0,0,0,0,0,0,0,0,0,3553,0,0,0,0,0,0,0,0,0,0,0,0,0,0,0,0,0,3553,0,0,0,0,0,0,0,0,0,0,0,0,0,0,0,0,0,0,0,0,0,0,0,
0,0,0,0,0,0,0,0,0,0,0,0,0,0,0,0,3553,3553,3553,3553,3553,3553,3553,3553,0,0,0,3553,3553,3553,3553,3553,3553,3553,3553,0,0,0,0,0,0,0,0,0,0,0,0,0,0,0,0,0,0,0,0,0,0,0,
0,0,0,0,0,0,0,0,0,0,0,0,0,0,0,0,0,0,0,0,0,0,0,3553,0,0,0,3553,0,0,0,0,0,0,0,0,0,0,0,0,0,0,0,0,0,0,0,0,0,0,0,0,0,0,0,0,0,0,
0,0,0,0,0,0,0,0,0,0,0,0,0,0,0,0,0,0,0,0,0,0,0,3553,0,0,0,3553,0,0,0,0,0,0,0,0,0,0,0,0,0,0,0,0,0,0,0,0,0,0,0,0,0,0,0,0,0,0,
0,0,0,0,0,0,0,0,0,0,0,0,0,0,0,0,0,0,0,0,0,0,0,3553,3553,3553,3553,3553,0,0,0,0,0,0,0,0,0,0,0,0,0,0,0,0,0,0,0,0,0,0,0,0,0,0,0,0,0,0,
0,0,0,0,0,0,0,0,0,0,0,0,0,0,0,0,0,0,0,0,0,0,0,0,0,0,0,0,0,0,0,0,0,0,0,0,0,0,0,0,0,0,0,0,0,0,0,0,0,0,0,0,0,0,0,0,0,0
</data>
 </layer>
 <layer id="9" name="Buildings2" width="58" height="34">
  <data encoding="csv">
0,0,0,0,0,0,0,0,0,0,0,0,0,0,0,0,0,0,0,0,0,0,0,0,0,0,0,0,0,0,0,0,0,0,0,0,0,0,0,0,0,0,0,0,0,0,0,0,0,0,0,0,0,0,0,0,0,0,
0,0,0,0,0,0,0,0,0,0,0,0,0,0,0,0,0,0,0,0,0,0,0,0,0,0,0,0,0,0,0,0,0,0,0,0,0,0,0,0,0,0,0,0,0,0,0,0,0,0,0,0,0,0,0,0,0,0,
0,0,0,0,0,0,0,0,0,0,0,0,0,0,0,0,0,0,0,0,0,0,0,0,0,0,0,0,0,0,0,0,0,0,0,0,0,0,0,0,0,0,0,0,0,0,0,0,0,0,0,0,0,0,0,0,0,0,
0,0,0,0,0,0,0,0,0,0,0,0,0,0,0,0,0,0,0,0,0,0,0,0,0,0,0,0,0,0,0,0,0,0,0,0,0,0,0,0,0,0,0,0,0,0,0,0,0,0,0,0,0,0,0,0,0,0,
0,0,0,0,0,0,0,0,0,0,0,0,0,0,0,0,0,0,0,0,0,0,0,0,0,0,0,0,0,0,0,0,0,0,0,0,0,0,0,0,0,0,0,0,0,0,0,0,0,0,0,0,0,0,0,0,0,0,
0,0,0,0,0,0,0,0,0,0,0,0,0,0,0,0,0,0,0,0,0,0,0,0,0,0,0,0,0,0,0,0,0,0,0,0,0,0,0,0,0,0,0,0,0,0,0,0,0,0,0,0,0,0,0,0,0,0,
0,0,0,0,0,0,0,0,0,0,0,0,0,0,0,0,0,0,0,0,0,0,0,0,0,0,0,0,0,0,0,0,0,0,0,0,0,0,0,0,0,0,0,0,0,0,0,0,0,0,0,0,0,0,0,0,0,0,
0,0,0,0,0,0,0,0,0,0,0,0,0,0,0,0,0,0,0,0,0,0,0,0,0,0,0,0,0,0,0,0,0,0,0,0,0,0,0,0,0,0,0,0,0,0,0,0,0,0,0,0,0,0,0,0,0,0,
0,0,0,0,0,0,0,0,0,0,0,0,0,0,0,0,0,0,0,0,0,0,0,0,0,0,0,0,0,0,0,0,0,0,0,0,0,0,0,0,0,0,0,0,0,0,0,0,0,0,0,0,0,0,0,0,0,0,
0,0,0,0,0,0,0,0,0,0,0,0,0,0,0,0,0,0,0,0,0,0,0,0,0,0,0,0,0,0,0,0,0,0,0,0,0,0,0,0,0,0,0,0,0,0,0,0,0,0,0,0,0,0,0,0,0,0,
0,0,0,0,0,0,0,0,0,0,0,0,0,0,0,0,0,0,0,0,0,0,0,0,0,0,0,0,0,0,0,0,0,0,0,0,0,0,0,0,0,0,0,0,0,0,0,0,0,0,0,0,0,0,0,0,0,0,
0,0,0,0,0,0,0,0,0,0,0,0,0,0,0,0,0,0,0,0,0,0,0,0,0,0,0,0,0,0,0,0,0,0,0,0,0,0,0,0,0,0,0,0,0,0,0,0,0,0,0,0,0,0,0,0,0,0,
0,0,0,0,0,0,0,0,0,0,0,0,0,0,0,0,0,0,0,0,0,0,0,0,0,0,0,0,0,0,0,0,0,0,0,0,0,0,0,0,0,0,0,0,0,0,0,0,0,0,0,0,0,0,0,0,0,0,
0,0,0,0,0,0,0,0,0,0,0,0,0,0,0,0,0,0,0,0,0,0,0,0,0,0,0,0,0,0,0,0,0,0,0,0,0,0,0,0,0,0,0,0,0,0,0,0,0,0,0,0,0,0,0,0,0,0,
0,0,0,0,0,0,0,0,0,0,0,0,4253,4254,4255,0,0,0,0,0,0,0,0,0,0,0,0,0,0,0,0,0,0,0,0,4256,4257,4258,0,0,0,0,0,0,0,0,0,0,0,0,0,0,0,0,0,0,0,0,
0,0,0,0,0,0,0,0,0,0,0,0,4283,4284,4285,0,0,0,0,0,0,0,0,0,0,0,0,0,0,0,0,0,0,0,0,4286,4287,4288,0,0,0,0,0,0,0,0,0,0,0,0,0,0,0,0,0,0,0,0,
0,0,0,0,0,0,0,0,0,0,0,0,4313,4314,4315,0,0,0,0,0,0,0,0,0,0,0,0,0,0,0,0,0,0,0,0,4316,4317,4318,0,0,0,0,0,0,0,0,0,0,0,0,0,0,0,0,0,0,0,0,
0,0,0,0,0,0,0,0,0,0,0,0,0,0,0,0,0,0,0,0,0,0,0,0,0,0,0,0,0,0,0,0,0,0,0,0,0,0,0,0,0,0,0,0,0,0,0,0,0,0,0,0,0,0,0,0,0,0,
0,0,0,0,0,0,0,0,0,0,0,0,0,0,0,0,0,0,0,0,0,0,0,0,0,0,0,0,0,0,0,0,0,0,0,0,0,0,0,0,0,0,0,0,0,0,0,0,0,0,0,0,0,0,0,0,0,0,
0,0,0,0,0,0,0,0,0,0,0,0,0,0,0,0,0,0,0,0,0,0,0,0,0,0,0,0,0,0,0,0,4249,4250,0,0,0,0,0,0,0,0,0,0,0,0,0,0,0,0,0,0,0,0,0,0,0,0,
0,0,0,0,0,0,0,0,0,0,0,0,0,0,0,0,0,0,0,0,0,0,0,0,0,0,0,0,0,0,0,0,4279,4280,0,0,0,0,0,0,0,0,0,0,0,0,0,0,0,0,0,0,0,0,0,0,0,0,
0,0,0,0,0,0,0,0,0,0,0,0,0,0,0,0,0,0,0,0,0,0,0,0,0,0,0,0,0,0,0,0,4309,4310,0,0,0,0,0,0,0,0,0,0,0,0,0,0,0,0,0,0,0,0,0,0,0,0,
0,0,0,0,0,0,0,0,0,0,0,0,0,0,0,0,0,0,0,0,0,0,0,0,0,0,0,0,0,0,0,0,0,0,0,0,0,0,0,0,0,0,0,0,0,0,0,0,0,0,0,0,0,0,0,0,0,0,
0,0,0,0,0,0,0,0,0,0,0,0,0,0,0,0,0,0,0,0,0,0,0,0,0,0,0,0,0,0,0,0,0,0,0,0,0,0,0,0,0,0,0,0,0,0,0,0,0,0,0,0,0,0,0,0,0,0,
0,0,0,0,0,0,0,0,0,0,0,0,0,0,0,0,0,0,0,0,0,0,0,0,0,0,0,0,0,0,0,0,4251,4252,0,0,0,0,0,0,0,0,0,0,0,0,0,0,0,0,0,0,0,0,0,0,0,0,
0,0,0,0,0,0,0,0,0,0,0,0,0,0,0,0,0,0,0,0,0,0,0,0,0,0,0,0,0,0,0,0,4281,4282,0,0,0,0,0,0,0,0,0,0,0,0,0,0,0,0,0,0,0,0,0,0,0,0,
0,0,0,0,0,0,0,0,0,0,0,0,0,0,0,0,0,0,0,0,0,0,0,0,0,0,0,0,0,0,0,0,4311,4312,0,0,0,0,0,0,0,0,0,0,0,0,0,0,0,0,0,0,0,0,0,0,0,0,
0,0,0,0,0,0,0,0,0,0,0,0,0,0,0,0,0,0,0,0,0,0,0,0,0,0,0,0,0,0,0,0,4341,4342,0,0,0,0,0,0,0,0,0,0,0,0,0,0,0,0,0,0,0,0,0,0,0,0,
0,0,0,0,0,0,0,0,0,0,0,0,0,0,0,0,0,0,0,0,0,0,0,0,0,0,0,0,0,0,0,0,0,0,0,0,0,0,0,0,0,0,0,0,0,0,0,0,0,0,0,0,0,0,0,0,0,0,
0,0,0,0,0,0,0,0,0,0,0,0,0,0,0,0,0,0,0,0,0,0,0,0,0,0,0,0,0,0,0,0,0,0,0,0,0,0,0,0,0,0,0,0,0,0,0,0,0,0,0,0,0,0,0,0,0,0,
0,0,0,0,0,0,0,0,0,0,0,0,0,0,0,0,0,0,0,0,0,0,0,0,0,0,0,0,0,0,0,0,0,0,0,0,0,0,0,0,0,0,0,0,0,0,0,0,0,0,0,0,0,0,0,0,0,0,
0,0,0,0,0,0,0,0,0,0,0,0,0,0,0,0,0,0,0,0,0,0,0,0,0,0,0,0,0,0,0,0,0,0,0,0,0,0,0,0,0,0,0,0,0,0,0,0,0,0,0,0,0,0,0,0,0,0,
0,0,0,0,0,0,0,0,0,0,0,0,0,0,0,0,0,0,0,0,0,0,0,0,0,0,0,0,0,0,0,0,0,0,0,0,0,0,0,0,0,0,0,0,0,0,0,0,0,0,0,0,0,0,0,0,0,0,
0,0,0,0,0,0,0,0,0,0,0,0,0,0,0,0,0,0,0,0,0,0,0,0,0,0,0,0,0,0,0,0,0,0,0,0,0,0,0,0,0,0,0,0,0,0,0,0,0,0,0,0,0,0,0,0,0,0
</data>
 </layer>
 <layer id="3" name="Front" width="58" height="34">
  <properties>
   <property name="Action" value="Door"/>
  </properties>
  <data encoding="csv">
0,0,0,0,0,0,0,0,0,0,0,0,0,0,0,0,0,0,0,0,0,0,0,0,0,0,0,0,0,0,0,0,0,0,0,0,3587,3555,3555,3555,3555,3555,3555,3555,3555,3559,0,0,0,0,0,0,0,0,0,0,0,0,
0,0,0,3554,3555,3555,3555,3555,3555,3555,3555,3555,3555,3555,3556,0,0,0,0,0,0,0,0,0,0,0,0,0,0,0,0,0,0,0,0,0,3613,0,4124,0,0,0,4124,0,0,3614,0,0,0,0,0,0,0,0,0,0,0,0,
0,0,3583,3826,0,4124,0,0,0,0,0,0,4124,0,3828,3584,0,0,0,0,0,0,0,0,0,0,0,0,0,0,0,0,0,0,0,0,3613,4215,4154,0,1258,0,4154,0,4215,3614,0,0,0,0,0,0,0,0,0,0,0,0,
0,0,3613,0,0,4154,3563,3564,0,4009,0,0,4154,0,0,3614,0,0,0,0,0,0,0,0,0,0,0,0,0,0,0,0,0,0,0,0,3613,0,0,0,0,0,0,0,0,3614,0,0,0,0,0,0,0,0,0,0,0,0,
0,0,3613,0,4130,0,3591,3592,0,0,4128,4129,4155,0,0,3614,0,0,0,0,0,0,0,0,0,0,0,0,0,0,0,0,0,0,0,0,3613,0,0,0,0,0,0,0,0,3614,0,0,0,0,0,0,0,0,0,0,0,0,
0,0,3613,0,0,0,3621,3622,0,0,0,0,0,0,0,3614,0,0,0,0,0,0,0,0,0,0,0,0,0,0,0,0,0,0,0,0,3613,0,0,0,0,0,0,0,0,3614,0,0,0,0,0,0,0,0,0,0,0,0,
0,0,3613,0,0,0,0,0,0,0,0,0,0,0,0,3614,0,0,0,0,0,0,0,0,0,0,0,0,0,0,0,0,0,0,0,0,3613,0,0,0,0,0,0,0,0,3614,0,0,0,0,0,0,0,0,0,0,0,0,
0,0,3613,4183,0,0,0,0,0,0,0,4006,4007,4008,0,3614,0,0,0,0,0,0,0,0,0,0,0,0,0,0,0,0,0,0,0,0,3613,0,0,0,0,4259,4260,4261,0,3614,0,0,0,0,0,0,0,0,0,0,0,0,
0,0,3613,4213,0,0,0,0,0,0,0,0,0,0,0,3614,0,0,0,0,0,0,0,0,0,0,0,0,0,0,0,0,0,0,0,0,3613,0,0,0,0,0,0,0,0,3614,0,0,0,0,0,0,0,0,0,0,0,0,
0,0,3613,4243,0,0,0,0,0,0,0,0,0,0,0,3614,0,0,0,0,0,0,0,0,0,0,0,0,0,0,0,0,0,0,0,0,3613,0,0,0,0,0,0,0,0,3614,0,0,0,0,0,0,0,0,0,0,0,0,
0,0,3613,4273,0,0,0,0,0,0,0,0,0,0,0,3614,0,0,0,0,3554,3555,3555,3555,3555,3555,3555,3555,3555,3555,3556,0,0,0,0,0,3673,3674,3675,0,3676,3649,3678,3678,3679,3680,0,0,0,0,0,0,0,0,0,0,0,0,
0,0,3673,3674,3678,3678,3678,3678,3675,57,3676,3678,3678,3678,3679,3680,3561,3555,3555,3557,3826,0,0,3800,3801,3794,3802,3803,0,0,3828,3560,3555,3555,3559,0,0,0,3613,0,3614,0,0,0,0,0,0,0,0,0,0,0,0,0,0,0,0,0,
0,0,0,0,0,0,0,0,3613,89,3614,0,0,0,0,0,3613,0,0,0,0,0,4215,3830,3831,3824,3832,3833,4215,0,0,0,0,0,3614,0,0,0,3613,0,3614,0,0,0,0,0,0,0,0,0,0,0,0,0,0,0,0,0,
0,0,0,0,0,0,0,0,3613,0,3646,3555,3555,3555,3555,3555,3647,0,4277,0,0,0,0,3860,3861,3854,3862,3863,0,0,0,0,4277,0,3646,3555,3555,3555,3647,0,3646,3555,3555,3798,0,0,0,0,0,0,0,0,0,0,0,0,0,0,
0,0,0,0,0,0,0,0,3613,0,0,0,0,0,0,0,0,0,4307,0,0,0,3733,3890,3891,3708,3892,3893,3733,0,0,0,4307,0,0,0,0,0,0,0,0,0,0,3614,0,0,0,0,0,0,0,0,0,0,0,0,0,0,
0,0,0,0,0,0,0,0,3613,0,4215,0,0,0,0,0,4215,0,0,0,0,0,3763,0,3737,3738,3739,0,3763,0,0,0,0,0,4215,0,0,0,4215,0,0,0,0,3614,0,0,0,0,0,0,0,0,0,0,0,0,0,0,
0,0,0,0,0,0,0,0,3613,0,0,0,0,0,0,0,0,0,0,0,0,3733,0,0,0,0,0,0,0,3733,0,0,0,0,0,0,0,0,0,0,0,0,0,3614,0,0,0,0,0,0,0,0,0,0,0,0,0,0,
0,0,0,0,0,0,0,0,3643,3678,3678,3678,3678,3678,3678,3678,3675,0,0,0,0,3763,0,0,0,0,0,0,0,3763,0,0,0,0,3676,3678,3678,3678,3678,3678,3678,3675,0,3614,0,0,0,0,0,0,0,0,0,0,0,0,0,0,
0,0,0,0,0,0,0,0,0,0,0,0,0,0,0,0,3613,0,0,0,0,0,0,0,0,0,0,0,0,0,0,0,0,0,3614,0,0,0,0,0,0,3613,0,3614,0,0,0,0,0,0,0,0,0,0,0,0,0,0,
0,0,0,0,0,0,0,0,0,0,0,0,0,0,0,0,3613,0,0,0,0,0,0,0,0,0,0,0,0,0,0,0,0,0,3614,0,0,0,0,0,0,3613,57,3614,0,0,0,0,0,0,0,0,0,0,0,0,0,0,
0,0,0,0,0,0,0,0,0,0,0,0,0,0,0,0,3613,4365,0,0,0,3733,0,0,0,0,0,0,0,3733,0,0,0,0,3614,0,0,0,0,0,0,3613,89,3614,0,0,0,0,0,0,0,0,0,0,0,0,0,0,
0,0,0,0,0,0,0,0,0,0,0,0,0,0,0,0,3613,4395,0,0,0,3763,0,0,0,0,0,0,0,3763,0,0,0,0,3614,0,0,0,0,0,0,3613,0,3614,0,0,0,0,0,0,0,0,0,0,0,0,0,0,
0,0,0,0,0,0,0,0,0,0,0,0,0,0,0,0,3613,0,0,0,0,0,0,0,0,0,0,0,0,0,0,0,0,0,3614,0,0,0,0,0,0,3643,3678,3644,0,0,0,0,0,0,0,0,0,0,0,0,0,0,
0,0,0,0,0,0,0,0,0,0,0,0,0,0,0,0,3613,0,0,0,0,0,0,0,0,0,0,0,0,0,0,0,0,0,3614,0,0,0,0,0,0,0,0,0,0,0,0,0,0,0,0,0,0,0,0,0,0,0,
0,0,0,0,0,0,0,0,0,0,0,0,0,0,0,0,3613,4365,0,0,0,3733,0,0,0,0,0,0,0,3733,0,0,0,0,3614,0,0,0,0,0,0,0,0,0,0,0,0,0,0,0,0,0,0,0,0,0,0,0,
0,0,0,0,0,0,0,0,0,0,0,0,0,0,0,0,3613,4395,0,0,0,3763,0,0,0,0,0,0,0,3763,0,0,0,0,3614,0,0,0,0,0,0,0,0,0,0,0,0,0,0,0,0,0,0,0,0,0,0,0,
0,0,0,0,0,0,0,0,0,0,0,0,0,0,0,0,3613,0,0,0,0,0,0,0,0,0,0,0,0,0,0,0,0,0,3614,0,0,0,0,0,0,0,0,0,0,0,0,0,0,0,0,0,0,0,0,0,0,0,
0,0,0,0,0,0,0,0,0,0,0,0,0,0,0,0,3613,0,0,0,0,0,0,0,0,0,0,0,0,0,0,0,0,0,3614,0,0,0,0,0,0,0,0,0,0,0,0,0,0,0,0,0,0,0,0,0,0,0,
0,0,0,0,0,0,0,0,0,0,0,0,0,0,0,0,3673,3674,3678,3678,3678,3678,3678,3675,0,0,0,3676,3678,3678,3678,3678,3678,3679,3680,0,0,0,0,0,0,0,0,0,0,0,0,0,0,0,0,0,0,0,0,0,0,0,
0,0,0,0,0,0,0,0,0,0,0,0,0,0,0,0,3553,3553,3553,3553,3553,3553,3553,3613,0,0,0,3614,3553,3553,3553,3553,3553,3553,3553,0,0,0,0,0,0,0,0,0,0,0,0,0,0,0,0,0,0,0,0,0,0,0,
0,0,0,0,0,0,0,0,0,0,0,0,0,0,0,0,0,0,0,0,0,0,0,3613,0,0,0,3614,0,0,0,0,0,0,0,0,0,0,0,0,0,0,0,0,0,0,0,0,0,0,0,0,0,0,0,0,0,0,
0,0,0,0,0,0,0,0,0,0,0,0,0,0,0,0,0,0,0,0,0,0,0,3643,3678,3678,3678,3644,0,0,0,0,0,0,0,0,0,0,0,0,0,0,0,0,0,0,0,0,0,0,0,0,0,0,0,0,0,0,
0,0,0,0,0,0,0,0,0,0,0,0,0,0,0,0,0,0,0,0,0,0,0,3553,3553,3553,3553,3553,0,0,0,0,0,0,0,0,0,0,0,0,0,0,0,0,0,0,0,0,0,0,0,0,0,0,0,0,0,0,
0,0,0,0,0,0,0,0,0,0,0,0,0,0,0,0,0,0,0,0,0,0,0,0,0,0,0,0,0,0,0,0,0,0,0,0,0,0,0,0,0,0,0,0,0,0,0,0,0,0,0,0,0,0,0,0,0,0
</data>
 </layer>
 <layer id="4" name="Paths" width="58" height="34">
  <data encoding="csv">
0,0,0,0,0,0,0,0,0,0,0,0,0,0,0,0,0,0,0,0,0,0,0,0,0,0,0,0,0,0,0,0,0,0,0,0,0,0,0,0,0,0,0,0,0,0,0,0,0,0,0,0,0,0,0,0,0,0,
0,0,0,0,0,0,0,0,0,0,0,0,0,0,0,0,0,0,0,0,0,0,0,0,0,0,0,0,0,0,0,0,0,0,0,0,0,0,0,0,0,0,0,0,0,0,0,0,0,0,0,0,0,0,0,0,0,0,
0,0,0,0,0,0,0,0,0,0,0,0,0,0,0,0,0,0,0,0,0,0,0,0,0,0,0,0,0,0,0,0,0,0,0,0,0,0,0,0,0,0,0,0,0,0,0,0,0,0,0,0,0,0,0,0,0,0,
0,0,0,0,0,0,0,0,0,0,0,0,0,0,0,0,0,0,0,0,0,0,0,0,0,0,0,0,0,0,0,0,0,0,0,0,0,0,0,0,0,0,0,0,0,0,0,0,0,0,0,0,0,0,0,0,0,0,
0,0,0,0,0,0,0,0,0,0,0,0,0,0,0,0,0,0,0,0,0,0,0,0,0,0,0,0,0,0,0,0,0,0,0,0,0,0,0,0,0,0,0,0,0,0,0,0,0,0,0,0,0,0,0,0,0,0,
0,0,0,0,0,0,0,0,0,0,0,0,0,0,0,0,0,0,0,0,0,0,0,0,0,0,0,0,0,0,0,0,0,0,0,0,0,0,0,0,0,0,0,0,0,0,0,0,0,0,0,0,0,0,0,0,0,0,
0,0,0,0,0,0,0,0,0,0,0,0,0,0,0,0,0,0,0,0,0,0,0,0,0,0,0,0,0,0,0,0,0,0,0,0,0,0,0,0,0,0,0,0,0,0,0,0,0,0,0,0,0,0,0,0,0,0,
0,0,0,0,0,0,0,0,0,0,0,0,0,0,0,0,0,0,0,0,0,0,0,0,0,0,0,0,0,0,0,0,0,0,0,0,0,0,0,0,0,0,0,0,0,0,0,0,0,0,0,0,0,0,0,0,0,0,
0,0,0,0,0,0,0,0,0,0,0,0,0,0,0,0,0,0,0,0,0,0,0,0,0,0,0,0,0,0,0,0,0,0,0,0,0,0,0,0,0,0,0,0,0,0,0,0,0,0,0,0,0,0,0,0,0,0,
0,0,0,0,0,0,0,0,0,0,0,0,0,0,0,0,0,0,0,0,0,0,0,0,0,0,0,0,0,0,0,0,0,0,0,0,0,0,0,0,0,0,0,0,0,0,0,0,0,0,0,0,0,0,0,0,0,0,
0,0,0,0,0,0,0,0,0,0,0,0,0,0,0,0,0,0,0,0,0,0,0,0,0,0,0,0,0,0,0,0,0,0,0,0,0,0,0,0,0,0,0,0,0,0,0,0,0,0,0,0,0,0,0,0,0,0,
0,0,0,0,0,0,0,0,0,0,0,0,0,0,0,0,0,0,0,0,0,0,0,0,0,0,0,0,0,0,0,0,0,0,0,0,0,0,0,0,0,0,0,0,0,0,0,0,0,0,0,0,0,0,0,0,0,0,
0,0,0,0,0,0,0,0,0,0,0,0,0,0,0,0,0,0,0,0,0,0,0,0,0,0,0,0,0,0,0,0,0,0,0,0,0,0,0,0,0,0,0,0,0,0,0,0,0,0,0,0,0,0,0,0,0,0,
0,0,0,0,0,0,0,0,0,0,0,0,0,0,0,0,0,0,0,0,0,0,0,0,0,0,0,0,0,0,0,0,0,0,0,0,0,0,0,0,0,0,0,0,0,0,0,0,0,0,0,0,0,0,0,0,0,0,
0,0,0,0,0,0,0,0,0,0,0,0,0,0,0,0,0,0,0,0,0,0,0,0,0,0,0,0,0,0,0,0,0,0,0,0,0,0,0,0,0,0,0,0,0,0,0,0,0,0,0,0,0,0,0,0,0,0,
0,0,0,0,0,0,0,0,0,0,0,0,0,0,0,0,0,0,0,0,0,0,0,0,0,0,0,0,0,0,0,0,0,0,0,0,0,0,0,0,0,0,0,0,0,0,0,0,0,0,0,0,0,0,0,0,0,0,
0,0,0,0,0,0,0,0,0,0,0,0,0,0,0,0,0,0,0,0,0,0,0,0,0,0,0,0,0,0,0,0,0,0,0,0,0,0,0,0,0,0,0,0,0,0,0,0,0,0,0,0,0,0,0,0,0,0,
0,0,0,0,0,0,0,0,0,0,0,0,0,0,0,0,0,0,0,0,0,0,0,0,0,0,0,0,0,0,0,0,0,0,0,0,0,0,0,0,0,0,0,0,0,0,0,0,0,0,0,0,0,0,0,0,0,0,
0,0,0,0,0,0,0,0,0,0,0,0,0,0,0,0,0,0,0,0,0,0,0,0,0,0,0,0,0,0,0,0,0,0,0,0,0,0,0,0,0,0,0,0,0,0,0,0,0,0,0,0,0,0,0,0,0,0,
0,0,0,0,0,0,0,0,0,0,0,0,0,0,0,0,0,0,0,0,0,0,0,0,0,0,0,0,0,0,0,0,0,0,0,0,0,0,0,0,0,0,0,0,0,0,0,0,0,0,0,0,0,0,0,0,0,0,
0,0,0,0,0,0,0,0,0,0,0,0,0,0,0,0,0,0,0,0,0,0,0,0,0,0,0,0,0,0,0,0,0,0,0,0,0,0,0,0,0,0,0,0,0,0,0,0,0,0,0,0,0,0,0,0,0,0,
0,0,0,0,0,0,0,0,0,0,0,0,0,0,0,0,0,0,0,0,0,0,0,0,0,0,0,0,0,0,0,0,0,0,0,0,0,0,0,0,0,0,0,0,0,0,0,0,0,0,0,0,0,0,0,0,0,0,
0,0,0,0,0,0,0,0,0,0,0,0,0,0,0,0,0,0,0,0,0,0,0,0,0,0,0,0,0,0,0,0,0,0,0,0,0,0,0,0,0,0,0,0,0,0,0,0,0,0,0,0,0,0,0,0,0,0,
0,0,0,0,0,0,0,0,0,0,0,0,0,0,0,0,0,0,0,0,0,0,0,0,0,0,0,0,0,0,0,0,0,0,0,0,0,0,0,0,0,0,0,0,0,0,0,0,0,0,0,0,0,0,0,0,0,0,
0,0,0,0,0,0,0,0,0,0,0,0,0,0,0,0,0,0,0,0,0,0,0,0,0,0,0,0,0,0,0,0,0,0,0,0,0,0,0,0,0,0,0,0,0,0,0,0,0,0,0,0,0,0,0,0,0,0,
0,0,0,0,0,0,0,0,0,0,0,0,0,0,0,0,0,0,0,0,0,0,0,0,0,0,0,0,0,0,0,0,0,0,0,0,0,0,0,0,0,0,0,0,0,0,0,0,0,0,0,0,0,0,0,0,0,0,
0,0,0,0,0,0,0,0,0,0,0,0,0,0,0,0,0,0,0,0,0,0,0,0,0,0,0,0,0,0,0,0,0,0,0,0,0,0,0,0,0,0,0,0,0,0,0,0,0,0,0,0,0,0,0,0,0,0,
0,0,0,0,0,0,0,0,0,0,0,0,0,0,0,0,0,0,0,0,0,0,0,0,0,0,0,0,0,0,0,0,0,0,0,0,0,0,0,0,0,0,0,0,0,0,0,0,0,0,0,0,0,0,0,0,0,0,
0,0,0,0,0,0,0,0,0,0,0,0,0,0,0,0,0,0,0,0,0,0,0,0,0,0,0,0,0,0,0,0,0,0,0,0,0,0,0,0,0,0,0,0,0,0,0,0,0,0,0,0,0,0,0,0,0,0,
0,0,0,0,0,0,0,0,0,0,0,0,0,0,0,0,0,0,0,0,0,0,0,0,0,0,0,0,0,0,0,0,0,0,0,0,0,0,0,0,0,0,0,0,0,0,0,0,0,0,0,0,0,0,0,0,0,0,
0,0,0,0,0,0,0,0,0,0,0,0,0,0,0,0,0,0,0,0,0,0,0,0,0,0,0,0,0,0,0,0,0,0,0,0,0,0,0,0,0,0,0,0,0,0,0,0,0,0,0,0,0,0,0,0,0,0,
0,0,0,0,0,0,0,0,0,0,0,0,0,0,0,0,0,0,0,0,0,0,0,0,0,0,0,0,0,0,0,0,0,0,0,0,0,0,0,0,0,0,0,0,0,0,0,0,0,0,0,0,0,0,0,0,0,0,
0,0,0,0,0,0,0,0,0,0,0,0,0,0,0,0,0,0,0,0,0,0,0,0,0,0,0,0,0,0,0,0,0,0,0,0,0,0,0,0,0,0,0,0,0,0,0,0,0,0,0,0,0,0,0,0,0,0,
0,0,0,0,0,0,0,0,0,0,0,0,0,0,0,0,0,0,0,0,0,0,0,0,0,0,0,0,0,0,0,0,0,0,0,0,0,0,0,0,0,0,0,0,0,0,0,0,0,0,0,0,0,0,0,0,0,0
</data>
 </layer>
 <objectgroup id="5" name="Back"/>
 <objectgroup id="6" name="Buildings" visible="0">
  <object id="28" name="TileData" x="144" y="208" width="16" height="16">
   <properties>
    <property name="Action" value="Door WLMRyden"/>
   </properties>
  </object>
  <object id="29" name="TileData" x="672" y="336" width="16" height="16">
   <properties>
    <property name="Action" value="Door WLMMarcus"/>
   </properties>
  </object>
  <object id="30" name="TileData" x="512" y="384" width="16" height="16">
   <properties>
    <property name="Action" value="Message &quot;WRMCastle.0&quot;"/>
   </properties>
  </object>
  <object id="31" name="TileData" x="512" y="400" width="16" height="16">
   <properties>
    <property name="Action" value="Message &quot;WRMCastle.0&quot;"/>
   </properties>
  </object>
  <object id="32" name="TileData" x="512" y="416" width="16" height="16">
   <properties>
    <property name="Action" value="Message &quot;WRMCastle.0&quot;"/>
   </properties>
  </object>
  <object id="33" name="TileData" x="512" y="432" width="16" height="16">
   <properties>
    <property name="Action" value="Message &quot;WRMCastle.0&quot;"/>
   </properties>
  </object>
  <object id="34" name="TileData" x="528" y="432" width="16" height="16">
   <properties>
    <property name="Action" value="Message &quot;WRMCastle.0&quot;"/>
   </properties>
  </object>
  <object id="35" name="TileData" x="528" y="384" width="16" height="16">
   <properties>
    <property name="Action" value="Message &quot;WRMCastle.0&quot;"/>
   </properties>
  </object>
  <object id="36" name="TileData" x="512" y="352" width="16" height="16">
   <properties>
    <property name="Action" value="Message &quot;WRMCastle.1&quot;"/>
   </properties>
  </object>
  <object id="37" name="TileData" x="528" y="352" width="16" height="16">
   <properties>
    <property name="Action" value="Message &quot;WRMCastle.1&quot;"/>
   </properties>
  </object>
  <object id="38" name="TileData" x="512" y="336" width="16" height="16">
   <properties>
    <property name="Action" value="Message &quot;WRMCastle.1&quot;"/>
   </properties>
  </object>
  <object id="39" name="TileData" x="512" y="320" width="16" height="16">
   <properties>
    <property name="Action" value="Message &quot;WRMCastle.1&quot;"/>
   </properties>
  </object>
  <object id="40" name="TileData" x="512" y="304" width="16" height="16">
   <properties>
    <property name="Action" value="Message &quot;WRMCastle.1&quot;"/>
   </properties>
  </object>
  <object id="41" name="TileData" x="528" y="304" width="16" height="16">
   <properties>
    <property name="Action" value="Message &quot;WRMCastle.1&quot;"/>
   </properties>
  </object>
  <object id="42" name="TileData" x="528" y="320" width="16" height="16">
   <properties>
    <property name="Action" value="Message &quot;WRMCastle.1&quot;"/>
   </properties>
  </object>
  <object id="43" name="TileData" x="528" y="336" width="16" height="16">
   <properties>
    <property name="Action" value="Message &quot;WRMCastle.1&quot;"/>
   </properties>
  </object>
  <object id="44" name="TileData" x="528" y="400" width="16" height="16">
   <properties>
    <property name="Action" value="Message &quot;WRMCastle.0&quot;"/>
   </properties>
  </object>
  <object id="45" name="TileData" x="528" y="416" width="16" height="16">
   <properties>
    <property name="Action" value="Message &quot;WRMCastle.0&quot;"/>
   </properties>
  </object>
 </objectgroup>
 <objectgroup id="10" name="Buildings2"/>
 <objectgroup id="7" name="Front"/>
 <objectgroup id="8" name="Paths"/>
</map>
