<?xml version="1.0" encoding="UTF-8"?>
<map version="1.10" tiledversion="1.10.2" orientation="orthogonal" renderorder="right-down" compressionlevel="0" width="58" height="34" tilewidth="16" tileheight="16" infinite="0" nextlayerid="9" nextobjectid="31">
 <properties>
  <property name="AmbientLight" value="125 125 125"/>
  <property name="CustomMapOverlay" value="Underwater"/>
  <property name="Doors" value="9 13 1 120 42 21 1 120"/>
  <property name="Light" value="19 29 6 31 29 6 4 3 6 12 3 6"/>
  <property name="Music" value="malha_malharuins"/>
  <property name="Warp" value="24 32 Malha_Malha 28 30 25 32 Malha_Malha 28 30 26 32 Malha_Malha 28 30"/>
 </properties>
 <tileset firstgid="1" name="1" tilewidth="16" tileheight="16" tilecount="2176" columns="32">
  <image source="townInterior" width="512" height="1088"/>
  <tile id="546">
   <animation>
    <frame tileid="546" duration="150"/>
    <frame tileid="546" duration="150"/>
    <frame tileid="546" duration="150"/>
    <frame tileid="546" duration="150"/>
    <frame tileid="546" duration="150"/>
    <frame tileid="547" duration="150"/>
    <frame tileid="548" duration="150"/>
    <frame tileid="546" duration="150"/>
    <frame tileid="547" duration="150"/>
    <frame tileid="548" duration="150"/>
    <frame tileid="546" duration="150"/>
    <frame tileid="547" duration="150"/>
    <frame tileid="548" duration="150"/>
    <frame tileid="546" duration="150"/>
    <frame tileid="547" duration="150"/>
    <frame tileid="548" duration="150"/>
    <frame tileid="546" duration="150"/>
    <frame tileid="547" duration="150"/>
    <frame tileid="548" duration="150"/>
    <frame tileid="546" duration="150"/>
    <frame tileid="547" duration="150"/>
    <frame tileid="548" duration="150"/>
    <frame tileid="546" duration="150"/>
    <frame tileid="546" duration="150"/>
    <frame tileid="546" duration="150"/>
    <frame tileid="546" duration="150"/>
    <frame tileid="546" duration="150"/>
    <frame tileid="546" duration="150"/>
    <frame tileid="546" duration="150"/>
    <frame tileid="546" duration="150"/>
    <frame tileid="546" duration="150"/>
    <frame tileid="546" duration="150"/>
    <frame tileid="546" duration="150"/>
    <frame tileid="546" duration="150"/>
    <frame tileid="546" duration="150"/>
    <frame tileid="546" duration="150"/>
   </animation>
  </tile>
 </tileset>
 <tileset firstgid="2177" name="Paths" tilewidth="16" tileheight="16" tilecount="64" columns="4">
  <image source="paths" width="64" height="256"/>
 </tileset>
 <tileset firstgid="2241" name="z_MalhaInterior" tilewidth="16" tileheight="16" tilecount="900" columns="30">
  <image source="z_MalhaInterior.png" width="480" height="480"/>
 </tileset>
 <layer id="1" name="Back" width="58" height="34">
  <data encoding="csv">
0,0,0,0,0,0,0,0,0,0,0,0,0,0,0,0,0,0,0,0,0,0,0,0,0,0,0,0,0,0,0,0,0,0,0,0,0,0,0,0,0,0,0,0,0,0,0,0,0,0,0,0,0,0,0,0,0,0,
0,0,0,0,0,0,0,0,0,0,0,0,0,0,0,0,0,0,0,0,0,0,0,0,0,0,0,0,0,0,0,0,0,0,0,0,0,2411,2411,2411,2411,2411,2411,2411,2411,0,0,0,0,0,0,0,0,0,0,0,0,0,
0,0,2603,2623,2895,2623,2623,2623,2870,2603,2603,2603,2603,2603,2603,0,0,0,0,0,0,0,0,0,0,0,0,0,0,0,0,0,0,0,0,0,0,2411,2411,2411,2411,2411,2411,2411,2411,0,0,0,0,0,0,0,0,0,0,0,0,0,
0,2623,2623,2623,2623,2623,2623,2623,2900,2623,2623,2623,2623,2623,2623,0,0,0,0,0,0,0,0,0,0,0,0,0,0,0,0,0,0,0,0,0,0,2411,2411,2411,2411,2411,2411,2411,2411,0,0,0,0,0,0,0,0,0,0,0,0,0,
0,2623,2623,0,2575,2656,2656,0,0,0,0,0,0,0,2603,0,0,0,0,0,0,0,0,0,0,0,0,0,0,0,0,0,0,0,0,0,0,2531,2531,2531,2531,2531,2531,2531,2531,0,0,0,0,0,0,0,0,0,0,0,0,0,
0,0,2783,2663,2663,2663,2663,2663,2663,2663,2663,2663,2663,2663,2813,608,0,0,0,0,0,0,0,0,0,0,0,0,0,0,0,0,0,0,0,0,0,2531,2531,2531,2531,2531,2531,2531,2531,0,0,0,0,0,0,0,0,0,0,0,0,0,
0,0,2543,2543,2543,2543,2543,2543,2543,2543,2543,2543,2543,2543,2543,606,0,0,0,0,0,0,0,0,0,0,0,0,0,0,0,0,0,0,0,0,0,2531,2560,2561,2531,2531,2531,2531,2531,0,0,0,0,0,0,0,0,0,0,0,0,0,
0,0,2543,2543,2543,2543,2543,2543,2543,2543,2543,2543,2543,2543,2543,608,0,0,0,0,0,0,0,0,0,0,0,0,0,0,0,0,0,0,0,0,0,2411,2411,2411,2411,2411,2411,2411,2411,0,0,0,0,0,0,0,0,0,0,0,0,0,
0,0,2543,2543,2543,2543,2543,2543,2543,2543,2543,2543,2543,2543,2543,640,0,0,0,0,0,0,0,0,0,0,0,0,0,0,0,0,0,0,0,0,0,2411,2411,2411,2411,2411,2411,2411,2299,0,0,0,0,0,0,0,0,0,0,0,0,0,
0,0,2543,2543,2543,2543,2543,2543,2543,2543,2543,2897,2898,2899,2543,0,0,0,0,0,0,0,0,0,0,0,0,0,0,0,0,0,0,0,0,0,0,2411,2411,2411,2411,2411,2411,2411,2411,0,0,0,0,0,0,0,0,0,0,0,0,0,
0,0,2543,2543,2543,2543,2543,2543,2543,2543,2543,2927,2928,2929,2543,0,0,0,0,0,0,0,0,0,0,0,0,0,0,0,0,0,0,0,0,0,0,2411,2411,2411,2411,2411,2411,2411,2411,0,0,0,0,0,0,0,0,0,0,0,0,0,
0,0,2543,2543,2543,2543,2543,2543,2543,2543,2543,2543,2543,2543,2543,0,0,0,0,0,0,2571,2571,0,0,2591,2591,0,0,0,0,0,0,0,0,0,0,0,0,2411,0,0,0,0,0,0,0,0,0,0,0,0,0,0,0,0,0,0,
0,0,0,0,0,0,0,0,0,2411,0,0,0,0,0,0,0,0,0,0,0,2571,2571,0,2591,2591,2591,0,0,0,0,0,0,0,0,0,0,0,0,2411,0,0,0,0,0,0,0,0,0,0,0,0,0,0,0,0,0,0,
0,0,0,0,0,0,0,0,0,2411,0,0,0,0,0,0,0,0,0,0,0,0,0,0,2591,2591,2591,0,0,0,0,0,0,0,0,0,0,0,0,2411,0,0,0,0,0,0,0,0,0,0,0,0,0,0,0,0,0,0,
0,0,0,0,0,0,0,0,0,2744,0,0,0,0,0,0,0,0,0,0,0,0,2621,2411,2411,2411,2411,2411,2411,2411,0,0,0,0,0,0,0,0,0,2411,0,0,0,0,0,0,0,0,0,0,0,0,0,0,0,0,0,0,
0,0,0,0,0,0,0,0,0,2774,0,0,0,0,0,0,0,0,2391,2391,2411,2411,2411,2411,2412,2413,2414,2411,2411,2411,2411,2391,2391,2411,0,0,0,0,0,2299,0,0,0,0,0,0,0,0,0,0,0,0,0,0,0,0,0,0,
0,0,0,0,0,0,0,0,0,2411,0,0,0,0,0,0,0,2411,2411,2411,2411,2411,2411,2411,2417,2418,2419,2411,2411,2411,2411,2411,2411,2411,0,0,0,0,0,2411,2411,2411,2411,2411,0,0,0,0,0,0,0,0,0,0,0,0,0,0,
0,0,0,0,0,0,0,0,0,2411,2411,2411,2411,2411,2411,2411,2411,2411,2411,2411,2411,2411,2411,2411,2442,2443,2444,2411,2411,2411,2411,2411,2411,2411,2411,2411,2411,2411,2411,2411,2411,2411,2411,2411,0,0,0,0,0,0,0,0,0,0,0,0,0,0,
0,0,0,0,0,0,0,0,0,0,0,0,0,0,0,0,2391,2411,2411,2411,2411,2411,2411,2411,2714,2715,2716,2411,2411,2411,2411,2299,2411,2411,2411,0,0,0,0,0,0,0,2411,0,0,0,0,0,0,0,0,0,0,0,0,0,0,0,
0,0,0,0,0,0,0,0,0,0,0,0,0,0,0,0,2391,2411,2411,2411,2411,2411,2411,2411,2442,2443,2444,2411,2411,2411,2411,2411,2411,2411,2411,0,0,0,0,0,0,0,2411,0,0,0,0,0,0,0,0,0,0,0,0,0,0,0,
0,0,0,0,0,0,0,0,0,0,0,0,0,0,0,0,2391,2411,2411,2411,2411,2411,2411,2411,2442,2443,2444,2411,2411,2411,2411,2411,2411,2411,2411,0,0,0,0,0,0,0,2411,0,0,0,0,0,0,0,0,0,0,0,0,0,0,0,
0,0,0,0,0,0,0,0,0,0,0,0,0,0,0,0,2391,2411,2411,2411,2411,2411,2411,2411,2442,2443,2444,2411,2411,2411,2411,2411,2411,2411,2411,0,0,0,0,0,0,0,2411,0,0,0,0,0,0,0,0,0,0,0,0,0,0,0,
0,0,0,0,0,0,0,0,0,0,0,0,0,0,0,0,2391,2411,2411,2299,2411,2411,2411,2411,2442,2443,2444,2411,2411,2411,2411,2411,2411,2411,2411,0,0,0,0,0,0,0,2411,0,0,0,0,0,0,0,0,0,0,0,0,0,0,0,
0,0,0,0,0,0,0,0,0,0,0,0,0,0,0,0,2391,2411,2411,2411,2411,2411,2411,2411,2442,2443,2444,2411,2411,2411,2411,2411,2411,2411,2391,0,0,0,0,0,0,0,0,0,0,0,0,0,0,0,0,0,0,0,0,0,0,0,
0,0,0,0,0,0,0,0,0,0,0,0,0,0,0,0,2391,2411,2411,2411,2411,2411,2411,2411,2417,2418,2419,2411,2411,2411,2411,2411,2411,2411,2391,0,0,0,0,0,0,0,0,0,0,0,0,0,0,0,0,0,0,0,0,0,0,0,
0,0,0,0,0,0,0,0,0,0,0,0,0,0,0,0,2391,2411,2411,2411,2411,2411,2411,2411,2442,2443,2444,2411,2411,2411,2411,2411,2411,2411,2391,0,0,0,0,0,0,0,0,0,0,0,0,0,0,0,0,0,0,0,0,0,0,0,
0,0,0,0,0,0,0,0,0,0,0,0,0,0,0,0,2391,2411,2411,2411,2411,2411,2411,2411,2472,2473,2474,2411,2411,2411,2411,2411,2411,2411,2391,0,0,0,0,0,0,0,0,0,0,0,0,0,0,0,0,0,0,0,0,0,0,0,
0,0,0,0,0,0,0,0,0,0,0,0,0,0,0,0,2391,2411,2411,2411,2411,2411,2411,2411,2411,2411,2411,2411,2411,2411,2411,2411,2299,2411,2391,0,0,0,0,0,0,0,0,0,0,0,0,0,0,0,0,0,0,0,0,0,0,0,
0,0,0,0,0,0,0,0,0,0,0,0,0,0,0,0,2391,2411,2411,2411,2411,2411,2411,2411,2411,2411,2411,2411,2411,2411,2411,2411,2411,2411,2391,0,0,0,0,0,0,0,0,0,0,0,0,0,0,0,0,0,0,0,0,0,0,0,
0,0,0,0,0,0,0,0,0,0,0,0,0,0,0,0,0,0,0,0,0,0,0,0,2411,2411,2411,2411,0,0,0,0,0,0,0,0,0,0,0,0,0,0,0,0,0,0,0,0,0,0,0,0,0,0,0,0,0,0,
0,0,0,0,0,0,0,0,0,0,0,0,0,0,0,0,0,0,0,0,0,0,0,2411,2411,2411,2411,2411,0,0,0,0,0,0,0,0,0,0,0,0,0,0,0,0,0,0,0,0,0,0,0,0,0,0,0,0,0,0,
0,0,0,0,0,0,0,0,0,0,0,0,0,0,0,0,0,0,0,0,0,0,0,0,2411,2411,2411,0,0,0,0,0,0,0,0,0,0,0,0,0,0,0,0,0,0,0,0,0,0,0,0,0,0,0,0,0,0,0,
0,0,0,0,0,0,0,0,0,0,0,0,0,0,0,0,0,0,0,0,0,0,0,0,0,0,0,0,0,0,0,0,0,0,0,0,0,0,0,0,0,0,0,0,0,0,0,0,0,0,0,0,0,0,0,0,0,0,
0,0,0,0,0,0,0,0,0,0,0,0,0,0,0,0,0,0,0,0,0,0,0,0,0,0,0,0,0,0,0,0,0,0,0,0,0,0,0,0,0,0,0,0,0,0,0,0,0,0,0,0,0,0,0,0,0,0
</data>
 </layer>
 <layer id="2" name="Buildings" width="58" height="34">
  <data encoding="csv">
0,0,0,0,0,0,0,0,0,0,0,0,0,0,0,0,0,0,0,0,0,0,0,0,0,0,0,0,0,0,0,0,0,0,0,0,2241,2241,2241,2241,2241,2241,2241,2241,2241,2241,0,0,0,0,0,0,0,0,0,0,0,0,
0,2241,2241,2241,2241,2241,2241,2241,2241,2241,2241,2241,2241,2241,2241,2241,0,0,0,0,0,0,0,0,0,0,0,0,0,0,0,0,0,0,0,0,2241,0,0,0,0,0,0,0,0,2241,0,0,0,0,0,0,0,0,0,0,0,0,
0,2241,2894,2895,2895,2895,2895,2895,0,2895,2895,2895,2895,2895,2896,2241,0,0,0,0,0,0,0,0,0,0,0,0,0,0,0,0,0,0,0,0,2241,0,0,0,0,0,2749,2750,0,2241,0,0,0,0,0,0,0,0,0,0,0,0,
0,2241,2924,0,0,0,2925,0,0,0,0,0,0,2925,2926,2241,0,0,0,0,0,0,0,0,0,0,0,0,0,0,0,0,0,0,0,0,2241,2776,2775,2776,601,2777,2779,2780,0,2241,0,0,0,0,0,0,0,0,0,0,0,0,
0,2241,2658,2656,2656,2865,2866,2656,2656,2656,2656,2656,2656,2656,2657,2241,0,0,0,0,0,0,0,0,0,0,0,0,0,0,0,0,0,0,0,0,2241,2806,2805,2806,2808,2807,2809,2810,2989,2241,0,0,0,0,0,0,0,0,0,0,0,0,
0,2241,2688,2923,0,0,0,0,0,0,2921,2922,0,0,2687,2241,0,0,0,0,0,0,0,0,0,0,0,0,0,0,0,0,0,0,0,0,2241,0,0,0,0,0,0,0,2989,2241,0,0,0,0,0,0,0,0,0,0,0,0,
0,2241,0,0,0,2863,2864,0,0,0,0,0,0,0,0,2241,0,0,0,0,0,0,0,0,0,0,0,0,0,0,0,0,0,0,0,0,2241,0,0,0,0,0,0,0,3019,2241,0,0,0,0,0,0,0,0,0,0,0,0,
0,2241,0,0,0,0,0,0,0,0,0,0,0,0,0,2241,0,0,0,0,0,0,0,0,0,0,0,0,0,0,0,0,0,0,0,0,2241,0,0,0,0,0,0,0,0,2241,0,0,0,0,0,0,0,0,0,0,0,0,
0,2241,2990,0,0,0,0,0,0,0,0,2867,2868,2869,0,2241,0,0,0,0,0,0,0,0,0,0,0,0,0,0,0,0,0,0,0,0,2241,0,0,0,0,2986,2987,2988,0,2241,0,0,0,0,0,0,0,0,0,0,0,0,
0,2241,3020,0,0,0,0,0,0,0,0,0,0,0,0,2241,0,0,0,0,0,0,0,0,0,0,0,0,0,0,0,0,0,0,0,0,2241,0,0,0,0,3016,3017,3018,0,2241,0,0,0,0,0,0,0,0,0,0,0,0,
0,2241,3050,0,0,0,0,0,0,0,0,0,0,0,0,2241,0,0,0,2241,2651,2241,2241,2241,2241,2241,2241,2241,2241,2241,2652,2241,0,0,0,0,2241,0,0,0,0,0,0,0,0,2241,0,0,0,0,0,0,0,0,0,0,0,0,
0,2241,3080,0,0,0,0,0,0,0,0,0,0,0,0,2241,2241,2241,2241,2241,2681,2592,2592,0,2572,2591,2572,0,2592,2592,2682,2241,2241,2241,2241,0,0,2241,2241,0,2241,2241,2241,2241,2241,2241,0,0,0,0,0,0,0,0,0,0,0,0,
0,2241,2241,2241,2241,2241,2241,2241,2241,0,2241,2241,2241,2241,2241,2241,2241,2592,2592,2592,2711,2591,2591,0,2591,2591,2591,0,2591,2591,2712,2592,2592,2592,2241,2241,0,0,2241,0,2241,0,0,0,0,0,0,0,0,0,0,0,0,0,0,0,0,0,
0,0,0,0,0,0,0,0,2241,121,2241,2241,2241,2241,2241,2241,2241,2591,2591,2591,2741,2591,2591,2548,2591,2591,2591,2551,2591,2591,2742,2591,2591,2591,2571,2241,2241,2241,2241,0,2241,2241,2241,2241,0,0,0,0,0,0,0,0,0,0,0,0,0,0,
0,0,0,0,0,0,0,0,2241,0,2629,2592,2592,2592,2592,2592,2630,2591,2591,2591,2771,2621,3060,2743,2579,0,2580,2747,2621,2621,2772,2591,2591,2591,2629,2592,2592,2592,2630,0,2629,2592,2592,2241,0,0,0,0,0,0,0,0,0,0,0,0,0,0,
0,0,0,0,0,0,0,0,2241,0,2659,2591,2591,2591,2591,2591,2660,2621,2621,2621,2801,3089,3090,2743,0,0,0,2747,0,0,2802,2621,2621,2621,2659,2591,2591,2591,2660,0,2659,2591,2591,2241,0,0,0,0,0,0,0,0,0,0,0,0,0,0,
0,0,0,0,0,0,0,0,2241,0,2689,2621,2621,2621,2621,2621,2690,0,3022,0,0,0,2501,2743,2475,2476,2477,2747,2501,0,0,0,3023,0,2689,2621,2621,2621,2690,0,2689,2621,2621,2241,0,0,0,0,0,0,0,0,0,0,0,0,0,0,
0,0,0,0,0,0,0,0,2241,0,0,0,0,0,0,0,0,0,0,0,0,0,0,2743,0,0,0,2747,0,0,0,0,0,0,0,0,0,0,0,0,0,0,0,2241,0,0,0,0,0,0,0,0,0,0,0,0,0,0,
0,0,0,0,0,0,0,0,2241,2241,2241,2241,2241,2241,2241,2241,2241,0,0,0,0,2501,0,2713,0,0,0,2717,0,2501,0,0,0,0,2241,2241,2241,2241,2241,2241,2241,2241,0,2241,0,0,0,0,0,0,0,0,0,0,0,0,0,0,
0,0,0,0,0,0,0,0,0,0,0,0,0,0,0,0,2241,3023,0,0,0,0,0,0,0,0,0,0,0,0,0,0,3027,3028,2241,0,0,0,0,0,0,2241,0,2241,0,0,0,0,0,0,0,0,0,0,0,0,0,0,
0,0,0,0,0,0,0,0,0,0,0,0,0,0,0,0,2241,3052,0,0,0,0,0,2557,2558,0,0,0,0,0,0,0,3057,3054,2241,0,0,0,0,0,0,2241,0,2241,0,0,0,0,0,0,0,0,0,0,0,0,0,0,
0,0,0,0,0,0,0,0,0,0,0,0,0,0,0,0,2241,3082,0,0,0,0,0,0,0,0,0,0,0,0,0,0,3087,3088,2241,0,0,0,0,0,0,2241,121,2241,0,0,0,0,0,0,0,0,0,0,0,0,0,0,
0,0,0,0,0,0,0,0,0,0,0,0,0,0,0,0,2241,3112,0,0,0,2501,0,0,0,0,0,0,0,2501,0,0,3117,3118,2241,0,0,0,0,0,0,2241,0,2241,0,0,0,0,0,0,0,0,0,0,0,0,0,0,
0,0,0,0,0,0,0,0,0,0,0,0,0,0,0,0,2241,3022,0,0,0,0,0,0,0,0,0,0,0,0,0,0,0,3023,2241,0,0,0,0,0,0,2241,2241,2241,0,0,0,0,0,0,0,0,0,0,0,0,0,0,
0,0,0,0,0,0,0,0,0,0,0,0,0,0,0,0,2241,3052,0,0,0,0,0,0,0,0,0,0,0,0,0,0,2147486676,2147486675,2241,0,0,0,0,0,0,0,0,0,0,0,0,0,0,0,0,0,0,0,0,0,0,0,
0,0,0,0,0,0,0,0,0,0,0,0,0,0,0,0,2241,3024,0,0,0,0,0,0,0,0,0,0,0,0,0,0,3057,3058,2241,0,0,0,0,0,0,0,0,0,0,0,0,0,0,0,0,0,0,0,0,0,0,0,
0,0,0,0,0,0,0,0,0,0,0,0,0,0,0,0,2241,3112,0,0,0,2501,0,0,0,0,0,0,0,2501,0,0,3087,3088,2241,0,0,0,0,0,0,0,0,0,0,0,0,0,0,0,0,0,0,0,0,0,0,0,
0,0,0,0,0,0,0,0,0,0,0,0,0,0,0,0,2241,3022,0,0,0,0,0,0,0,0,0,0,0,0,0,0,3117,3118,2241,0,0,0,0,0,0,0,0,0,0,0,0,0,0,0,0,0,0,0,0,0,0,0,
0,0,0,0,0,0,0,0,0,0,0,0,0,0,0,0,2241,0,0,0,0,0,0,0,0,0,0,0,0,0,0,0,0,0,2241,0,0,0,0,0,0,0,0,0,0,0,0,0,0,0,0,0,0,0,0,0,0,0,
0,0,0,0,0,0,0,0,0,0,0,0,0,0,0,0,2241,2241,2241,2241,2241,2241,2241,2241,0,0,0,2241,2241,2241,2241,2241,2241,2241,2241,0,0,0,0,0,0,0,0,0,0,0,0,0,0,0,0,0,0,0,0,0,0,0,
0,0,0,0,0,0,0,0,0,0,0,0,0,0,0,0,0,0,0,0,0,0,0,2241,0,0,0,2241,0,0,0,0,0,0,0,0,0,0,0,0,0,0,0,0,0,0,0,0,0,0,0,0,0,0,0,0,0,0,
0,0,0,0,0,0,0,0,0,0,0,0,0,0,0,0,0,0,0,0,0,0,0,2241,0,0,0,2241,0,0,0,0,0,0,0,0,0,0,0,0,0,0,0,0,0,0,0,0,0,0,0,0,0,0,0,0,0,0,
0,0,0,0,0,0,0,0,0,0,0,0,0,0,0,0,0,0,0,0,0,0,0,2241,2241,2241,2241,2241,0,0,0,0,0,0,0,0,0,0,0,0,0,0,0,0,0,0,0,0,0,0,0,0,0,0,0,0,0,0,
0,0,0,0,0,0,0,0,0,0,0,0,0,0,0,0,0,0,0,0,0,0,0,0,0,0,0,0,0,0,0,0,0,0,0,0,0,0,0,0,0,0,0,0,0,0,0,0,0,0,0,0,0,0,0,0,0,0
</data>
 </layer>
 <layer id="3" name="Front" width="58" height="34">
  <data encoding="csv">
0,0,0,0,0,0,0,0,0,0,0,0,0,0,0,0,0,0,0,0,0,0,0,0,0,0,0,0,0,0,0,0,0,0,0,0,2269,2263,2263,2263,2263,2263,2263,2263,2263,2267,0,0,0,0,0,0,0,0,0,0,0,0,
0,0,2262,2263,2263,2263,2263,2263,2263,2263,2263,2263,2263,2263,2264,0,0,0,0,0,0,0,0,0,0,0,0,0,0,0,0,0,0,0,0,0,2321,0,0,0,0,0,0,0,0,2322,0,0,0,0,0,0,0,0,0,0,0,0,
0,2291,2534,0,2832,0,0,0,0,0,0,0,2832,0,2536,2292,0,0,0,0,0,0,0,0,0,0,0,0,0,0,0,0,0,0,0,0,2321,3059,3060,0,0,0,0,0,0,2322,0,0,0,0,0,0,0,0,0,0,0,0,
0,2321,0,0,2862,2835,2836,0,0,0,0,0,2862,0,0,2322,0,0,0,0,0,0,0,0,0,0,0,0,0,0,0,0,0,0,0,0,2321,3089,3090,0,0,0,0,0,2959,2322,0,0,0,0,0,0,0,0,0,0,0,0,
0,2321,0,2893,0,2803,2804,0,0,0,2891,2892,0,0,0,2322,0,0,0,0,0,0,0,0,0,0,0,0,0,0,0,0,0,0,0,0,2321,0,0,0,0,0,0,0,0,2322,0,0,0,0,0,0,0,0,0,0,0,0,
0,2321,0,0,0,2833,2834,0,0,0,0,0,0,0,0,2322,0,0,0,0,0,0,0,0,0,0,0,0,0,0,0,0,0,0,0,0,2321,0,0,0,0,0,0,0,0,2322,0,0,0,0,0,0,0,0,0,0,0,0,
0,2321,0,0,0,0,0,0,0,0,0,0,0,0,0,2322,0,0,0,0,0,0,0,0,0,0,0,0,0,0,0,0,0,0,0,0,2321,0,0,0,0,0,0,0,0,2322,0,0,0,0,0,0,0,0,0,0,0,0,
0,2321,2960,0,0,0,0,0,0,0,0,2837,2838,2839,2840,2322,0,0,0,0,0,0,0,0,0,0,0,0,0,0,0,0,0,0,0,0,2321,0,0,0,0,2956,2957,2958,0,2322,0,0,0,0,0,0,0,0,0,0,0,0,
0,2321,0,0,0,0,0,0,0,0,0,0,0,0,0,2322,0,0,0,0,0,0,0,0,0,0,0,0,0,0,0,0,0,0,0,0,2321,0,0,0,0,0,0,0,0,2322,0,0,0,0,0,0,0,0,0,0,0,0,
0,2321,0,0,0,0,0,0,0,0,0,0,0,0,0,2322,0,0,0,0,0,0,0,0,0,0,0,0,0,0,0,0,0,0,0,0,2321,0,0,0,0,0,0,0,0,2322,0,0,0,0,0,0,0,0,0,0,0,0,
0,2321,0,0,0,0,0,0,0,0,0,0,0,0,0,2322,0,0,0,0,2262,2263,2263,2263,2263,2263,2263,2263,2263,2263,2264,0,0,0,0,0,2381,2382,2383,0,2384,2386,2386,2386,2387,2388,0,0,0,0,0,0,0,0,0,0,0,0,
0,2381,2382,2386,2386,2386,2386,2386,2383,57,2384,2386,2386,2386,2387,2388,2269,2263,2263,2265,2534,0,0,2507,2508,2502,2509,2510,0,0,2536,2268,2263,2263,2267,0,0,0,2321,0,2322,0,0,0,0,0,0,0,0,0,0,0,0,0,0,0,0,0,
0,0,0,0,0,0,0,0,2321,89,2322,0,0,0,0,0,2321,0,0,0,0,0,0,2537,2538,2532,2539,2540,0,0,0,0,0,0,2322,0,0,0,2321,0,2322,0,0,0,0,0,0,0,0,0,0,0,0,0,0,0,0,0,
0,0,0,0,0,0,0,0,2321,0,2354,2263,2263,2263,2263,2263,2355,0,0,0,0,0,0,2567,2568,2562,2569,2570,0,0,0,0,0,0,2354,2263,2263,2263,2355,0,2354,2263,2263,2267,0,0,0,0,0,0,0,0,0,0,0,0,0,0,
0,0,0,0,0,0,0,0,2321,0,0,0,3031,3032,3033,0,0,0,0,0,0,3059,2441,2597,2598,2416,2599,2600,0,0,0,0,0,0,0,3031,3032,3033,0,0,0,0,0,2322,0,0,0,0,0,0,0,0,0,0,0,0,0,0,
0,0,0,0,0,0,0,0,2321,0,0,0,0,0,0,0,0,0,0,0,0,0,2471,0,2445,2446,2447,0,2448,0,0,0,0,0,0,0,0,0,0,0,0,0,0,2322,0,0,0,0,0,0,0,0,0,0,0,0,0,0,
0,0,0,0,0,0,0,0,2321,0,0,0,0,0,0,0,0,0,0,0,0,2441,0,0,0,0,0,0,0,2441,0,0,0,0,0,0,0,0,0,0,0,0,0,2322,0,0,0,0,0,0,0,0,0,0,0,0,0,0,
0,0,0,0,0,0,0,0,2351,2386,2386,2386,2386,2386,2386,2386,2383,0,0,0,0,2471,0,0,0,0,0,0,0,2471,0,0,0,0,2384,2386,2386,2386,2386,2386,2386,2383,0,2322,0,0,0,0,0,0,0,0,0,0,0,0,0,0,
0,0,0,0,0,0,0,0,0,0,0,0,0,0,0,0,2321,0,0,0,0,0,0,0,0,0,0,0,0,0,0,0,0,0,2322,0,0,0,0,0,0,2321,0,2322,0,0,0,0,0,0,0,0,0,0,0,0,0,0,
0,0,0,0,0,0,0,0,0,0,0,0,0,0,0,0,2321,0,0,0,0,0,0,0,0,0,0,0,0,0,0,0,0,0,2322,0,0,0,0,0,0,2321,57,2322,0,0,0,0,0,0,0,0,0,0,0,0,0,0,
0,0,0,0,0,0,0,0,0,0,0,0,0,0,0,0,2321,0,0,0,0,0,0,0,0,0,0,0,0,2441,0,0,0,0,2322,0,0,0,0,0,0,2321,89,2322,0,0,0,0,0,0,0,0,0,0,0,0,0,0,
0,0,0,0,0,0,0,0,0,0,0,0,0,0,0,0,2321,3113,0,0,0,2448,0,0,0,0,0,0,0,2471,0,0,0,0,2322,0,0,0,0,0,0,2321,0,2322,0,0,0,0,0,0,0,0,0,0,0,0,0,0,
0,0,0,0,0,0,0,0,0,0,0,0,0,0,0,0,2321,0,0,0,0,0,0,0,0,0,0,0,0,0,0,0,0,0,2322,0,0,0,0,0,0,2351,2386,2352,0,0,0,0,0,0,0,0,0,0,0,0,0,0,
0,0,0,0,0,0,0,0,0,0,0,0,0,0,0,0,2321,0,0,0,0,0,0,0,0,0,0,0,0,0,0,0,0,0,2322,0,0,0,0,0,0,0,0,0,0,0,0,0,0,0,0,0,0,0,0,0,0,0,
0,0,0,0,0,0,0,0,0,0,0,0,0,0,0,0,2321,0,0,0,0,2441,0,0,0,0,0,0,0,0,0,0,3059,3060,2322,0,0,0,0,0,0,0,0,0,0,0,0,0,0,0,0,0,0,0,0,0,0,0,
0,0,0,0,0,0,0,0,0,0,0,0,0,0,0,0,2321,3114,0,0,0,2471,0,0,0,0,0,0,0,2448,0,0,3089,3090,2322,0,0,0,0,0,0,0,0,0,0,0,0,0,0,0,0,0,0,0,0,0,0,0,
0,0,0,0,0,0,0,0,0,0,0,0,0,0,0,0,2321,0,0,0,0,0,0,0,0,0,0,0,0,0,0,0,0,0,2322,0,0,0,0,0,0,0,0,0,0,0,0,0,0,0,0,0,0,0,0,0,0,0,
0,0,0,0,0,0,0,0,0,0,0,0,0,0,0,0,2321,0,0,0,0,0,0,0,0,0,0,0,0,0,0,0,0,0,2322,0,0,0,0,0,0,0,0,0,0,0,0,0,0,0,0,0,0,0,0,0,0,0,
0,0,0,0,0,0,0,0,0,0,0,0,0,0,0,0,2381,2382,2386,2386,2386,2386,2386,2383,0,0,0,2384,2386,2386,2386,2386,2386,2387,2388,0,0,0,0,0,0,0,0,0,0,0,0,0,0,0,0,0,0,0,0,0,0,0,
0,0,0,0,0,0,0,0,0,0,0,0,0,0,0,0,2241,2241,2241,2241,2241,2241,2241,2321,0,0,0,2322,2241,2241,2241,2241,2241,2241,2241,0,0,0,0,0,0,0,0,0,0,0,0,0,0,0,0,0,0,0,0,0,0,0,
0,0,0,0,0,0,0,0,0,0,0,0,0,0,0,0,0,0,0,0,0,0,0,2321,0,0,0,2322,0,0,0,0,0,0,0,0,0,0,0,0,0,0,0,0,0,0,0,0,0,0,0,0,0,0,0,0,0,0,
0,0,0,0,0,0,0,0,0,0,0,0,0,0,0,0,0,0,0,0,0,0,0,2351,2386,2386,2386,2352,0,0,0,0,0,0,0,0,0,0,0,0,0,0,0,0,0,0,0,0,0,0,0,0,0,0,0,0,0,0,
0,0,0,0,0,0,0,0,0,0,0,0,0,0,0,0,0,0,0,0,0,0,0,2241,2241,2241,2241,2241,0,0,0,0,0,0,0,0,0,0,0,0,0,0,0,0,0,0,0,0,0,0,0,0,0,0,0,0,0,0,
0,0,0,0,0,0,0,0,0,0,0,0,0,0,0,0,0,0,0,0,0,0,0,0,0,0,0,0,0,0,0,0,0,0,0,0,0,0,0,0,0,0,0,0,0,0,0,0,0,0,0,0,0,0,0,0,0,0
</data>
 </layer>
 <layer id="4" name="Paths" width="58" height="34">
  <data encoding="csv">
0,0,0,0,0,0,0,0,0,0,0,0,0,0,0,0,0,0,0,0,0,0,0,0,0,0,0,0,0,0,0,0,0,0,0,0,0,0,0,0,0,0,0,0,0,0,0,0,0,0,0,0,0,0,0,0,0,0,
0,0,0,0,0,0,0,0,0,0,0,0,0,0,0,0,0,0,0,0,0,0,0,0,0,0,0,0,0,0,0,0,0,0,0,0,0,0,0,0,0,0,0,0,0,0,0,0,0,0,0,0,0,0,0,0,0,0,
0,0,0,0,0,0,0,0,0,0,0,0,0,0,0,0,0,0,0,0,0,0,0,0,0,0,0,0,0,0,0,0,0,0,0,0,0,0,0,0,0,0,0,0,0,0,0,0,0,0,0,0,0,0,0,0,0,0,
0,0,0,0,0,0,0,0,0,0,0,0,0,0,0,0,0,0,0,0,0,0,0,0,0,0,0,0,0,0,0,0,0,0,0,0,0,0,0,0,0,0,0,0,0,0,0,0,0,0,0,0,0,0,0,0,0,0,
0,0,0,0,0,0,0,0,0,0,0,0,0,0,0,0,0,0,0,0,0,0,0,0,0,0,0,0,0,0,0,0,0,0,0,0,0,0,0,0,0,0,0,0,0,0,0,0,0,0,0,0,0,0,0,0,0,0,
0,0,0,0,0,0,0,0,0,0,0,0,0,0,0,0,0,0,0,0,0,0,0,0,0,0,0,0,0,0,0,0,0,0,0,0,0,0,0,0,0,0,0,0,0,0,0,0,0,0,0,0,0,0,0,0,0,0,
0,0,0,0,0,0,0,0,0,0,0,0,0,0,0,0,0,0,0,0,0,0,0,0,0,0,0,0,0,0,0,0,0,0,0,0,0,0,0,0,0,0,0,0,0,0,0,0,0,0,0,0,0,0,0,0,0,0,
0,0,0,0,0,0,0,0,0,0,0,0,0,0,0,0,0,0,0,0,0,0,0,0,0,0,0,0,0,0,0,0,0,0,0,0,0,0,0,0,0,0,0,0,0,0,0,0,0,0,0,0,0,0,0,0,0,0,
0,0,0,0,0,0,0,0,0,0,0,0,0,0,0,0,0,0,0,0,0,0,0,0,0,0,0,0,0,0,0,0,0,0,0,0,0,0,0,0,0,0,0,0,0,0,0,0,0,0,0,0,0,0,0,0,0,0,
0,0,0,0,0,0,0,0,0,0,0,0,0,0,0,0,0,0,0,0,0,0,0,0,0,0,0,0,0,0,0,0,0,0,0,0,0,0,0,0,0,0,0,0,0,0,0,0,0,0,0,0,0,0,0,0,0,0,
0,0,0,0,0,0,0,0,0,0,0,0,0,0,0,0,0,0,0,0,0,0,0,0,0,0,0,0,0,0,0,0,0,0,0,0,0,0,0,0,0,0,0,0,0,0,0,0,0,0,0,0,0,0,0,0,0,0,
0,0,0,0,0,0,0,0,0,0,0,0,0,0,0,0,0,0,0,0,0,0,0,0,0,0,0,0,0,0,0,0,0,0,0,0,0,0,0,0,0,0,0,0,0,0,0,0,0,0,0,0,0,0,0,0,0,0,
0,0,0,0,0,0,0,0,0,0,0,0,0,0,0,0,0,0,0,0,0,0,0,0,0,0,0,0,0,0,0,0,0,0,0,0,0,0,0,0,0,0,0,0,0,0,0,0,0,0,0,0,0,0,0,0,0,0,
0,0,0,0,0,0,0,0,0,0,0,0,0,0,0,0,0,0,0,0,0,0,0,0,0,0,0,0,0,0,0,0,0,0,0,0,0,0,0,0,0,0,0,0,0,0,0,0,0,0,0,0,0,0,0,0,0,0,
0,0,0,0,0,0,0,0,0,0,0,0,0,0,0,0,0,0,0,0,0,0,0,0,0,0,0,0,0,0,0,0,0,0,0,0,0,0,0,0,0,0,0,0,0,0,0,0,0,0,0,0,0,0,0,0,0,0,
0,0,0,0,0,0,0,0,0,0,0,0,0,0,0,0,0,0,0,0,0,0,0,0,0,0,0,0,0,0,0,0,0,0,0,0,0,0,0,0,0,0,0,0,0,0,0,0,0,0,0,0,0,0,0,0,0,0,
0,0,0,0,0,0,0,0,0,0,0,0,0,0,0,0,0,0,0,0,0,0,0,0,0,0,0,0,0,0,0,0,0,0,0,0,0,0,0,0,0,0,0,0,0,0,0,0,0,0,0,0,0,0,0,0,0,0,
0,0,0,0,0,0,0,0,0,0,0,0,0,0,0,0,0,0,0,0,0,0,0,0,0,0,0,0,0,0,0,0,0,0,0,0,0,0,0,0,0,0,0,0,0,0,0,0,0,0,0,0,0,0,0,0,0,0,
0,0,0,0,0,0,0,0,0,0,0,0,0,0,0,0,0,0,0,0,0,0,0,0,0,0,0,0,0,0,0,0,0,0,0,0,0,0,0,0,0,0,0,0,0,0,0,0,0,0,0,0,0,0,0,0,0,0,
0,0,0,0,0,0,0,0,0,0,0,0,0,0,0,0,0,0,0,0,0,0,0,0,0,0,0,0,0,0,0,0,0,0,0,0,0,0,0,0,0,0,0,0,0,0,0,0,0,0,0,0,0,0,0,0,0,0,
0,0,0,0,0,0,0,0,0,0,0,0,0,0,0,0,0,0,0,0,0,0,0,0,0,0,0,0,0,0,0,0,0,0,0,0,0,0,0,0,0,0,0,0,0,0,0,0,0,0,0,0,0,0,0,0,0,0,
0,0,0,0,0,0,0,0,0,0,0,0,0,0,0,0,0,0,0,0,0,0,0,0,0,0,0,0,0,0,0,0,0,0,0,0,0,0,0,0,0,0,0,0,0,0,0,0,0,0,0,0,0,0,0,0,0,0,
0,0,0,0,0,0,0,0,0,0,0,0,0,0,0,0,0,0,0,0,0,0,0,0,0,0,0,0,0,0,0,0,0,0,0,0,0,0,0,0,0,0,0,0,0,0,0,0,0,0,0,0,0,0,0,0,0,0,
0,0,0,0,0,0,0,0,0,0,0,0,0,0,0,0,0,0,0,0,0,0,0,0,0,0,0,0,0,0,0,0,0,0,0,0,0,0,0,0,0,0,0,0,0,0,0,0,0,0,0,0,0,0,0,0,0,0,
0,0,0,0,0,0,0,0,0,0,0,0,0,0,0,0,0,0,0,0,0,0,0,0,0,0,0,0,0,0,0,0,0,0,0,0,0,0,0,0,0,0,0,0,0,0,0,0,0,0,0,0,0,0,0,0,0,0,
0,0,0,0,0,0,0,0,0,0,0,0,0,0,0,0,0,0,0,0,0,0,0,0,0,0,0,0,0,0,0,0,0,0,0,0,0,0,0,0,0,0,0,0,0,0,0,0,0,0,0,0,0,0,0,0,0,0,
0,0,0,0,0,0,0,0,0,0,0,0,0,0,0,0,0,0,0,0,0,0,0,0,0,0,0,0,0,0,0,0,0,0,0,0,0,0,0,0,0,0,0,0,0,0,0,0,0,0,0,0,0,0,0,0,0,0,
0,0,0,0,0,0,0,0,0,0,0,0,0,0,0,0,0,0,0,0,0,0,0,0,0,0,0,0,0,0,0,0,0,0,0,0,0,0,0,0,0,0,0,0,0,0,0,0,0,0,0,0,0,0,0,0,0,0,
0,0,0,0,0,0,0,0,0,0,0,0,0,0,0,0,0,0,0,0,0,0,0,0,0,0,0,0,0,0,0,0,0,0,0,0,0,0,0,0,0,0,0,0,0,0,0,0,0,0,0,0,0,0,0,0,0,0,
0,0,0,0,0,0,0,0,0,0,0,0,0,0,0,0,0,0,0,0,0,0,0,0,0,0,0,0,0,0,0,0,0,0,0,0,0,0,0,0,0,0,0,0,0,0,0,0,0,0,0,0,0,0,0,0,0,0,
0,0,0,0,0,0,0,0,0,0,0,0,0,0,0,0,0,0,0,0,0,0,0,0,0,0,0,0,0,0,0,0,0,0,0,0,0,0,0,0,0,0,0,0,0,0,0,0,0,0,0,0,0,0,0,0,0,0,
0,0,0,0,0,0,0,0,0,0,0,0,0,0,0,0,0,0,0,0,0,0,0,0,0,0,0,0,0,0,0,0,0,0,0,0,0,0,0,0,0,0,0,0,0,0,0,0,0,0,0,0,0,0,0,0,0,0,
0,0,0,0,0,0,0,0,0,0,0,0,0,0,0,0,0,0,0,0,0,0,0,0,0,0,0,0,0,0,0,0,0,0,0,0,0,0,0,0,0,0,0,0,0,0,0,0,0,0,0,0,0,0,0,0,0,0,
0,0,0,0,0,0,0,0,0,0,0,0,0,0,0,0,0,0,0,0,0,0,0,0,0,0,0,0,0,0,0,0,0,0,0,0,0,0,0,0,0,0,0,0,0,0,0,0,0,0,0,0,0,0,0,0,0,0
</data>
 </layer>
 <objectgroup id="5" name="Back"/>
 <objectgroup id="6" name="Buildings">
  <object id="28" name="TileData" x="144" y="208" width="16" height="16">
   <properties>
    <property name="Action" value="Door WLMRyden"/>
   </properties>
  </object>
  <object id="30" name="TileData" x="672" y="336" width="16" height="16">
   <properties>
    <property name="Action" value="Door WLMMarcus"/>
   </properties>
  </object>
 </objectgroup>
 <objectgroup id="7" name="Front"/>
 <objectgroup id="8" name="Paths"/>
</map>
