<?xml version="1.0" encoding="UTF-8"?>
<map version="1.10" tiledversion="1.10.2" orientation="orthogonal" renderorder="right-down" compressionlevel="0" width="58" height="34" tilewidth="16" tileheight="16" infinite="0" nextlayerid="11" nextobjectid="46">
 <properties>
  <property name="AmbientLight" value="45 45 45"/>
  <property name="CustomMapOverlay" value="Underwater"/>
  <property name="Light" value="10 15 4 16 15 4 22 12 4 28 12 4 34 15 4 38 15 4 37 2 4 44 2 4"/>
  <property name="Music" value="malha_malharuins"/>
  <property name="Warp" value="24 32 Custom_Malha_Malha 28 30 25 32 Custom_Malha_Malha 28 30 26 32 Custom_Malha_Malha 28 30"/>
  <property name="WindowLight" value="19 29 6 31 29 6 4 3 6 12 3 6 18 14 6 32 14 6"/>
 </properties>
 <tileset firstgid="1" name="1" tilewidth="16" tileheight="16" tilecount="2176" columns="32">
  <image source="townInterior.ru-RU.png" width="512" height="1088"/>
  <tile id="546">
   <animation>
    <frame tileid="546" duration="150"/>
    <frame tileid="546" duration="150"/>
    <frame tileid="546" duration="150"/>
    <frame tileid="546" duration="150"/>
    <frame tileid="546" duration="150"/>
    <frame tileid="547" duration="150"/>
    <frame tileid="548" duration="150"/>
    <frame tileid="546" duration="150"/>
    <frame tileid="547" duration="150"/>
    <frame tileid="548" duration="150"/>
    <frame tileid="546" duration="150"/>
    <frame tileid="547" duration="150"/>
    <frame tileid="548" duration="150"/>
    <frame tileid="546" duration="150"/>
    <frame tileid="547" duration="150"/>
    <frame tileid="548" duration="150"/>
    <frame tileid="546" duration="150"/>
    <frame tileid="547" duration="150"/>
    <frame tileid="548" duration="150"/>
    <frame tileid="546" duration="150"/>
    <frame tileid="547" duration="150"/>
    <frame tileid="548" duration="150"/>
    <frame tileid="546" duration="150"/>
    <frame tileid="546" duration="150"/>
    <frame tileid="546" duration="150"/>
    <frame tileid="546" duration="150"/>
    <frame tileid="546" duration="150"/>
    <frame tileid="546" duration="150"/>
    <frame tileid="546" duration="150"/>
    <frame tileid="546" duration="150"/>
    <frame tileid="546" duration="150"/>
    <frame tileid="546" duration="150"/>
    <frame tileid="546" duration="150"/>
    <frame tileid="546" duration="150"/>
    <frame tileid="546" duration="150"/>
    <frame tileid="546" duration="150"/>
   </animation>
  </tile>
 </tileset>
 <tileset firstgid="2177" name="2" tilewidth="16" tileheight="16" tilecount="128" columns="32">
  <image source="townInterior_2.png" width="512" height="64"/>
 </tileset>
 <tileset firstgid="2305" name="Paths" tilewidth="16" tileheight="16" tilecount="36" columns="4">
  <image source="paths" width="64" height="144"/>
 </tileset>
 <tileset firstgid="2341" name="z_MalhaInterior" tilewidth="16" tileheight="16" tilecount="900" columns="30">
  <image source="z_MalhaInterior.png" width="480" height="480"/>
  <tile id="602">
   <animation>
    <frame tileid="602" duration="1000"/>
    <frame tileid="631" duration="1000"/>
   </animation>
  </tile>
  <tile id="632">
   <animation>
    <frame tileid="632" duration="1000"/>
    <frame tileid="661" duration="1000"/>
   </animation>
  </tile>
 </tileset>
 <layer id="1" name="Back" width="58" height="34">
  <data encoding="csv">
0,0,0,0,0,0,0,0,0,0,0,0,0,0,0,0,0,0,0,0,0,0,0,0,0,0,0,0,0,0,0,0,0,0,0,0,0,0,0,0,0,0,0,0,0,0,0,0,0,0,0,0,0,0,0,0,0,0,
0,0,0,0,0,0,0,0,0,0,0,0,0,0,0,0,0,0,0,0,0,0,0,0,0,0,0,0,0,0,0,0,0,0,0,0,0,2977,2977,2977,2977,2977,2977,2977,2977,0,0,0,0,0,0,0,0,0,0,0,0,0,
0,0,0,2976,2977,2977,2977,2977,2977,2977,2977,2977,2977,2977,2978,0,0,0,0,0,0,0,0,0,0,0,0,0,0,0,0,0,0,0,0,0,0,2703,2703,2703,2703,2703,2703,2703,2703,0,0,0,0,0,0,0,0,0,0,0,0,0,
0,0,0,3006,2703,2703,2703,2703,2703,2703,2703,2703,2703,2703,3008,0,0,0,0,0,0,0,0,0,0,0,0,0,0,0,0,0,0,0,0,0,0,2733,2733,2733,2733,2733,2733,2733,2733,0,0,0,0,0,0,0,0,0,0,0,0,0,
0,0,0,2703,0,2675,2736,2736,0,0,0,0,0,0,2703,0,0,0,0,0,0,0,0,0,0,0,0,0,0,0,0,0,0,0,0,0,0,2641,2611,2641,2611,2641,2611,2641,2611,0,0,0,0,0,0,0,0,0,0,0,0,0,
0,0,0,2883,2763,2763,2763,2763,2763,2763,2763,2763,2763,2763,2913,608,0,0,0,0,0,0,0,0,0,0,0,0,0,0,0,0,0,0,0,0,0,2611,2641,2611,2641,2611,2641,2611,2641,0,0,0,0,0,0,0,0,0,0,0,0,0,
0,0,0,2643,2643,2643,2643,2643,2643,2643,2643,2643,2643,2643,2643,606,0,0,0,0,0,0,0,0,0,0,0,0,0,0,0,0,0,0,0,0,0,2641,2611,2641,2611,2641,2611,2641,2611,0,0,0,0,0,0,0,0,0,0,0,0,0,
0,0,0,2643,2643,2643,2643,2643,2643,2643,2975,2643,2643,2643,2643,608,0,0,0,0,0,0,0,0,0,0,0,0,0,0,0,0,0,0,0,0,0,3052,3052,3052,3052,3052,3052,3052,3052,0,0,0,0,0,0,0,0,0,0,0,0,0,
0,0,0,2643,2643,2643,2643,2643,2643,2643,2643,2643,2643,2643,2643,640,0,0,0,0,0,0,0,0,0,0,0,0,0,0,0,0,0,0,0,0,0,2491,2491,2491,2491,2491,2491,2491,3051,0,0,0,0,0,0,0,0,0,0,0,0,0,
0,0,0,2643,2643,2643,2643,2643,2643,2643,2643,2854,2855,2856,2643,0,0,0,0,0,0,0,0,0,0,0,0,0,0,0,0,0,0,0,0,0,0,2491,2491,2491,2491,2491,2491,2491,2491,0,0,0,0,0,0,0,0,0,0,0,0,0,
0,0,0,2643,2643,2643,2643,2643,2643,2643,2643,2884,2885,2886,2643,0,0,0,0,0,0,0,0,0,0,0,0,0,0,0,0,0,0,0,0,0,0,2491,2491,2491,2491,2491,2491,2491,2491,0,0,0,0,0,0,0,0,0,0,0,0,0,
0,0,0,2643,2643,2643,2643,2643,2643,2643,2643,2643,2643,2643,2643,0,0,0,0,0,0,2671,2671,0,0,0,0,0,0,0,0,0,0,0,0,0,0,0,0,2491,0,0,0,0,0,0,0,0,0,0,0,0,0,0,0,0,0,0,
0,0,0,0,0,0,0,0,0,2491,0,0,0,0,0,0,0,0,0,0,0,2671,2671,0,0,0,0,0,0,0,0,0,0,0,0,0,0,0,0,2491,0,0,0,0,0,0,0,0,0,0,0,0,0,0,0,0,0,0,
0,0,0,0,0,0,0,0,0,2491,0,0,0,0,0,0,0,0,0,0,0,0,0,0,0,0,0,0,0,0,0,0,0,0,0,0,0,0,0,2491,0,0,0,0,0,0,0,0,0,0,0,0,0,0,0,0,0,0,
0,0,0,0,0,0,0,0,0,2583,0,0,0,0,0,0,0,0,0,0,0,0,0,2491,2491,2491,2491,2491,0,0,0,0,0,0,0,0,0,0,0,2491,0,0,0,0,0,0,0,0,0,0,0,0,0,0,0,0,0,0,
0,0,0,0,0,0,0,0,0,2613,0,0,0,0,0,0,0,0,2491,2491,2491,2491,2491,2491,2492,2493,2494,2491,2491,2491,2491,2491,2491,2491,0,0,0,0,0,2491,0,0,0,0,0,0,0,0,0,0,0,0,0,0,0,0,0,0,
0,0,0,0,0,0,0,0,0,2491,0,0,0,0,0,0,0,2491,2491,2491,2491,2491,2491,2491,2522,2523,2524,2491,2491,2491,2491,2491,2491,2491,0,0,0,0,0,2491,0,0,0,0,0,0,0,0,0,0,0,0,0,0,0,0,0,0,
0,0,0,0,0,0,0,0,0,2491,2491,2491,2491,2491,2491,2491,2491,2491,2491,2491,2491,2491,2491,2491,2522,2523,2524,2491,2491,2491,2491,2491,2491,2491,2491,2491,2491,2491,2491,2491,2491,2491,2491,2491,0,0,0,0,0,0,0,0,0,0,0,0,0,0,
0,0,0,0,0,0,0,0,0,0,0,0,0,0,0,0,2491,2491,2491,2491,2491,2491,2491,2491,2499,2500,2501,2491,2491,2491,2491,2491,2491,2491,0,0,0,0,0,0,0,0,2491,0,0,0,0,0,0,0,0,0,0,0,0,0,0,0,
0,0,0,0,0,0,0,0,0,0,0,0,0,0,0,0,2491,2491,2491,2491,2491,2491,2491,2491,2522,2523,2524,2491,2491,2491,2491,2491,2491,2491,0,0,0,0,0,0,0,0,2491,0,0,0,0,0,0,0,0,0,0,0,0,0,0,0,
0,0,0,0,0,0,0,0,0,0,0,0,0,0,0,0,2491,2491,2491,2491,2491,2491,2491,2491,2522,2523,2524,2491,2491,2491,2491,2491,2491,2491,2491,0,0,0,0,0,0,0,2491,0,0,0,0,0,0,0,0,0,0,0,0,0,0,0,
0,0,0,0,0,0,0,0,0,0,0,0,0,0,0,0,2491,2491,2491,2491,2491,2491,2491,2491,2522,2523,2524,2491,2491,2491,2491,2491,2491,2491,2491,0,0,0,0,0,0,0,2491,0,0,0,0,0,0,0,0,0,0,0,0,0,0,0,
0,0,0,0,0,0,0,0,0,0,0,0,0,0,0,0,2491,2491,2491,2491,2491,2491,2491,2491,2522,2523,2524,2491,2491,2491,2491,2491,2491,2491,2491,0,0,0,0,0,0,0,2491,0,0,0,0,0,0,0,0,0,0,0,0,0,0,0,
0,0,0,0,0,0,0,0,0,0,0,0,0,0,0,0,2491,2491,2491,2491,2491,2491,2491,2491,2522,2523,2524,2491,2491,2491,2491,2491,2491,2491,2491,0,0,0,0,0,0,0,0,0,0,0,0,0,0,0,0,0,0,0,0,0,0,0,
0,0,0,0,0,0,0,0,0,0,0,0,0,0,0,0,2491,2491,2491,2491,2491,2491,2491,2491,2522,2523,2524,2491,2491,2491,2491,2491,2491,2491,2491,0,0,0,0,0,0,0,0,0,0,0,0,0,0,0,0,0,0,0,0,0,0,0,
0,0,0,0,0,0,0,0,0,0,0,0,0,0,0,0,2491,2491,2491,2491,2491,2491,2491,2491,2522,2523,2524,2491,2491,2491,2491,2491,2491,2491,2491,0,0,0,0,0,0,0,0,0,0,0,0,0,0,0,0,0,0,0,0,0,0,0,
0,0,0,0,0,0,0,0,0,0,0,0,0,0,0,0,2491,2491,2491,2491,2491,2491,2491,2491,2552,2553,2554,2491,2491,2491,2491,2491,2491,2491,2491,0,0,0,0,0,0,0,0,0,0,0,0,0,0,0,0,0,0,0,0,0,0,0,
0,0,0,0,0,0,0,0,0,0,0,0,0,0,0,0,2491,2491,2491,2491,2491,2491,2491,2491,2491,2491,2491,2491,2491,2491,2491,2491,2491,2491,2491,0,0,0,0,0,0,0,0,0,0,0,0,0,0,0,0,0,0,0,0,0,0,0,
0,0,0,0,0,0,0,0,0,0,0,0,0,0,0,0,2491,2491,2491,2491,2491,2491,2491,2491,2491,2491,2491,2491,2491,2491,2491,2491,2491,2491,2491,0,0,0,0,0,0,0,0,0,0,0,0,0,0,0,0,0,0,0,0,0,0,0,
0,0,0,0,0,0,0,0,0,0,0,0,0,0,0,0,0,0,0,0,0,0,0,0,2491,2491,2491,0,0,0,0,0,0,0,0,0,0,0,0,0,0,0,0,0,0,0,0,0,0,0,0,0,0,0,0,0,0,0,
0,0,0,0,0,0,0,0,0,0,0,0,0,0,0,0,0,0,0,0,0,0,0,0,2491,2491,2491,0,0,0,0,0,0,0,0,0,0,0,0,0,0,0,0,0,0,0,0,0,0,0,0,0,0,0,0,0,0,0,
0,0,0,0,0,0,0,0,0,0,0,0,0,0,0,0,0,0,0,0,0,0,0,0,2491,2491,2491,0,0,0,0,0,0,0,0,0,0,0,0,0,0,0,0,0,0,0,0,0,0,0,0,0,0,0,0,0,0,0,
0,0,0,0,0,0,0,0,0,0,0,0,0,0,0,0,0,0,0,0,0,0,0,0,0,0,0,0,0,0,0,0,0,0,0,0,0,0,0,0,0,0,0,0,0,0,0,0,0,0,0,0,0,0,0,0,0,0,
0,0,0,0,0,0,0,0,0,0,0,0,0,0,0,0,0,0,0,0,0,0,0,0,0,0,0,0,0,0,0,0,0,0,0,0,0,0,0,0,0,0,0,0,0,0,0,0,0,0,0,0,0,0,0,0,0,0
</data>
 </layer>
 <layer id="2" name="Buildings" width="58" height="34">
  <data encoding="csv">
0,0,0,0,0,0,0,0,0,0,0,0,0,0,0,0,0,0,0,0,0,0,0,0,0,0,0,0,0,0,0,0,0,0,0,0,2341,2341,2341,2341,2341,2341,2341,2341,2341,2341,0,0,0,0,0,0,0,0,0,0,0,0,
0,0,2341,2341,2341,2341,2341,2341,2341,2341,2341,2341,2341,2341,2341,2341,0,0,0,0,0,0,0,0,0,0,0,0,0,0,0,0,0,0,0,0,2341,0,0,0,0,0,0,0,0,2341,0,0,0,0,0,0,0,0,0,0,0,0,
0,0,2341,0,0,0,0,0,2798,0,0,0,0,0,0,2341,0,0,0,0,0,0,0,0,0,0,0,0,0,0,0,0,0,0,0,0,2341,0,0,0,0,3054,0,3055,0,2341,0,0,0,0,0,0,0,0,0,0,0,0,
0,0,2341,0,0,0,0,0,0,0,0,0,0,0,0,2341,0,0,0,0,0,0,0,0,0,0,0,0,0,0,0,0,0,0,0,0,2341,3082,3081,3082,3083,3084,3080,3085,3137,2341,0,0,0,0,0,0,0,0,0,0,0,0,
0,0,2341,2738,2736,2736,2381,2382,2736,2736,2736,2736,2736,2736,2737,2341,0,0,0,0,0,0,0,0,0,0,0,0,0,0,0,0,0,0,0,0,2341,3110,3112,3112,3113,3114,3114,3115,3167,2341,0,0,0,0,0,0,0,0,0,0,0,0,
0,0,2341,2768,2948,0,0,0,0,0,2946,2947,2973,0,2767,2341,0,0,0,0,0,0,0,0,0,0,0,0,0,0,0,0,0,0,0,0,2341,0,0,0,0,0,0,0,3167,2341,0,0,0,0,0,0,0,0,0,0,0,0,
0,0,2341,0,0,0,2439,2440,0,0,0,0,0,0,0,2341,0,0,0,0,0,0,0,0,0,0,0,0,0,0,0,0,0,0,0,0,2341,0,0,0,0,0,0,0,3197,2341,0,0,0,0,0,0,0,0,0,0,0,0,
0,0,2341,0,0,0,0,0,0,0,0,0,0,0,0,2341,0,0,0,0,0,0,0,0,0,0,0,0,0,0,0,0,0,0,0,0,2341,0,0,0,0,0,0,0,0,2341,0,0,0,0,0,0,0,0,0,0,0,0,
0,0,2341,3001,0,0,2914,2915,0,0,0,2824,2825,2826,0,2341,0,0,0,0,0,0,0,0,0,0,0,0,0,0,0,0,0,0,0,0,2341,0,0,0,0,3077,3078,3079,0,2341,0,0,0,0,0,0,0,0,0,0,0,0,
0,0,2341,3031,0,0,2944,2945,0,0,0,0,0,0,0,2341,0,0,0,0,0,0,0,0,0,0,0,0,0,0,0,0,0,0,0,0,2341,0,0,0,0,3107,3108,3109,0,2341,0,0,0,0,0,0,0,0,0,0,0,0,
0,0,2341,3061,0,0,0,0,0,0,0,0,0,0,0,2341,0,0,0,2341,2341,2341,2341,2341,2341,2341,2341,2341,2341,2341,2341,2341,0,0,0,0,2341,0,0,0,0,0,0,0,0,2341,0,0,0,0,0,0,0,0,0,0,0,0,
0,0,2341,3091,0,0,0,0,0,0,0,0,0,0,0,2341,2341,2341,2341,2341,2761,2672,2673,0,2672,2672,2672,0,2702,2672,2762,2341,2341,2341,2341,0,0,2341,2341,0,2341,2341,2341,2341,2341,2341,0,0,0,0,0,0,0,0,0,0,0,0,
0,0,2341,2341,2341,2341,2341,2341,2341,0,2341,2341,2341,2341,2341,2341,2341,3032,3032,3032,2791,2671,2671,0,2671,2671,2671,0,2671,2671,2792,3032,3032,3032,2341,2341,0,0,2341,0,2341,0,0,0,0,0,0,0,0,0,0,0,0,0,0,0,0,0,
0,0,0,0,0,0,0,0,2341,121,2341,2341,2341,2341,2341,2341,2341,2671,2671,2671,2821,2671,2671,2648,2671,2671,2671,2651,2671,2671,2822,2671,2671,2671,2671,2341,2341,2341,2341,0,2341,2341,2341,2341,0,0,0,0,0,0,0,0,0,0,0,0,0,0,
0,0,0,0,0,0,0,0,2341,0,3032,3032,3032,3032,3032,3032,3032,2671,2671,2671,2851,2701,2701,2678,2679,0,2680,2681,2701,2701,2852,2671,2671,2671,3032,3032,3032,3032,3032,0,3032,3032,3032,2341,0,0,0,0,0,0,0,0,0,0,0,0,0,0,
0,0,0,0,0,0,0,0,2341,0,3062,2671,2671,2671,2671,2671,3063,2701,2701,2701,2881,0,0,2528,0,0,0,2532,0,0,2882,2701,2701,2701,3062,2671,2671,2671,3063,0,3062,2671,2671,2341,0,0,0,0,0,0,0,0,0,0,0,0,0,0,
0,0,0,0,0,0,0,0,2341,0,3092,2701,2701,2701,2701,2701,3093,0,3121,0,0,0,2581,2528,2555,2556,2557,2532,2581,0,0,0,3121,0,3092,2701,2701,2701,3093,0,3092,2701,2701,2341,0,0,0,0,0,0,0,0,0,0,0,0,0,0,
0,0,0,0,0,0,0,0,2341,0,0,0,0,0,0,0,0,0,0,0,0,0,0,2528,0,0,0,2532,0,0,0,0,0,0,0,0,0,0,0,0,0,0,0,2341,0,0,0,0,0,0,0,0,0,0,0,0,0,0,
0,0,0,0,0,0,0,0,2341,2341,2341,2341,2341,2341,2341,2341,2341,0,0,0,0,2581,0,2498,0,0,0,2502,0,2581,0,0,0,0,2341,2341,2341,2341,2341,2341,2341,2341,0,2341,0,0,0,0,0,0,0,0,0,0,0,0,0,0,
0,0,0,0,0,0,0,0,0,0,0,0,0,0,0,0,2341,3121,0,0,0,0,0,0,0,0,0,0,0,0,0,0,3125,3126,2341,0,0,0,0,0,0,2341,0,2341,0,0,0,0,0,0,0,0,0,0,0,0,0,0,
0,0,0,0,0,0,0,0,0,0,0,0,0,0,0,0,2341,3151,0,0,0,0,0,0,0,0,0,0,0,0,0,0,3155,3156,2341,0,0,0,0,0,0,2341,0,2341,0,0,0,0,0,0,0,0,0,0,0,0,0,0,
0,0,0,0,0,0,0,0,0,0,0,0,0,0,0,0,2341,3181,0,0,0,0,0,0,0,0,0,0,0,0,0,0,3185,3186,2341,0,0,0,0,0,0,2341,121,2341,0,0,0,0,0,0,0,0,0,0,0,0,0,0,
0,0,0,0,0,0,0,0,0,0,0,0,0,0,0,0,2341,3211,0,0,0,2581,0,0,0,0,0,0,0,2581,0,0,3215,3216,2341,0,0,0,0,0,0,2341,0,2341,0,0,0,0,0,0,0,0,0,0,0,0,0,0,
0,0,0,0,0,0,0,0,0,0,0,0,0,0,0,0,2341,3121,0,0,0,0,0,0,0,0,0,0,0,0,0,0,0,3121,2341,0,0,0,0,0,0,2341,2341,2341,0,0,0,0,0,0,0,0,0,0,0,0,0,0,
0,0,0,0,0,0,0,0,0,0,0,0,0,0,0,0,2341,3151,0,0,0,0,0,0,0,0,0,0,0,0,0,0,3125,3126,2341,0,0,0,0,0,0,0,0,0,0,0,0,0,0,0,0,0,0,0,0,0,0,0,
0,0,0,0,0,0,0,0,0,0,0,0,0,0,0,0,2341,3181,0,0,0,0,0,0,0,0,0,0,0,0,0,0,3155,3156,2341,0,0,0,0,0,0,0,0,0,0,0,0,0,0,0,0,0,0,0,0,0,0,0,
0,0,0,0,0,0,0,0,0,0,0,0,0,0,0,0,2341,3211,0,0,0,2581,0,0,0,0,0,0,0,2581,0,0,3185,3186,2341,0,0,0,0,0,0,0,0,0,0,0,0,0,0,0,0,0,0,0,0,0,0,0,
0,0,0,0,0,0,0,0,0,0,0,0,0,0,0,0,2341,3121,0,0,0,0,0,0,0,0,0,0,0,0,0,0,3215,3216,2341,0,0,0,0,0,0,0,0,0,0,0,0,0,0,0,0,0,0,0,0,0,0,0,
0,0,0,0,0,0,0,0,0,0,0,0,0,0,0,0,2341,0,0,0,0,0,0,0,0,0,0,0,0,0,0,0,0,0,2341,0,0,0,0,0,0,0,0,0,0,0,0,0,0,0,0,0,0,0,0,0,0,0,
0,0,0,0,0,0,0,0,0,0,0,0,0,0,0,0,2341,2341,2341,2341,2341,2341,2341,2341,0,0,0,2341,2341,2341,2341,2341,2341,2341,2341,0,0,0,0,0,0,0,0,0,0,0,0,0,0,0,0,0,0,0,0,0,0,0,
0,0,0,0,0,0,0,0,0,0,0,0,0,0,0,0,0,0,0,0,0,0,0,2341,0,0,0,2341,0,0,0,0,0,0,0,0,0,0,0,0,0,0,0,0,0,0,0,0,0,0,0,0,0,0,0,0,0,0,
0,0,0,0,0,0,0,0,0,0,0,0,0,0,0,0,0,0,0,0,0,0,0,2341,0,0,0,2341,0,0,0,0,0,0,0,0,0,0,0,0,0,0,0,0,0,0,0,0,0,0,0,0,0,0,0,0,0,0,
0,0,0,0,0,0,0,0,0,0,0,0,0,0,0,0,0,0,0,0,0,0,0,2341,2341,2341,2341,2341,0,0,0,0,0,0,0,0,0,0,0,0,0,0,0,0,0,0,0,0,0,0,0,0,0,0,0,0,0,0,
0,0,0,0,0,0,0,0,0,0,0,0,0,0,0,0,0,0,0,0,0,0,0,0,0,0,0,0,0,0,0,0,0,0,0,0,0,0,0,0,0,0,0,0,0,0,0,0,0,0,0,0,0,0,0,0,0,0
</data>
 </layer>
 <layer id="9" name="Buildings2" width="58" height="34">
  <data encoding="csv">
0,0,0,0,0,0,0,0,0,0,0,0,0,0,0,0,0,0,0,0,0,0,0,0,0,0,0,0,0,0,0,0,0,0,0,0,0,0,0,0,0,0,0,0,0,0,0,0,0,0,0,0,0,0,0,0,0,0,
0,0,0,0,0,0,0,0,0,0,0,0,0,0,0,0,0,0,0,0,0,0,0,0,0,0,0,0,0,0,0,0,0,0,0,0,0,0,0,0,0,0,0,0,0,0,0,0,0,0,0,0,0,0,0,0,0,0,
0,0,0,0,0,0,0,0,0,0,0,0,0,0,0,0,0,0,0,0,0,0,0,0,0,0,0,0,0,0,0,0,0,0,0,0,0,0,0,0,0,0,0,0,0,0,0,0,0,0,0,0,0,0,0,0,0,0,
0,0,0,0,0,0,0,0,0,0,0,0,0,0,0,0,0,0,0,0,0,0,0,0,0,0,0,0,0,0,0,0,0,0,0,0,0,0,0,0,0,0,0,0,0,0,0,0,0,0,0,0,0,0,0,0,0,0,
0,0,0,0,0,0,0,0,0,0,0,0,0,0,0,0,0,0,0,0,0,0,0,0,0,0,0,0,0,0,0,0,0,0,0,0,0,0,0,0,0,0,0,0,0,0,0,0,0,0,0,0,0,0,0,0,0,0,
0,0,0,0,0,0,0,0,0,0,0,0,0,0,0,0,0,0,0,0,0,0,0,0,0,0,0,0,0,0,0,0,0,0,0,0,0,0,0,0,0,0,0,0,0,0,0,0,0,0,0,0,0,0,0,0,0,0,
0,0,0,0,0,0,0,0,0,0,0,0,0,0,0,0,0,0,0,0,0,0,0,0,0,0,0,0,0,0,0,0,0,0,0,0,0,0,0,0,0,0,0,0,0,0,0,0,0,0,0,0,0,0,0,0,0,0,
0,0,0,0,0,0,0,0,0,0,0,0,0,0,0,0,0,0,0,0,0,0,0,0,0,0,0,0,0,0,0,0,0,0,0,0,0,0,0,0,0,0,0,0,0,0,0,0,0,0,0,0,0,0,0,0,0,0,
0,0,0,0,0,0,0,0,0,0,0,0,0,0,0,0,0,0,0,0,0,0,0,0,0,0,0,0,0,0,0,0,0,0,0,0,0,0,0,0,0,0,0,0,0,0,0,0,0,0,0,0,0,0,0,0,0,0,
0,0,0,0,0,0,0,0,0,0,0,0,0,0,0,0,0,0,0,0,0,0,0,0,0,0,0,0,0,0,0,0,0,0,0,0,0,0,0,0,0,0,0,0,0,0,0,0,0,0,0,0,0,0,0,0,0,0,
0,0,0,0,0,0,0,0,0,0,0,0,0,0,0,0,0,0,0,0,0,0,0,0,0,0,0,0,0,0,0,0,0,0,0,0,0,0,0,0,0,0,0,0,0,0,0,0,0,0,0,0,0,0,0,0,0,0,
0,0,0,0,0,0,0,0,0,0,0,0,0,0,0,0,0,0,0,0,0,0,0,0,0,0,0,0,0,0,0,0,0,0,0,0,0,0,0,0,0,0,0,0,0,0,0,0,0,0,0,0,0,0,0,0,0,0,
0,0,0,0,0,0,0,0,0,0,0,0,0,0,0,0,0,0,0,0,0,0,0,0,0,0,0,0,0,0,0,0,0,0,0,0,0,0,0,0,0,0,0,0,0,0,0,0,0,0,0,0,0,0,0,0,0,0,
0,0,0,0,0,0,0,0,0,0,0,0,0,0,0,0,0,0,0,0,0,0,0,0,0,0,0,0,0,0,0,0,0,0,0,0,0,0,0,0,0,0,0,0,0,0,0,0,0,0,0,0,0,0,0,0,0,0,
0,0,0,0,0,0,0,0,0,0,0,0,3041,3042,3043,0,0,0,0,0,0,0,0,0,0,0,0,0,0,0,0,0,0,0,0,3044,3045,3046,0,0,0,0,0,0,0,0,0,0,0,0,0,0,0,0,0,0,0,0,
0,0,0,0,0,0,0,0,0,0,0,0,3071,3072,3073,0,0,0,0,0,0,0,0,0,0,0,0,0,0,0,0,0,0,0,0,3074,3075,3076,0,0,0,0,0,0,0,0,0,0,0,0,0,0,0,0,0,0,0,0,
0,0,0,0,0,0,0,0,0,0,0,0,3101,3102,3103,0,0,0,0,0,0,0,0,0,0,0,0,0,0,0,0,0,0,0,0,3104,3105,3106,0,0,0,0,0,0,0,0,0,0,0,0,0,0,0,0,0,0,0,0,
0,0,0,0,0,0,0,0,0,0,0,0,0,0,0,0,0,0,0,0,0,0,0,0,0,0,0,0,0,0,0,0,0,0,0,0,0,0,0,0,0,0,0,0,0,0,0,0,0,0,0,0,0,0,0,0,0,0,
0,0,0,0,0,0,0,0,0,0,0,0,0,0,0,0,0,0,0,0,0,0,0,0,0,0,0,0,0,0,0,0,0,0,0,0,0,0,0,0,0,0,0,0,0,0,0,0,0,0,0,0,0,0,0,0,0,0,
0,0,0,0,0,0,0,0,0,0,0,0,0,0,0,0,0,0,0,0,0,0,0,0,0,0,0,0,0,0,0,0,3037,3038,0,0,0,0,0,0,0,0,0,0,0,0,0,0,0,0,0,0,0,0,0,0,0,0,
0,0,0,0,0,0,0,0,0,0,0,0,0,0,0,0,0,0,0,0,0,0,0,0,0,0,0,0,0,0,0,0,3067,3068,0,0,0,0,0,0,0,0,0,0,0,0,0,0,0,0,0,0,0,0,0,0,0,0,
0,0,0,0,0,0,0,0,0,0,0,0,0,0,0,0,0,0,0,0,0,0,0,0,0,0,0,0,0,0,0,0,3097,3098,0,0,0,0,0,0,0,0,0,0,0,0,0,0,0,0,0,0,0,0,0,0,0,0,
0,0,0,0,0,0,0,0,0,0,0,0,0,0,0,0,0,0,0,0,0,0,0,0,0,0,0,0,0,0,0,0,0,0,0,0,0,0,0,0,0,0,0,0,0,0,0,0,0,0,0,0,0,0,0,0,0,0,
0,0,0,0,0,0,0,0,0,0,0,0,0,0,0,0,0,0,0,0,0,0,0,0,0,0,0,0,0,0,0,0,0,0,0,0,0,0,0,0,0,0,0,0,0,0,0,0,0,0,0,0,0,0,0,0,0,0,
0,0,0,0,0,0,0,0,0,0,0,0,0,0,0,0,0,0,0,0,0,0,0,0,0,0,0,0,0,0,0,0,3039,3040,0,0,0,0,0,0,0,0,0,0,0,0,0,0,0,0,0,0,0,0,0,0,0,0,
0,0,0,0,0,0,0,0,0,0,0,0,0,0,0,0,0,0,0,0,0,0,0,0,0,0,0,0,0,0,0,0,3069,3070,0,0,0,0,0,0,0,0,0,0,0,0,0,0,0,0,0,0,0,0,0,0,0,0,
0,0,0,0,0,0,0,0,0,0,0,0,0,0,0,0,0,0,0,0,0,0,0,0,0,0,0,0,0,0,0,0,3099,3100,0,0,0,0,0,0,0,0,0,0,0,0,0,0,0,0,0,0,0,0,0,0,0,0,
0,0,0,0,0,0,0,0,0,0,0,0,0,0,0,0,0,0,0,0,0,0,0,0,0,0,0,0,0,0,0,0,3129,3130,0,0,0,0,0,0,0,0,0,0,0,0,0,0,0,0,0,0,0,0,0,0,0,0,
0,0,0,0,0,0,0,0,0,0,0,0,0,0,0,0,0,0,0,0,0,0,0,0,0,0,0,0,0,0,0,0,0,0,0,0,0,0,0,0,0,0,0,0,0,0,0,0,0,0,0,0,0,0,0,0,0,0,
0,0,0,0,0,0,0,0,0,0,0,0,0,0,0,0,0,0,0,0,0,0,0,0,0,0,0,0,0,0,0,0,0,0,0,0,0,0,0,0,0,0,0,0,0,0,0,0,0,0,0,0,0,0,0,0,0,0,
0,0,0,0,0,0,0,0,0,0,0,0,0,0,0,0,0,0,0,0,0,0,0,0,0,0,0,0,0,0,0,0,0,0,0,0,0,0,0,0,0,0,0,0,0,0,0,0,0,0,0,0,0,0,0,0,0,0,
0,0,0,0,0,0,0,0,0,0,0,0,0,0,0,0,0,0,0,0,0,0,0,0,0,0,0,0,0,0,0,0,0,0,0,0,0,0,0,0,0,0,0,0,0,0,0,0,0,0,0,0,0,0,0,0,0,0,
0,0,0,0,0,0,0,0,0,0,0,0,0,0,0,0,0,0,0,0,0,0,0,0,0,0,0,0,0,0,0,0,0,0,0,0,0,0,0,0,0,0,0,0,0,0,0,0,0,0,0,0,0,0,0,0,0,0,
0,0,0,0,0,0,0,0,0,0,0,0,0,0,0,0,0,0,0,0,0,0,0,0,0,0,0,0,0,0,0,0,0,0,0,0,0,0,0,0,0,0,0,0,0,0,0,0,0,0,0,0,0,0,0,0,0,0
</data>
 </layer>
 <layer id="3" name="Front" width="58" height="34">
  <properties>
   <property name="Action" value="Door"/>
  </properties>
  <data encoding="csv">
0,0,0,0,0,0,0,0,0,0,0,0,0,0,0,0,0,0,0,0,0,0,0,0,0,0,0,0,0,0,0,0,0,0,0,0,2375,2343,2343,2343,2343,2343,2343,2343,2343,2347,0,0,0,0,0,0,0,0,0,0,0,0,
0,0,0,2342,2343,2343,2343,2343,2343,2343,2343,2343,2343,2343,2344,0,0,0,0,0,0,0,0,0,0,0,0,0,0,0,0,0,0,0,0,0,2401,0,2912,0,0,0,2912,0,0,2402,0,0,0,0,0,0,0,0,0,0,0,0,
0,0,2371,2614,0,2912,0,0,0,0,0,0,2912,0,2616,2372,0,0,0,0,0,0,0,0,0,0,0,0,0,0,0,0,0,0,0,0,2401,3003,2942,0,1258,0,2942,0,3003,2402,0,0,0,0,0,0,0,0,0,0,0,0,
0,0,2401,0,0,2942,2351,2352,0,2797,0,0,2942,0,0,2402,0,0,0,0,0,0,0,0,0,0,0,0,0,0,0,0,0,0,0,0,2401,0,0,0,0,0,0,0,0,2402,0,0,0,0,0,0,0,0,0,0,0,0,
0,0,2401,0,2918,0,2379,2380,0,0,2916,2917,2943,0,0,2402,0,0,0,0,0,0,0,0,0,0,0,0,0,0,0,0,0,0,0,0,2401,0,0,0,0,0,0,0,0,2402,0,0,0,0,0,0,0,0,0,0,0,0,
0,0,2401,0,0,0,2409,2410,0,0,0,0,0,0,0,2402,0,0,0,0,0,0,0,0,0,0,0,0,0,0,0,0,0,0,0,0,2401,0,0,0,0,0,0,0,0,2402,0,0,0,0,0,0,0,0,0,0,0,0,
0,0,2401,0,0,0,0,0,0,0,0,0,0,0,0,2402,0,0,0,0,0,0,0,0,0,0,0,0,0,0,0,0,0,0,0,0,2401,0,0,0,0,0,0,0,0,2402,0,0,0,0,0,0,0,0,0,0,0,0,
0,0,2401,2971,0,0,0,0,0,0,0,2794,2795,2796,0,2402,0,0,0,0,0,0,0,0,0,0,0,0,0,0,0,0,0,0,0,0,2401,0,0,0,0,3047,3048,3049,0,2402,0,0,0,0,0,0,0,0,0,0,0,0,
0,0,2401,3001,0,0,0,0,0,0,0,0,0,0,0,2402,0,0,0,0,0,0,0,0,0,0,0,0,0,0,0,0,0,0,0,0,2401,0,0,0,0,0,0,0,0,2402,0,0,0,0,0,0,0,0,0,0,0,0,
0,0,2401,3031,0,0,0,0,0,0,0,0,0,0,0,2402,0,0,0,0,0,0,0,0,0,0,0,0,0,0,0,0,0,0,0,0,2401,0,0,0,0,0,0,0,0,2402,0,0,0,0,0,0,0,0,0,0,0,0,
0,0,2401,3061,0,0,0,0,0,0,0,0,0,0,0,2402,0,0,0,0,2342,2343,2343,2343,2343,2343,2343,2343,2343,2343,2344,0,0,0,0,0,2461,2462,2463,0,2464,2437,2466,2466,2467,2468,0,0,0,0,0,0,0,0,0,0,0,0,
0,0,2461,2462,2466,2466,2466,2466,2463,57,2464,2466,2466,2466,2467,2468,2349,2343,2343,2345,2614,0,0,2588,2589,2582,2590,2591,0,0,2616,2348,2343,2343,2347,0,0,0,2401,0,2402,0,0,0,0,0,0,0,0,0,0,0,0,0,0,0,0,0,
0,0,0,0,0,0,0,0,2401,89,2402,0,0,0,0,0,2401,0,0,0,0,0,3003,2618,2619,2612,2620,2621,3003,0,0,0,0,0,2402,0,0,0,2401,0,2402,0,0,0,0,0,0,0,0,0,0,0,0,0,0,0,0,0,
0,0,0,0,0,0,0,0,2401,0,2434,2343,2343,2343,2343,2343,2435,0,3065,0,0,0,0,2648,2649,2642,2650,2651,0,0,0,0,3065,0,2434,2343,2343,2343,2435,0,2434,2343,2343,2586,0,0,0,0,0,0,0,0,0,0,0,0,0,0,
0,0,0,0,0,0,0,0,2401,0,0,0,0,0,0,0,0,0,3095,0,0,0,2521,2678,2679,2496,2680,2681,2521,0,0,0,3095,0,0,0,0,0,0,0,0,0,0,2402,0,0,0,0,0,0,0,0,0,0,0,0,0,0,
0,0,0,0,0,0,0,0,2401,0,3003,0,0,0,0,0,3003,0,0,0,0,0,2551,0,2525,2526,2527,0,2551,0,0,0,0,0,3003,0,0,0,3003,0,0,0,0,2402,0,0,0,0,0,0,0,0,0,0,0,0,0,0,
0,0,0,0,0,0,0,0,2401,0,0,0,0,0,0,0,0,0,0,0,0,2521,0,0,0,0,0,0,0,2521,0,0,0,0,0,0,0,0,0,0,0,0,0,2402,0,0,0,0,0,0,0,0,0,0,0,0,0,0,
0,0,0,0,0,0,0,0,2431,2466,2466,2466,2466,2466,2466,2466,2463,0,0,0,0,2551,0,0,0,0,0,0,0,2551,0,0,0,0,2464,2466,2466,2466,2466,2466,2466,2463,0,2402,0,0,0,0,0,0,0,0,0,0,0,0,0,0,
0,0,0,0,0,0,0,0,0,0,0,0,0,0,0,0,2401,0,0,0,0,0,0,0,0,0,0,0,0,0,0,0,0,0,2402,0,0,0,0,0,0,2401,0,2402,0,0,0,0,0,0,0,0,0,0,0,0,0,0,
0,0,0,0,0,0,0,0,0,0,0,0,0,0,0,0,2401,0,0,0,0,0,0,0,0,0,0,0,0,0,0,0,0,0,2402,0,0,0,0,0,0,2401,57,2402,0,0,0,0,0,0,0,0,0,0,0,0,0,0,
0,0,0,0,0,0,0,0,0,0,0,0,0,0,0,0,2401,3153,0,0,0,2521,0,0,0,0,0,0,0,2521,0,0,0,0,2402,0,0,0,0,0,0,2401,89,2402,0,0,0,0,0,0,0,0,0,0,0,0,0,0,
0,0,0,0,0,0,0,0,0,0,0,0,0,0,0,0,2401,3183,0,0,0,2551,0,0,0,0,0,0,0,2551,0,0,0,0,2402,0,0,0,0,0,0,2401,0,2402,0,0,0,0,0,0,0,0,0,0,0,0,0,0,
0,0,0,0,0,0,0,0,0,0,0,0,0,0,0,0,2401,0,0,0,0,0,0,0,0,0,0,0,0,0,0,0,0,0,2402,0,0,0,0,0,0,2431,2466,2432,0,0,0,0,0,0,0,0,0,0,0,0,0,0,
0,0,0,0,0,0,0,0,0,0,0,0,0,0,0,0,2401,0,0,0,0,0,0,0,0,0,0,0,0,0,0,0,0,0,2402,0,0,0,0,0,0,0,0,0,0,0,0,0,0,0,0,0,0,0,0,0,0,0,
0,0,0,0,0,0,0,0,0,0,0,0,0,0,0,0,2401,3153,0,0,0,2521,0,0,0,0,0,0,0,2521,0,0,0,0,2402,0,0,0,0,0,0,0,0,0,0,0,0,0,0,0,0,0,0,0,0,0,0,0,
0,0,0,0,0,0,0,0,0,0,0,0,0,0,0,0,2401,3183,0,0,0,2551,0,0,0,0,0,0,0,2551,0,0,0,0,2402,0,0,0,0,0,0,0,0,0,0,0,0,0,0,0,0,0,0,0,0,0,0,0,
0,0,0,0,0,0,0,0,0,0,0,0,0,0,0,0,2401,0,0,0,0,0,0,0,0,0,0,0,0,0,0,0,0,0,2402,0,0,0,0,0,0,0,0,0,0,0,0,0,0,0,0,0,0,0,0,0,0,0,
0,0,0,0,0,0,0,0,0,0,0,0,0,0,0,0,2401,0,0,0,0,0,0,0,0,0,0,0,0,0,0,0,0,0,2402,0,0,0,0,0,0,0,0,0,0,0,0,0,0,0,0,0,0,0,0,0,0,0,
0,0,0,0,0,0,0,0,0,0,0,0,0,0,0,0,2461,2462,2466,2466,2466,2466,2466,2463,0,0,0,2464,2466,2466,2466,2466,2466,2467,2468,0,0,0,0,0,0,0,0,0,0,0,0,0,0,0,0,0,0,0,0,0,0,0,
0,0,0,0,0,0,0,0,0,0,0,0,0,0,0,0,2341,2341,2341,2341,2341,2341,2341,2401,0,0,0,2402,2341,2341,2341,2341,2341,2341,2341,0,0,0,0,0,0,0,0,0,0,0,0,0,0,0,0,0,0,0,0,0,0,0,
0,0,0,0,0,0,0,0,0,0,0,0,0,0,0,0,0,0,0,0,0,0,0,2401,0,0,0,2402,0,0,0,0,0,0,0,0,0,0,0,0,0,0,0,0,0,0,0,0,0,0,0,0,0,0,0,0,0,0,
0,0,0,0,0,0,0,0,0,0,0,0,0,0,0,0,0,0,0,0,0,0,0,2431,2466,2466,2466,2432,0,0,0,0,0,0,0,0,0,0,0,0,0,0,0,0,0,0,0,0,0,0,0,0,0,0,0,0,0,0,
0,0,0,0,0,0,0,0,0,0,0,0,0,0,0,0,0,0,0,0,0,0,0,2341,2341,2341,2341,2341,0,0,0,0,0,0,0,0,0,0,0,0,0,0,0,0,0,0,0,0,0,0,0,0,0,0,0,0,0,0,
0,0,0,0,0,0,0,0,0,0,0,0,0,0,0,0,0,0,0,0,0,0,0,0,0,0,0,0,0,0,0,0,0,0,0,0,0,0,0,0,0,0,0,0,0,0,0,0,0,0,0,0,0,0,0,0,0,0
</data>
 </layer>
 <layer id="4" name="Paths" width="58" height="34">
  <data encoding="csv">
0,0,0,0,0,0,0,0,0,0,0,0,0,0,0,0,0,0,0,0,0,0,0,0,0,0,0,0,0,0,0,0,0,0,0,0,0,0,0,0,0,0,0,0,0,0,0,0,0,0,0,0,0,0,0,0,0,0,
0,0,0,0,0,0,0,0,0,0,0,0,0,0,0,0,0,0,0,0,0,0,0,0,0,0,0,0,0,0,0,0,0,0,0,0,0,0,0,0,0,0,0,0,0,0,0,0,0,0,0,0,0,0,0,0,0,0,
0,0,0,0,0,0,0,0,0,0,0,0,0,0,0,0,0,0,0,0,0,0,0,0,0,0,0,0,0,0,0,0,0,0,0,0,0,0,0,0,0,0,0,0,0,0,0,0,0,0,0,0,0,0,0,0,0,0,
0,0,0,0,0,0,0,0,0,0,0,0,0,0,0,0,0,0,0,0,0,0,0,0,0,0,0,0,0,0,0,0,0,0,0,0,0,0,0,0,0,0,0,0,0,0,0,0,0,0,0,0,0,0,0,0,0,0,
0,0,0,0,0,0,0,0,0,0,0,0,0,0,0,0,0,0,0,0,0,0,0,0,0,0,0,0,0,0,0,0,0,0,0,0,0,0,0,0,0,0,0,0,0,0,0,0,0,0,0,0,0,0,0,0,0,0,
0,0,0,0,0,0,0,0,0,0,0,0,0,0,0,0,0,0,0,0,0,0,0,0,0,0,0,0,0,0,0,0,0,0,0,0,0,0,0,0,0,0,0,0,0,0,0,0,0,0,0,0,0,0,0,0,0,0,
0,0,0,0,0,0,0,0,0,0,0,0,0,0,0,0,0,0,0,0,0,0,0,0,0,0,0,0,0,0,0,0,0,0,0,0,0,0,0,0,0,0,0,0,0,0,0,0,0,0,0,0,0,0,0,0,0,0,
0,0,0,0,0,0,0,0,0,0,0,0,0,0,0,0,0,0,0,0,0,0,0,0,0,0,0,0,0,0,0,0,0,0,0,0,0,0,0,0,0,0,0,0,0,0,0,0,0,0,0,0,0,0,0,0,0,0,
0,0,0,0,0,0,0,0,0,0,0,0,0,0,0,0,0,0,0,0,0,0,0,0,0,0,0,0,0,0,0,0,0,0,0,0,0,0,0,0,0,0,0,0,0,0,0,0,0,0,0,0,0,0,0,0,0,0,
0,0,0,0,0,0,0,0,0,0,0,0,0,0,0,0,0,0,0,0,0,0,0,0,0,0,0,0,0,0,0,0,0,0,0,0,0,0,0,0,0,0,0,0,0,0,0,0,0,0,0,0,0,0,0,0,0,0,
0,0,0,0,0,0,0,0,0,0,0,0,0,0,0,0,0,0,0,0,0,0,0,0,0,0,0,0,0,0,0,0,0,0,0,0,0,0,0,0,0,0,0,0,0,0,0,0,0,0,0,0,0,0,0,0,0,0,
0,0,0,0,0,0,0,0,0,0,0,0,0,0,0,0,0,0,0,0,0,0,0,0,0,0,0,0,0,0,0,0,0,0,0,0,0,0,0,0,0,0,0,0,0,0,0,0,0,0,0,0,0,0,0,0,0,0,
0,0,0,0,0,0,0,0,0,0,0,0,0,0,0,0,0,0,0,0,0,0,0,0,0,0,0,0,0,0,0,0,0,0,0,0,0,0,0,0,0,0,0,0,0,0,0,0,0,0,0,0,0,0,0,0,0,0,
0,0,0,0,0,0,0,0,0,0,0,0,0,0,0,0,0,0,0,0,0,0,0,0,0,0,0,0,0,0,0,0,0,0,0,0,0,0,0,0,0,0,0,0,0,0,0,0,0,0,0,0,0,0,0,0,0,0,
0,0,0,0,0,0,0,0,0,0,0,0,0,0,0,0,0,0,0,0,0,0,0,0,0,0,0,0,0,0,0,0,0,0,0,0,0,0,0,0,0,0,0,0,0,0,0,0,0,0,0,0,0,0,0,0,0,0,
0,0,0,0,0,0,0,0,0,0,0,0,0,0,0,0,0,0,0,0,0,0,0,0,0,0,0,0,0,0,0,0,0,0,0,0,0,0,0,0,0,0,0,0,0,0,0,0,0,0,0,0,0,0,0,0,0,0,
0,0,0,0,0,0,0,0,0,0,0,0,0,0,0,0,0,0,0,0,0,0,0,0,0,0,0,0,0,0,0,0,0,0,0,0,0,0,0,0,0,0,0,0,0,0,0,0,0,0,0,0,0,0,0,0,0,0,
0,0,0,0,0,0,0,0,0,0,0,0,0,0,0,0,0,0,0,0,0,0,0,0,0,0,0,0,0,0,0,0,0,0,0,0,0,0,0,0,0,0,0,0,0,0,0,0,0,0,0,0,0,0,0,0,0,0,
0,0,0,0,0,0,0,0,0,0,0,0,0,0,0,0,0,0,0,0,0,0,0,0,0,0,0,0,0,0,0,0,0,0,0,0,0,0,0,0,0,0,0,0,0,0,0,0,0,0,0,0,0,0,0,0,0,0,
0,0,0,0,0,0,0,0,0,0,0,0,0,0,0,0,0,0,0,0,0,0,0,0,0,0,0,0,0,0,0,0,0,0,0,0,0,0,0,0,0,0,0,0,0,0,0,0,0,0,0,0,0,0,0,0,0,0,
0,0,0,0,0,0,0,0,0,0,0,0,0,0,0,0,0,0,0,0,0,0,0,0,0,0,0,0,0,0,0,0,0,0,0,0,0,0,0,0,0,0,0,0,0,0,0,0,0,0,0,0,0,0,0,0,0,0,
0,0,0,0,0,0,0,0,0,0,0,0,0,0,0,0,0,0,0,0,0,0,0,0,0,0,0,0,0,0,0,0,0,0,0,0,0,0,0,0,0,0,0,0,0,0,0,0,0,0,0,0,0,0,0,0,0,0,
0,0,0,0,0,0,0,0,0,0,0,0,0,0,0,0,0,0,0,0,0,0,0,0,0,0,0,0,0,0,0,0,0,0,0,0,0,0,0,0,0,0,0,0,0,0,0,0,0,0,0,0,0,0,0,0,0,0,
0,0,0,0,0,0,0,0,0,0,0,0,0,0,0,0,0,0,0,0,0,0,0,0,0,0,0,0,0,0,0,0,0,0,0,0,0,0,0,0,0,0,0,0,0,0,0,0,0,0,0,0,0,0,0,0,0,0,
0,0,0,0,0,0,0,0,0,0,0,0,0,0,0,0,0,0,0,0,0,0,0,0,0,0,0,0,0,0,0,0,0,0,0,0,0,0,0,0,0,0,0,0,0,0,0,0,0,0,0,0,0,0,0,0,0,0,
0,0,0,0,0,0,0,0,0,0,0,0,0,0,0,0,0,0,0,0,0,0,0,0,0,0,0,0,0,0,0,0,0,0,0,0,0,0,0,0,0,0,0,0,0,0,0,0,0,0,0,0,0,0,0,0,0,0,
0,0,0,0,0,0,0,0,0,0,0,0,0,0,0,0,0,0,0,0,0,0,0,0,0,0,0,0,0,0,0,0,0,0,0,0,0,0,0,0,0,0,0,0,0,0,0,0,0,0,0,0,0,0,0,0,0,0,
0,0,0,0,0,0,0,0,0,0,0,0,0,0,0,0,0,0,0,0,0,0,0,0,0,0,0,0,0,0,0,0,0,0,0,0,0,0,0,0,0,0,0,0,0,0,0,0,0,0,0,0,0,0,0,0,0,0,
0,0,0,0,0,0,0,0,0,0,0,0,0,0,0,0,0,0,0,0,0,0,0,0,0,0,0,0,0,0,0,0,0,0,0,0,0,0,0,0,0,0,0,0,0,0,0,0,0,0,0,0,0,0,0,0,0,0,
0,0,0,0,0,0,0,0,0,0,0,0,0,0,0,0,0,0,0,0,0,0,0,0,0,0,0,0,0,0,0,0,0,0,0,0,0,0,0,0,0,0,0,0,0,0,0,0,0,0,0,0,0,0,0,0,0,0,
0,0,0,0,0,0,0,0,0,0,0,0,0,0,0,0,0,0,0,0,0,0,0,0,0,0,0,0,0,0,0,0,0,0,0,0,0,0,0,0,0,0,0,0,0,0,0,0,0,0,0,0,0,0,0,0,0,0,
0,0,0,0,0,0,0,0,0,0,0,0,0,0,0,0,0,0,0,0,0,0,0,0,0,0,0,0,0,0,0,0,0,0,0,0,0,0,0,0,0,0,0,0,0,0,0,0,0,0,0,0,0,0,0,0,0,0,
0,0,0,0,0,0,0,0,0,0,0,0,0,0,0,0,0,0,0,0,0,0,0,0,0,0,0,0,0,0,0,0,0,0,0,0,0,0,0,0,0,0,0,0,0,0,0,0,0,0,0,0,0,0,0,0,0,0,
0,0,0,0,0,0,0,0,0,0,0,0,0,0,0,0,0,0,0,0,0,0,0,0,0,0,0,0,0,0,0,0,0,0,0,0,0,0,0,0,0,0,0,0,0,0,0,0,0,0,0,0,0,0,0,0,0,0
</data>
 </layer>
 <objectgroup id="5" name="Back"/>
 <objectgroup id="6" name="Buildings" visible="0">
  <object id="28" name="TileData" x="144" y="208" width="16" height="16">
   <properties>
    <property name="Action" value="Door WLMRyden"/>
   </properties>
  </object>
  <object id="29" name="TileData" x="672" y="336" width="16" height="16">
   <properties>
    <property name="Action" value="Door WLMMarcus"/>
   </properties>
  </object>
  <object id="30" name="TileData" x="512" y="384" width="16" height="16">
   <properties>
    <property name="Action" value="Message &quot;WRMCastle.0&quot;"/>
   </properties>
  </object>
  <object id="31" name="TileData" x="512" y="400" width="16" height="16">
   <properties>
    <property name="Action" value="Message &quot;WRMCastle.0&quot;"/>
   </properties>
  </object>
  <object id="32" name="TileData" x="512" y="416" width="16" height="16">
   <properties>
    <property name="Action" value="Message &quot;WRMCastle.0&quot;"/>
   </properties>
  </object>
  <object id="33" name="TileData" x="512" y="432" width="16" height="16">
   <properties>
    <property name="Action" value="Message &quot;WRMCastle.0&quot;"/>
   </properties>
  </object>
  <object id="34" name="TileData" x="528" y="432" width="16" height="16">
   <properties>
    <property name="Action" value="Message &quot;WRMCastle.0&quot;"/>
   </properties>
  </object>
  <object id="35" name="TileData" x="528" y="384" width="16" height="16">
   <properties>
    <property name="Action" value="Message &quot;WRMCastle.0&quot;"/>
   </properties>
  </object>
  <object id="36" name="TileData" x="512" y="352" width="16" height="16">
   <properties>
    <property name="Action" value="Message &quot;WRMCastle.1&quot;"/>
   </properties>
  </object>
  <object id="37" name="TileData" x="528" y="352" width="16" height="16">
   <properties>
    <property name="Action" value="Message &quot;WRMCastle.1&quot;"/>
   </properties>
  </object>
  <object id="38" name="TileData" x="512" y="336" width="16" height="16">
   <properties>
    <property name="Action" value="Message &quot;WRMCastle.1&quot;"/>
   </properties>
  </object>
  <object id="39" name="TileData" x="512" y="320" width="16" height="16">
   <properties>
    <property name="Action" value="Message &quot;WRMCastle.1&quot;"/>
   </properties>
  </object>
  <object id="40" name="TileData" x="512" y="304" width="16" height="16">
   <properties>
    <property name="Action" value="Message &quot;WRMCastle.1&quot;"/>
   </properties>
  </object>
  <object id="41" name="TileData" x="528" y="304" width="16" height="16">
   <properties>
    <property name="Action" value="Message &quot;WRMCastle.1&quot;"/>
   </properties>
  </object>
  <object id="42" name="TileData" x="528" y="320" width="16" height="16">
   <properties>
    <property name="Action" value="Message &quot;WRMCastle.1&quot;"/>
   </properties>
  </object>
  <object id="43" name="TileData" x="528" y="336" width="16" height="16">
   <properties>
    <property name="Action" value="Message &quot;WRMCastle.1&quot;"/>
   </properties>
  </object>
  <object id="44" name="TileData" x="528" y="400" width="16" height="16">
   <properties>
    <property name="Action" value="Message &quot;WRMCastle.0&quot;"/>
   </properties>
  </object>
  <object id="45" name="TileData" x="528" y="416" width="16" height="16">
   <properties>
    <property name="Action" value="Message &quot;WRMCastle.0&quot;"/>
   </properties>
  </object>
 </objectgroup>
 <objectgroup id="10" name="Buildings2"/>
 <objectgroup id="7" name="Front"/>
 <objectgroup id="8" name="Paths"/>
</map>
