<?xml version="1.0" encoding="UTF-8"?>
<map version="1.10" tiledversion="1.10.2" orientation="orthogonal" renderorder="right-down" compressionlevel="0" width="60" height="60" tilewidth="16" tileheight="16" infinite="0" nextlayerid="13" nextobjectid="157">
 <properties>
  <property name="CustomMapOverlay" value="Underwater"/>
  <property name="Light" value="25 43 4 26 27 4 30 27 4 38 52 4"/>
  <property name="Music" value="malha_malharuins"/>
  <property name="Warp" value="28 29 Custom_Malha_Castle 25 31 27 0 Beach 14 38 28 0 Beach 14 38 29 0 Beach 14 38 50 9 Custom_Malha_SoniaHouse 9 13"/>
 </properties>
 <tileset firstgid="1" name="Paths" tilewidth="16" tileheight="16" tilecount="36" columns="4">
  <image source="paths" width="64" height="144"/>
 </tileset>
 <tileset firstgid="37" name="z_MalhaRuins" tilewidth="16" tileheight="16" tilecount="1260" columns="21">
  <image source="z_MalhaRuins.png" width="336" height="960"/>
  <tile id="298">
   <animation>
    <frame tileid="298" duration="1000"/>
    <frame tileid="299" duration="1000"/>
   </animation>
  </tile>
  <tile id="735">
   <animation>
    <frame tileid="735" duration="1000"/>
    <frame tileid="721" duration="1000"/>
   </animation>
  </tile>
  <tile id="736">
   <animation>
    <frame tileid="736" duration="1000"/>
    <frame tileid="722" duration="1000"/>
   </animation>
  </tile>
  <tile id="756">
   <animation>
    <frame tileid="756" duration="1000"/>
    <frame tileid="742" duration="1000"/>
   </animation>
  </tile>
  <tile id="757">
   <animation>
    <frame tileid="757" duration="1000"/>
    <frame tileid="743" duration="1000"/>
   </animation>
  </tile>
  <tile id="777">
   <animation>
    <frame tileid="777" duration="1000"/>
    <frame tileid="763" duration="1000"/>
   </animation>
  </tile>
  <tile id="861">
   <animation>
    <frame tileid="861" duration="350"/>
    <frame tileid="862" duration="350"/>
    <frame tileid="863" duration="350"/>
    <frame tileid="864" duration="350"/>
    <frame tileid="865" duration="350"/>
    <frame tileid="866" duration="350"/>
    <frame tileid="867" duration="350"/>
    <frame tileid="868" duration="350"/>
    <frame tileid="869" duration="350"/>
    <frame tileid="870" duration="350"/>
    <frame tileid="871" duration="350"/>
    <frame tileid="872" duration="350"/>
    <frame tileid="873" duration="350"/>
    <frame tileid="874" duration="350"/>
    <frame tileid="875" duration="350"/>
   </animation>
  </tile>
  <tile id="882">
   <animation>
    <frame tileid="882" duration="350"/>
    <frame tileid="883" duration="350"/>
    <frame tileid="884" duration="350"/>
    <frame tileid="885" duration="350"/>
    <frame tileid="886" duration="350"/>
    <frame tileid="887" duration="350"/>
    <frame tileid="888" duration="350"/>
    <frame tileid="889" duration="350"/>
    <frame tileid="890" duration="350"/>
    <frame tileid="891" duration="350"/>
    <frame tileid="892" duration="350"/>
    <frame tileid="893" duration="350"/>
    <frame tileid="894" duration="350"/>
    <frame tileid="895" duration="350"/>
    <frame tileid="896" duration="350"/>
   </animation>
  </tile>
  <tile id="903">
   <animation>
    <frame tileid="903" duration="350"/>
    <frame tileid="904" duration="350"/>
    <frame tileid="905" duration="350"/>
    <frame tileid="906" duration="350"/>
    <frame tileid="907" duration="350"/>
    <frame tileid="908" duration="350"/>
    <frame tileid="909" duration="350"/>
    <frame tileid="910" duration="350"/>
    <frame tileid="911" duration="350"/>
    <frame tileid="912" duration="350"/>
    <frame tileid="913" duration="350"/>
    <frame tileid="914" duration="350"/>
    <frame tileid="915" duration="350"/>
    <frame tileid="916" duration="350"/>
    <frame tileid="917" duration="350"/>
   </animation>
  </tile>
  <tile id="924">
   <animation>
    <frame tileid="924" duration="350"/>
    <frame tileid="925" duration="350"/>
    <frame tileid="926" duration="350"/>
    <frame tileid="927" duration="350"/>
    <frame tileid="928" duration="350"/>
    <frame tileid="929" duration="350"/>
    <frame tileid="930" duration="350"/>
    <frame tileid="931" duration="350"/>
    <frame tileid="932" duration="350"/>
    <frame tileid="933" duration="350"/>
    <frame tileid="934" duration="350"/>
    <frame tileid="935" duration="350"/>
    <frame tileid="936" duration="350"/>
    <frame tileid="937" duration="350"/>
    <frame tileid="938" duration="350"/>
   </animation>
  </tile>
 </tileset>
 <tileset firstgid="1297" name="z_CoralReefFaded" tilewidth="16" tileheight="16" tilecount="4450" columns="50">
  <image source="z_CoralReefFaded.png" width="800" height="1424"/>
 </tileset>
 <layer id="1" name="Back" width="60" height="60">
  <data encoding="csv">
37,37,37,37,37,37,37,37,37,37,37,37,37,37,37,37,37,37,37,37,37,37,37,37,37,37,207,270,268,269,248,37,37,37,37,37,37,37,37,37,37,37,37,37,37,37,37,37,37,37,37,37,37,37,37,37,37,37,37,37,
37,37,37,37,37,37,37,37,37,37,37,37,37,37,37,37,37,37,37,37,37,37,37,37,37,37,207,291,289,290,248,37,37,37,37,37,37,37,37,37,37,37,37,37,37,37,37,37,37,37,37,37,37,37,37,0,37,37,37,37,
37,37,37,37,37,37,37,37,37,37,37,37,37,37,37,37,37,37,37,37,37,37,37,37,37,37,207,270,268,269,248,37,37,37,197,37,37,37,37,37,197,37,37,37,37,37,37,37,37,37,37,37,37,37,37,0,37,37,37,37,
37,37,37,37,37,37,37,37,37,37,37,37,196,37,37,37,37,37,37,37,37,37,37,37,37,43,207,291,289,290,248,37,37,37,218,37,37,37,37,37,218,37,37,37,37,37,37,37,37,41,37,37,37,37,37,37,37,37,37,37,
37,37,37,37,37,37,37,37,37,37,37,37,217,37,37,37,37,37,37,37,37,37,37,37,37,43,207,271,268,269,248,37,37,37,239,37,37,37,37,37,239,43,43,43,43,43,43,43,43,43,43,43,43,43,43,43,43,37,37,37,
37,37,37,37,37,37,37,37,37,37,37,37,238,37,37,37,37,37,37,37,37,40,37,37,37,43,207,292,289,290,248,37,37,43,43,43,43,43,43,43,43,43,43,43,43,43,43,43,43,43,43,43,43,43,43,43,43,37,37,37,
37,37,37,37,37,37,37,37,37,218,43,43,43,43,43,43,43,43,43,43,43,43,43,43,43,43,207,271,268,269,248,43,43,43,43,43,43,43,43,43,43,43,43,43,59,60,59,60,61,43,43,43,43,43,43,43,43,37,37,37,
37,37,37,37,37,37,37,37,197,218,43,43,43,43,43,43,43,43,43,43,43,43,43,43,43,125,207,292,289,290,248,43,43,43,58,59,60,59,60,59,61,43,125,37,37,37,37,37,82,43,43,43,43,43,58,61,43,37,37,37,
37,37,37,37,37,37,37,37,218,239,59,60,59,60,59,60,59,60,59,60,59,60,59,60,145,37,375,271,310,311,247,60,59,60,84,37,37,37,37,37,83,145,37,37,37,37,37,37,82,43,43,43,43,43,79,82,43,37,37,37,
37,37,37,37,37,37,37,37,239,37,37,37,186,187,187,187,187,187,187,187,187,187,187,187,187,187,250,292,291,292,249,187,187,187,187,187,187,187,187,187,187,187,187,187,188,37,37,37,82,43,43,43,43,43,79,82,43,217,37,37,
37,37,37,37,37,37,37,37,37,37,37,37,207,270,271,270,271,270,271,270,271,270,271,270,271,270,271,270,271,270,270,271,270,271,398,399,270,271,270,271,270,271,270,271,209,37,37,37,83,60,59,60,59,60,84,82,43,238,37,37,
37,37,37,37,37,37,37,37,37,37,37,37,207,291,292,291,292,291,292,291,292,291,292,291,292,291,292,291,292,291,291,292,291,292,419,420,291,292,291,292,291,292,291,292,209,37,37,37,37,37,37,37,37,37,37,82,43,238,37,37,
37,37,37,37,37,37,37,218,37,37,37,37,375,270,271,272,229,229,229,229,229,229,229,229,229,229,229,229,229,229,229,229,229,229,229,229,229,229,229,229,229,251,270,271,209,37,37,37,37,37,520,521,522,523,37,82,43,43,37,37,
37,37,37,37,37,37,37,218,37,37,37,37,207,291,292,209,37,37,37,37,37,37,37,37,37,37,37,37,37,37,37,37,37,37,37,37,37,37,37,37,37,207,396,397,209,37,37,37,37,37,541,542,543,544,37,82,43,43,37,37,
37,37,37,37,37,37,37,239,37,37,37,37,562,563,564,565,37,37,37,37,37,37,37,37,37,37,37,37,37,37,37,37,37,37,37,37,37,37,37,37,37,207,417,418,209,37,37,37,37,37,562,563,564,565,37,82,43,43,37,37,
37,37,37,37,37,37,218,37,37,37,37,37,37,37,37,37,37,37,37,37,37,37,37,37,37,37,37,37,37,37,37,37,37,37,37,37,37,37,37,37,37,207,291,292,209,37,37,37,37,37,37,37,37,37,37,82,43,43,37,37,
37,37,37,37,37,37,218,37,37,37,37,37,37,37,37,37,37,37,80,101,102,101,102,37,37,37,37,37,37,37,37,37,37,37,37,37,37,37,37,37,37,207,270,271,209,37,37,37,37,37,37,37,37,37,37,82,43,37,37,37,
37,37,37,37,37,37,239,37,37,37,37,37,520,521,522,523,37,80,103,43,43,37,37,37,37,37,37,37,37,37,37,37,37,37,37,39,37,37,37,37,37,207,291,292,209,37,37,37,37,37,40,41,37,37,62,103,43,37,37,37,
37,37,37,37,37,37,37,37,37,37,37,37,541,542,543,318,80,103,43,43,37,37,37,37,37,37,37,37,37,37,37,37,37,37,37,37,37,37,37,37,37,207,270,271,209,37,37,37,37,37,37,37,37,37,82,43,43,37,37,37,
37,37,37,37,37,37,37,37,37,37,37,37,207,291,292,339,82,43,43,43,37,37,37,37,37,37,37,37,37,37,37,37,37,37,37,37,37,37,37,37,37,207,291,292,377,37,37,37,37,37,37,37,37,37,82,43,37,37,37,37,
37,37,37,37,37,37,37,37,37,37,37,37,207,270,271,318,82,43,43,37,37,37,37,37,37,37,37,37,37,37,37,37,37,37,37,37,37,37,37,37,37,207,270,271,209,37,37,37,37,37,37,37,37,82,82,43,37,37,37,37,
37,37,37,37,38,218,37,37,37,37,37,37,207,291,292,377,82,43,43,37,37,37,37,37,37,37,37,37,37,37,37,37,37,37,37,37,37,37,37,37,37,207,291,292,209,37,37,62,101,101,37,37,37,62,103,43,37,37,37,37,
37,37,37,37,37,218,37,37,37,37,37,37,207,270,271,209,82,43,43,37,37,37,37,37,37,37,37,37,37,37,37,37,37,37,37,37,37,37,37,37,37,207,270,271,209,37,62,103,43,37,37,37,37,82,43,43,37,37,37,37,
37,37,37,37,37,218,37,37,37,37,37,37,207,291,292,209,82,43,43,37,37,37,37,37,37,37,37,37,37,37,37,37,37,37,37,37,37,37,37,37,37,207,291,292,209,37,82,43,43,37,40,37,37,82,43,43,37,37,37,37,
37,37,37,37,37,37,37,37,37,37,37,37,207,270,271,209,82,43,43,37,37,37,102,37,37,37,37,37,37,37,37,37,37,37,37,37,38,37,37,37,37,207,270,271,209,37,82,43,43,37,37,37,37,82,43,43,37,37,37,37,
37,37,37,37,37,37,37,37,37,37,37,37,207,291,292,209,82,43,43,37,37,37,43,37,37,37,37,37,37,37,37,37,37,37,43,37,37,37,37,37,37,207,291,292,209,62,103,43,37,37,37,37,37,82,43,43,37,37,37,37,
37,37,37,37,37,37,37,37,37,37,37,37,207,270,271,209,82,43,43,37,37,80,43,43,37,37,37,37,37,37,37,37,37,37,43,81,37,37,37,37,37,207,270,271,209,82,43,37,37,37,37,37,37,82,122,43,37,37,37,37,
37,37,37,37,37,37,37,37,37,37,37,37,375,291,292,209,82,43,43,37,80,103,43,43,43,37,37,37,37,37,37,37,37,37,37,100,81,37,37,37,37,207,291,292,209,82,43,37,37,37,37,37,37,82,43,43,37,37,37,37,
37,43,43,43,43,37,37,37,37,37,37,37,207,270,271,209,82,43,43,37,82,43,43,43,43,43,37,37,37,37,37,37,37,37,37,43,79,37,112,37,37,562,563,564,565,82,43,37,37,37,37,37,37,82,43,43,37,37,37,37,
37,43,43,43,125,37,37,37,37,37,37,37,207,291,292,209,82,43,43,37,83,61,43,43,43,207,207,37,37,37,37,43,43,43,43,58,84,37,133,37,37,37,37,37,62,103,37,37,37,37,37,37,37,82,43,43,37,37,37,37,
37,59,60,145,186,187,187,187,187,187,187,187,250,270,271,209,82,43,43,37,37,83,59,59,60,354,37,719,720,721,37,247,59,60,59,84,37,37,154,37,37,37,37,37,82,43,37,37,37,37,37,37,37,82,43,43,37,37,37,37,
37,37,37,37,207,270,271,270,271,270,271,270,271,291,292,209,82,43,43,37,37,37,37,37,37,207,270,271,396,397,270,377,37,37,37,37,37,37,37,37,37,37,37,37,82,43,37,37,37,37,37,37,37,82,43,43,37,37,37,37,
37,37,37,37,375,291,292,291,292,291,292,291,292,270,271,209,82,43,43,37,37,37,37,37,37,207,291,292,417,418,271,209,37,37,40,37,37,37,37,37,37,37,37,37,83,61,37,37,37,37,37,37,37,82,43,43,37,37,37,37,
37,37,37,37,207,270,271,272,229,229,229,229,251,291,292,209,82,43,43,37,38,37,37,37,37,185,184,185,184,373,374,332,42,37,37,37,37,37,37,37,37,520,521,522,523,82,37,37,37,37,37,37,37,82,43,43,37,37,37,37,
37,37,37,37,207,291,292,209,37,37,37,37,207,270,271,377,82,43,43,37,37,37,37,37,40,206,205,206,205,394,395,353,37,37,37,37,37,37,37,37,37,541,542,543,544,82,37,37,37,37,37,37,37,82,43,43,37,37,37,37,
37,37,37,37,184,373,374,332,37,37,37,37,207,291,292,209,82,122,43,37,37,37,37,37,37,291,292,291,292,268,269,269,37,37,37,37,37,37,37,37,37,207,291,292,209,82,43,37,37,37,37,37,37,82,43,43,37,37,37,37,
37,37,37,37,205,394,395,353,37,37,37,37,207,270,271,209,82,43,43,37,37,37,37,37,37,184,185,184,185,331,332,332,37,37,37,37,37,37,37,37,37,375,270,271,209,82,43,37,37,37,37,37,37,82,43,43,37,37,37,37,
37,37,37,37,184,331,332,332,37,37,37,37,207,291,292,209,82,43,43,37,37,37,37,37,37,205,206,205,206,352,353,353,37,37,37,37,37,37,37,37,37,207,291,292,209,82,43,37,37,37,37,37,37,82,43,43,37,37,37,37,
37,37,37,37,205,352,353,353,37,37,37,37,207,270,271,209,82,43,43,43,43,43,43,43,43,207,226,227,271,268,269,248,43,43,43,43,43,43,125,37,37,207,270,271,209,82,43,37,37,37,37,37,37,82,43,43,37,37,37,37,
37,37,37,37,37,331,332,37,37,37,37,37,207,291,292,209,82,43,43,43,43,43,43,43,125,207,270,291,292,289,290,248,43,122,43,43,43,125,37,37,37,207,291,292,377,82,43,37,37,37,37,37,37,82,43,37,37,37,37,37,
37,37,37,38,37,37,37,37,40,37,37,37,207,270,271,209,83,59,60,59,60,59,60,145,37,375,271,270,271,310,311,247,60,59,60,59,145,37,37,37,37,207,270,271,209,82,43,37,37,37,37,37,62,103,37,37,37,37,37,37,
37,37,37,37,37,37,37,37,37,37,37,37,207,291,292,249,187,187,187,187,187,187,187,187,187,250,270,291,292,291,292,249,187,187,187,187,187,187,187,187,187,250,291,292,209,82,43,37,37,37,37,62,103,37,37,37,37,37,37,37,
37,37,37,37,37,37,37,37,37,62,101,63,207,270,271,270,271,398,399,270,271,270,271,270,271,270,271,270,270,271,270,271,270,271,270,271,270,271,270,271,270,271,270,271,209,82,43,37,37,37,37,82,43,37,37,37,37,37,37,37,
37,37,37,37,37,37,37,37,37,82,43,79,375,291,292,291,292,419,420,291,292,291,292,291,292,291,292,291,291,292,291,292,291,292,291,292,291,292,291,292,291,292,291,292,209,82,43,43,37,40,37,82,43,37,37,37,37,37,37,37,
37,37,37,37,37,37,37,37,37,82,43,79,228,229,229,229,229,229,229,229,229,229,229,251,292,291,292,291,292,291,292,291,291,272,229,229,229,229,229,229,229,229,229,229,230,82,43,43,37,37,37,82,43,43,37,37,37,37,37,37,
37,37,37,37,37,37,37,37,37,82,43,100,102,101,102,63,62,101,102,101,101,102,63,207,270,271,270,271,270,271,270,270,271,209,37,37,37,37,62,101,102,101,102,101,102,103,43,43,37,37,37,82,43,43,37,37,37,37,37,37,
37,37,37,37,37,37,37,37,37,82,43,43,43,43,43,79,82,43,43,43,43,43,79,207,291,292,291,292,396,397,291,291,292,209,37,37,37,37,82,43,43,43,43,43,43,43,43,43,43,37,37,82,43,43,37,37,37,37,37,37,
37,37,37,37,37,37,37,37,37,83,59,60,59,60,59,84,82,43,43,43,43,43,79,207,291,292,270,271,417,418,270,291,292,209,37,37,37,37,83,59,60,59,60,59,60,61,43,43,43,37,37,82,43,43,102,102,63,37,37,37,
37,37,37,37,37,37,37,37,37,37,37,37,37,62,101,63,82,43,43,43,43,43,79,228,229,251,291,292,270,271,271,272,229,230,37,37,37,37,40,37,37,37,37,37,37,83,61,43,43,37,37,83,59,59,59,59,84,37,37,37,
37,37,37,37,37,37,37,37,37,37,37,37,37,82,43,79,82,43,43,43,43,43,79,37,37,207,291,292,291,292,271,209,37,37,37,37,37,37,37,37,37,37,37,37,37,62,103,43,37,37,37,37,37,37,37,37,37,37,37,37,
37,37,37,37,37,37,37,37,37,37,37,37,37,83,60,84,83,59,60,59,60,59,84,37,37,207,270,271,270,271,271,209,62,37,37,37,37,37,63,37,37,37,37,37,62,103,43,43,37,37,37,37,37,37,37,37,37,37,37,37,
37,37,37,37,37,37,37,37,37,37,37,37,37,37,345,346,187,187,187,187,187,187,187,187,187,250,291,292,270,271,271,209,82,43,43,43,43,43,79,37,37,37,37,37,82,43,37,62,102,37,37,37,37,37,37,37,37,37,37,37,
37,37,37,37,37,37,37,37,37,37,37,37,37,37,366,367,270,271,270,271,270,271,270,271,270,271,270,271,291,292,270,209,82,43,43,43,43,43,79,37,37,37,37,37,37,37,37,82,43,37,37,37,37,37,37,37,37,37,37,37,
37,37,37,37,37,37,37,37,37,62,102,37,37,37,387,388,291,292,291,292,291,292,291,292,291,292,291,292,291,292,291,209,82,43,43,43,43,43,79,37,37,37,37,37,37,37,37,82,43,37,37,37,37,37,37,37,37,37,37,37,
37,37,37,37,37,37,37,37,62,103,37,38,37,37,408,409,229,229,229,229,229,229,229,229,229,251,270,271,270,271,270,377,83,59,60,59,60,59,84,37,37,62,43,37,37,37,37,82,43,37,39,37,37,37,37,37,37,37,37,37,
37,37,37,37,37,37,37,37,82,43,37,37,37,37,37,37,62,101,102,101,102,101,102,63,37,207,291,292,291,292,291,249,187,187,187,296,297,37,37,37,37,82,43,37,37,37,37,82,43,43,37,37,37,37,37,37,37,37,37,37,
37,37,37,37,37,100,63,37,82,43,37,37,37,37,37,37,82,43,43,43,43,43,43,79,37,207,270,271,270,271,271,270,271,270,271,317,318,37,37,37,37,82,43,37,37,37,37,82,43,43,37,37,37,37,37,37,37,37,37,37,
37,37,37,37,37,43,100,102,103,43,37,37,37,37,84,37,83,59,60,59,60,59,60,84,37,207,291,292,291,292,271,291,292,291,292,338,339,37,37,37,62,103,43,101,63,37,37,82,122,43,37,37,37,37,37,37,37,37,37,37,
37,37,37,37,37,43,43,43,43,43,37,37,37,37,37,37,37,37,37,37,37,37,37,37,37,207,270,271,270,271,271,272,229,229,229,359,360,62,101,102,103,43,43,43,79,217,37,83,61,43,37,37,37,37,37,37,37,37,37,37,
37,37,37,37,37,43,43,43,43,37,37,37,37,37,37,37,37,37,37,37,37,37,37,37,37,207,291,292,291,292,271,209,37,37,37,37,37,82,43,43,43,122,43,43,100,238,123,37,82,43,37,37,37,37,37,37,37,37,37,37
</data>
 </layer>
 <layer id="2" name="Buildings" width="60" height="60">
  <data encoding="csv">
0,0,0,0,0,0,1336,0,0,0,0,0,0,0,0,0,0,1541,0,0,0,0,0,0,0,0,0,0,0,0,132,1536,0,0,0,0,0,0,0,0,0,0,0,0,0,294,0,0,0,0,0,0,0,0,0,0,0,0,0,1436,
0,0,0,0,0,0,0,0,0,0,0,1441,0,0,0,0,0,0,0,0,0,0,0,0,0,0,0,0,0,0,153,0,0,1336,0,0,0,0,0,0,1436,0,961,51,52,197,159,197,196,197,196,197,196,196,159,47,48,1336,0,0,
2721,2722,2723,0,2725,2726,0,0,0,172,151,151,171,0,0,0,1536,0,0,0,0,0,0,0,0,0,0,0,0,0,174,0,0,0,177,197,196,159,196,197,174,0,0,241,73,218,217,218,217,218,160,218,217,217,218,68,69,0,0,0,
2771,2772,2773,2774,2775,2776,2777,0,0,0,0,0,241,196,197,196,197,196,197,196,197,196,159,196,197,0,0,0,0,0,195,196,196,197,198,218,217,218,217,218,195,197,196,262,94,239,238,239,238,239,238,239,238,238,239,2684354721,90,0,0,0,
2821,2822,2823,2824,2825,2826,2827,2828,1636,0,0,53,198,217,218,217,218,160,218,217,218,217,218,217,218,0,0,0,0,0,216,160,217,218,219,239,238,239,238,239,216,218,217,283,115,260,259,260,259,260,259,260,259,259,260,110,111,0,0,0,
2871,2872,2873,2874,2875,2876,2877,2878,0,0,53,74,219,238,239,238,239,238,239,238,239,238,239,2684354721,239,0,0,0,0,0,237,238,238,239,259,260,259,260,259,259,260,239,2684354721,304,0,0,0,0,0,0,0,0,0,0,0,0,132,0,0,1636,
2921,2922,2923,2924,2925,2926,2927,2928,0,177,74,95,259,259,260,259,260,259,260,259,260,259,260,259,260,0,0,0,0,0,258,259,259,260,261,1487,1488,0,0,0,258,260,259,325,0,0,0,0,0,0,0,0,0,0,0,0,153,0,0,0,
2971,2972,2973,2974,2975,2976,2977,2978,156,0,95,137,261,0,294,233,234,1487,1488,0,0,0,0,378,379,0,0,0,0,0,0,1536,0,0,0,0,0,0,1536,0,0,0,0,0,0,233,234,0,0,0,0,0,0,0,0,0,153,0,233,234,
3021,3022,3023,3024,3025,3026,0,0,135,0,116,0,0,0,0,294,0,356,0,0,1336,0,0,0,0,0,0,0,0,0,0,0,0,0,0,0,0,0,0,0,0,1636,0,0,0,0,0,0,0,857,858,859,860,861,862,0,174,0,0,0,
0,0,0,0,0,0,0,0,135,116,0,0,1536,0,0,0,0,0,0,0,0,0,0,0,0,0,0,0,0,0,0,0,0,0,0,0,0,0,0,0,0,0,0,0,0,0,0,0,877,878,879,880,881,882,883,0,195,153,0,0,
0,0,0,0,0,0,0,0,156,261,0,0,0,0,0,0,0,0,0,0,0,0,0,0,0,0,0,0,0,0,0,0,0,0,0,0,0,0,0,0,0,0,0,0,0,0,0,0,0,0,0,0,0,0,0,0,216,132,0,0,
0,1336,0,0,0,0,0,0,177,356,0,0,0,0,0,0,0,0,0,0,0,0,0,0,0,0,0,0,0,0,0,0,0,0,0,0,0,0,0,0,0,0,0,0,0,0,0,0,0,0,0,0,884,885,886,0,237,170,961,0,
0,0,0,0,0,0,37,135,198,0,0,0,0,0,0,0,0,0,0,0,0,0,0,0,0,0,0,0,0,0,0,0,0,0,0,0,0,0,0,0,0,0,0,0,0,0,0,0,0,0,0,0,0,0,0,0,258,132,0,0,
0,0,0,37,0,0,37,156,219,0,0,0,0,0,0,0,0,0,0,0,0,0,0,0,0,0,0,0,0,0,0,0,0,0,0,0,0,0,0,233,234,0,0,0,0,0,0,0,0,0,0,0,0,0,0,0,233,153,0,0,
0,0,0,37,37,0,37,177,240,0,0,0,0,0,0,0,0,0,0,0,0,0,0,0,0,0,0,0,0,0,0,0,0,0,0,0,0,0,0,0,0,0,0,0,0,0,0,0,0,0,0,0,0,0,0,233,0,132,0,1336,
0,0,0,37,37,0,114,115,261,0,0,0,0,0,0,0,0,0,0,0,0,0,0,0,0,0,0,0,0,0,0,0,0,0,0,0,1536,0,0,0,0,0,0,0,0,0,0,0,0,0,0,1436,0,0,233,0,0,153,0,0,
2962,2963,2964,2965,2966,0,156,219,1336,0,0,0,0,0,0,0,0,0,0,0,0,0,1636,37,37,37,37,37,37,37,37,37,37,37,149,0,0,0,0,0,0,0,0,0,0,0,0,0,0,0,0,0,0,132,0,0,170,0,1536,0,
3012,3013,3014,3015,3016,3017,135,240,1336,0,0,0,0,0,0,0,0,0,0,0,0,37,37,1541,0,0,0,0,0,0,0,0,0,0,1536,37,149,0,0,0,0,0,0,0,0,0,0,0,0,327,328,329,0,153,0,0,132,0,0,0,
3062,3063,3064,3065,3066,3067,115,261,0,0,0,0,0,0,0,0,0,0,0,132,0,0,0,0,0,0,0,0,0,0,0,0,0,0,0,0,37,156,0,0,0,0,0,0,0,0,0,0,347,348,349,350,351,132,0,0,132,2720,2721,2722,
3112,3113,3114,3115,3116,3117,156,0,0,0,0,0,0,0,0,0,0,0,0,0,37,1536,0,0,0,0,0,0,0,0,0,0,0,0,0,0,335,149,0,0,0,0,0,0,0,0,0,0,368,369,370,371,372,153,0,170,2769,2770,2771,2772,
3162,3163,3164,3165,3166,0,177,0,1436,0,0,0,0,0,0,0,0,0,132,37,335,0,0,0,0,969,0,0,0,0,0,0,0,0,413,414,357,37,135,0,0,0,0,0,0,0,1436,0,0,390,391,392,0,152,0,132,2819,2820,2821,2822,
0,0,0,0,0,135,198,0,0,0,0,0,0,0,0,0,0,0,153,0,357,0,0,0,0,0,0,0,0,0,0,0,0,0,434,435,0,0,156,0,0,0,0,0,0,0,0,0,0,0,0,282,37,0,0,153,2869,2870,2871,2872,
0,0,0,0,0,156,219,0,0,0,0,0,0,0,0,0,0,0,132,1336,0,0,0,0,0,0,0,0,0,0,0,0,0,0,0,0,1636,0,149,0,0,0,0,0,0,0,0,0,132,37,37,0,0,0,0,132,0,2920,2921,2922,
0,0,0,1336,0,135,240,0,0,378,379,0,0,0,0,0,0,1636,153,0,0,0,649,0,0,1032,0,0,0,0,0,0,0,0,0,0,0,0,0,156,0,0,0,0,0,0,0,0,153,0,0,1336,0,0,0,153,1536,2970,2971,2972,
0,0,0,0,0,177,261,0,0,0,0,0,0,0,0,0,0,0,132,0,0,413,414,0,0,0,0,0,0,0,0,0,0,0,686,0,0,0,0,135,0,0,0,0,0,0,0,0,37,0,0,0,0,0,0,132,0,0,3021,3022,
0,51,52,196,197,198,1636,0,0,0,0,0,0,0,0,0,0,0,153,0,0,434,435,0,0,0,0,0,0,0,0,0,0,706,707,0,0,0,0,156,0,0,0,0,0,0,0,37,0,0,0,413,414,0,0,153,0,0,0,0,
0,72,73,217,160,219,0,0,0,0,0,0,0,0,0,0,0,0,132,0,0,629,630,631,632,633,634,635,636,637,638,639,640,641,642,643,0,0,0,135,0,0,0,0,0,0,132,0,0,0,0,434,435,0,0,132,0,1336,0,0,
0,93,94,238,239,240,0,0,0,0,0,0,0,0,0,0,0,0,153,0,0,650,651,652,653,654,655,656,657,658,659,660,661,662,663,664,0,0,0,177,0,0,0,0,0,0,153,0,0,0,0,0,0,0,0,153,0,0,0,0,
0,114,115,259,260,261,0,0,0,0,0,0,0,0,0,0,0,0,132,233,234,671,672,673,674,675,676,677,678,679,680,681,682,683,684,685,233,234,135,198,0,0,0,0,0,0,152,0,0,0,0,0,0,0,0,132,0,0,0,0,
0,135,1441,1441,1541,0,0,0,0,0,0,0,0,0,0,0,0,0,132,0,1541,692,693,694,695,696,697,698,699,700,701,702,703,704,705,706,0,0,156,219,0,0,0,0,0,132,0,0,0,0,0,0,0,0,0,153,0,0,0,0,
0,156,0,0,0,0,0,0,0,0,0,0,0,0,0,0,1536,0,153,0,0,0,0,0,0,717,718,0,0,0,722,723,0,0,0,0,0,0,135,240,0,0,0,0,0,153,0,0,0,0,0,0,0,0,0,132,0,0,0,0,
0,135,0,0,0,0,0,0,0,0,0,0,0,0,0,0,0,0,111,294,0,413,414,233,234,0,0,0,0,0,0,0,233,234,327,328,329,330,259,261,0,0,0,0,0,174,0,0,0,0,0,0,0,0,0,153,0,0,0,0,
0,156,0,0,0,0,0,0,0,0,0,0,0,0,0,0,0,0,132,0,335,434,435,0,0,130,0,0,0,0,0,170,0,347,348,349,350,351,135,0,0,0,0,0,0,195,48,0,0,0,0,0,0,0,0,132,0,0,1441,0,
0,135,0,0,0,0,0,0,0,0,0,0,0,0,0,0,0,0,153,0,357,0,0,294,0,135,0,0,0,0,0,153,0,368,369,370,371,372,156,1336,0,0,0,0,0,216,69,0,0,0,0,0,0,0,0,132,0,0,0,0,
0,156,0,0,130,0,0,170,0,0,0,0,0,0,0,0,0,0,174,0,0,0,0,0,0,177,0,0,0,0,0,174,0,389,390,391,392,393,177,0,0,0,0,0,0,237,90,0,0,0,0,0,0,0,0,153,0,0,0,0,
1336,135,0,0,135,0,0,153,0,0,0,0,0,0,0,0,0,0,195,196,159,196,197,196,197,198,0,0,0,0,0,195,196,197,196,197,196,197,198,0,0,0,0,0,0,258,111,0,0,0,0,0,0,0,0,132,0,0,1336,0,
0,156,0,961,156,0,0,132,0,0,0,0,0,0,0,0,0,0,216,217,218,217,218,217,218,219,0,0,0,0,0,216,217,218,217,160,217,218,219,0,0,0,0,0,0,0,132,0,0,0,1336,0,0,0,0,153,0,0,0,0,
0,135,961,0,135,0,0,153,0,0,0,0,0,0,0,0,0,0,237,238,239,238,239,2684354721,239,240,0,0,0,0,0,237,238,239,238,239,238,239,240,0,0,0,0,0,0,0,153,0,0,0,0,0,0,0,0,132,0,0,0,0,
0,156,0,0,156,0,0,132,0,0,0,0,0,0,0,0,0,0,258,259,260,259,260,259,260,261,0,0,0,0,0,258,259,260,259,260,259,260,261,413,414,0,0,0,0,0,132,0,0,0,0,0,0,0,0,153,1541,0,0,0,
0,135,0,0,0,131,282,0,961,0,1336,0,0,0,0,0,0,0,0,1541,0,0,0,0,961,0,0,0,0,0,0,0,1541,0,0,0,0,1636,0,434,435,0,0,0,0,0,174,0,0,0,0,0,0,0,170,0,0,0,0,0,
0,156,0,0,0,0,0,0,0,0,0,0,0,0,0,0,0,0,0,0,0,0,0,0,0,0,0,0,0,0,0,0,0,0,0,378,379,0,0,0,0,0,0,0,0,0,195,48,0,0,0,0,0,170,0,0,0,0,0,0,
0,135,0,1436,0,0,0,0,0,0,0,1536,0,0,0,0,0,0,0,0,0,0,0,0,0,0,0,0,0,0,0,0,0,0,0,0,0,0,0,0,0,0,0,0,0,0,216,238,0,0,0,0,170,0,0,0,0,0,1541,0,
0,0,130,0,0,0,0,0,0,0,0,0,0,0,0,0,0,0,0,0,0,0,0,0,0,0,0,0,0,0,0,0,0,0,0,0,0,0,0,0,0,0,0,0,0,0,237,238,0,0,0,0,153,0,1441,0,0,0,0,0,
0,0,0,130,0,0,0,1436,0,0,0,0,0,0,0,0,0,0,0,0,0,0,0,0,0,0,0,0,0,0,0,0,0,0,0,0,0,0,0,0,0,0,0,0,0,0,258,259,48,0,0,0,174,0,0,0,0,0,0,0,
0,0,0,0,130,0,0,0,0,0,689,0,0,0,0,0,0,0,0,0,0,0,0,0,0,0,0,499,500,501,0,0,0,0,0,0,0,0,0,0,0,0,0,0,0,0,0,216,69,0,0,0,195,157,0,0,0,1636,0,0,
0,0,1336,0,0,130,0,0,0,0,710,0,0,0,0,0,0,0,0,0,0,0,0,0,0,0,0,0,0,0,0,0,0,0,0,0,0,0,0,0,0,0,0,0,0,0,0,237,90,0,0,0,216,178,179,0,0,0,0,0,
2725,2726,0,0,0,135,0,0,0,0,731,732,733,734,735,0,0,830,831,832,833,834,0,0,0,376,0,0,0,0,0,358,0,0,0,0,0,0,0,976,977,978,979,980,981,0,0,258,111,0,0,0,237,2684354721,200,201,0,0,0,0,
2775,2776,2777,0,0,156,0,0,0,378,379,0,1541,0,0,0,356,851,852,853,854,855,0,0,0,0,0,0,0,0,0,0,0,0,0,0,0,0,0,0,0,0,0,0,0,0,0,0,132,0,0,0,258,220,221,222,223,0,0,0,
2825,2826,2827,2828,0,135,0,0,0,0,0,0,0,0,0,0,0,872,873,874,875,876,0,0,0,0,0,0,0,0,0,0,0,0,0,0,0,0,0,0,0,0,0,0,0,0,0,0,152,0,0,0,0,0,0,0,0,0,0,0,
2875,2876,2877,2878,0,156,0,0,0,1536,0,0,0,0,892,0,0,893,894,895,896,897,393,0,294,0,0,0,0,0,0,0,0,0,0,0,0,0,961,0,0,413,414,0,0,0,0,153,0,0,0,0,0,0,0,0,0,0,0,0,
2925,2926,2927,2928,0,135,0,0,0,0,0,0,0,0,0,0,0,0,0,0,0,1541,0,0,0,0,0,0,0,0,0,0,0,0,0,0,0,0,0,961,0,434,435,0,0,0,0,152,132,0,37,37,131,0,0,0,0,0,0,0,
2975,2976,2977,2978,0,156,0,0,0,0,0,0,0,0,0,0,0,0,0,0,0,0,0,0,0,0,0,0,0,0,0,0,0,845,846,847,848,849,0,0,0,0,0,0,0,152,37,0,132,37,37,0,0,0,149,0,0,0,0,0,
3025,3026,0,0,0,135,0,0,0,0,1441,0,0,0,0,0,0,0,0,0,0,0,0,0,0,0,0,0,0,0,0,0,357,866,867,868,869,870,0,0,0,0,0,0,37,37,0,0,174,0,0,0,0,0,0,0,0,0,130,0,
0,0,0,0,0,156,0,0,0,0,0,0,0,0,0,0,0,0,0,0,0,0,0,0,0,0,0,0,0,0,0,0,0,887,888,889,890,891,0,0,1541,0,0,37,1541,1636,0,0,195,48,0,0,1636,0,0,0,0,0,0,130,
0,0,0,0,0,135,0,0,0,0,37,0,0,135,0,0,0,0,0,0,0,0,0,0,0,0,0,0,0,0,0,0,0,0,0,0,0,0,0,0,0,0,132,0,0,0,0,0,216,0,0,0,0,0,0,0,0,0,1536,0,
0,0,0,0,0,135,0,0,0,132,0,0,0,156,0,0,0,0,0,0,0,0,0,0,0,0,0,0,0,0,0,0,0,0,0,0,0,0,376,0,0,0,153,0,0,0,0,0,237,0,0,0,0,1441,0,0,0,0,0,0,
0,0,0,0,0,156,0,0,0,153,0,0,0,0,130,0,0,976,977,978,979,980,981,0,0,0,0,0,0,0,0,0,0,0,0,0,0,0,0,0,0,0,174,0,0,0,1536,0,258,0,0,0,0,0,0,0,0,0,0,0,
0,0,0,0,0,135,1441,0,0,132,0,0,0,0,135,0,0,0,0,0,0,356,0,0,37,0,0,0,0,0,0,0,0,0,0,0,0,0,0,1336,0,0,195,196,197,48,0,0,0,174,0,0,0,0,0,0,0,0,0,0,
0,0,0,0,0,156,0,0,0,152,0,0,0,0,156,0,0,0,0,0,1636,0,0,0,0,0,0,0,0,0,0,0,0,0,0,0,0,0,0,0,0,0,216,217,218,174,0,0,0,195,1536,0,0,0,1541,0,0,0,1636,0,
0,0,0,44,44,135,1637,1638,132,44,1336,44,44,44,149,171,44,1636,1436,44,44,44,44,44,44,44,44,44,44,44,44,44,44,44,1541,44,44,44,1436,44,44,44,237,238,239,195,69,44,0,216,44,44,44,44,44,0,0,0,0,0
</data>
 </layer>
 <layer id="11" name="Buildings2" width="60" height="60">
  <data encoding="csv">
0,0,0,0,0,0,0,0,0,0,0,0,0,0,0,0,0,0,0,0,0,0,0,0,0,0,0,0,0,0,0,0,0,0,0,0,0,0,0,0,0,0,0,0,0,0,0,0,0,0,0,0,0,0,0,0,0,0,0,0,
0,0,0,0,0,0,0,0,0,0,0,0,0,0,0,0,0,0,0,0,0,0,0,0,0,0,0,0,0,0,0,0,0,0,0,0,0,0,0,0,0,0,0,0,0,0,0,0,0,0,0,0,0,0,0,0,0,0,0,0,
0,0,0,0,0,0,0,0,0,0,0,0,0,0,0,0,0,0,0,0,0,0,0,0,0,0,0,0,0,0,0,0,0,0,0,0,0,0,0,0,0,0,0,0,0,0,0,0,0,0,0,0,0,1685,1686,0,0,0,0,0,
0,0,0,0,0,0,0,0,0,0,0,0,0,0,0,0,0,0,0,0,1683,1684,0,0,0,0,0,0,0,0,0,0,0,0,0,0,0,0,1687,1688,0,0,0,0,0,0,0,0,0,0,0,0,0,1735,1736,0,0,0,0,0,
0,0,0,0,0,0,0,0,0,0,0,0,0,0,0,0,0,0,0,0,1733,1734,0,0,0,0,0,0,0,0,0,0,0,0,0,0,0,0,1737,1738,0,0,0,0,0,0,0,0,0,0,0,0,0,1785,1786,0,0,0,0,0,
0,0,0,0,0,0,0,0,0,0,0,0,0,0,0,0,0,0,0,1782,1783,1784,0,0,0,0,0,0,0,0,0,0,0,0,0,0,0,0,0,0,0,0,0,0,0,0,0,0,0,0,0,0,0,0,0,0,0,0,0,0,
0,0,0,0,0,0,0,0,0,0,0,0,0,0,0,0,0,0,0,1832,1833,1834,0,0,0,0,0,0,0,0,0,0,0,0,0,0,0,0,0,0,0,0,0,0,0,0,0,0,0,0,0,0,0,0,0,0,0,0,0,0,
0,0,0,0,0,0,0,0,0,0,0,0,0,0,0,0,0,0,0,0,0,0,0,0,0,0,0,0,0,0,0,0,0,0,0,0,0,0,0,0,0,0,0,0,0,0,0,0,0,0,0,0,0,0,0,0,0,0,0,0,
0,0,0,0,0,0,0,0,0,0,0,0,0,0,0,0,0,0,0,0,0,0,0,0,0,0,0,0,0,0,0,0,0,0,0,0,0,0,0,0,0,0,0,0,0,0,0,0,0,0,0,0,0,0,0,0,0,0,0,0,
0,0,0,0,0,0,0,0,0,0,0,0,0,0,0,0,0,0,0,0,0,0,0,0,0,0,0,0,0,0,0,0,0,0,0,0,0,0,0,0,0,0,0,0,0,0,0,0,0,0,0,0,0,0,0,0,0,0,0,0,
0,0,0,0,0,0,0,0,0,0,0,0,0,0,0,0,0,0,0,0,0,0,0,0,0,0,0,0,0,0,0,0,0,0,0,0,0,0,0,0,0,0,0,0,0,0,0,0,0,0,0,0,0,0,0,0,0,0,0,0,
0,0,0,0,0,0,0,0,0,0,0,0,0,0,0,0,0,0,0,0,0,0,0,0,0,0,0,0,0,0,0,0,0,0,0,0,0,0,0,0,0,0,0,0,0,0,0,0,0,0,0,0,0,0,0,0,0,0,0,0,
0,0,0,0,0,0,0,0,0,0,0,0,0,0,0,0,0,0,0,0,0,0,0,0,0,0,0,0,0,0,0,0,0,0,0,0,0,0,0,0,0,0,0,0,0,0,0,0,0,0,0,0,0,0,0,0,0,0,0,0,
0,0,0,0,0,0,0,0,0,0,0,0,0,0,0,0,0,0,0,0,0,0,0,0,0,0,0,0,0,0,0,0,0,0,0,0,0,0,0,0,0,0,0,0,0,0,0,0,0,0,0,0,0,0,0,0,0,0,0,0,
0,0,0,0,0,0,0,0,0,0,0,0,0,0,0,0,0,0,1537,1538,0,0,0,0,0,0,0,0,0,0,0,0,0,0,0,0,0,0,0,0,0,0,0,0,0,0,0,0,0,0,0,0,0,0,0,0,0,0,0,0,
0,0,0,0,0,0,0,0,0,0,0,0,0,0,0,0,0,0,0,0,0,0,0,0,0,0,0,0,0,0,0,0,0,0,0,0,0,0,0,0,0,0,0,0,0,0,0,0,0,0,0,0,0,0,0,0,0,0,0,0,
0,0,0,0,0,0,0,0,0,0,0,0,0,0,0,0,0,0,0,0,0,0,0,0,0,0,0,0,0,0,0,0,0,1537,1538,0,0,0,0,0,0,0,0,0,0,0,0,0,0,0,0,0,0,0,0,0,0,0,0,0,
0,0,0,0,0,0,0,0,0,0,0,0,0,0,0,0,0,0,0,0,0,0,0,0,0,0,0,0,0,0,0,0,0,0,0,0,0,0,0,0,0,0,0,0,0,0,0,0,0,0,0,0,0,0,0,0,0,0,0,0,
0,0,0,0,0,0,0,0,0,0,0,0,0,0,0,0,0,0,0,0,0,0,0,0,0,0,0,0,0,0,0,0,0,0,0,0,0,0,0,0,0,0,0,0,0,0,0,0,0,0,0,0,0,0,0,0,0,0,0,0,
0,0,0,0,0,0,0,0,0,0,0,0,0,0,0,0,0,0,0,0,0,0,0,0,0,0,0,0,0,0,0,0,0,0,0,0,0,0,0,0,0,0,0,0,0,0,0,0,0,0,0,0,0,0,0,0,0,0,0,0,
0,0,0,0,0,0,0,0,0,0,0,0,0,0,0,0,0,0,0,0,0,0,0,0,0,0,0,0,0,0,0,0,0,0,0,0,0,0,0,0,0,0,0,0,0,0,0,0,0,0,0,0,0,0,0,0,0,0,0,0,
0,0,0,0,0,0,0,0,0,0,0,0,0,0,0,0,0,0,0,0,0,0,0,0,0,0,0,0,0,0,0,0,0,0,0,0,0,0,0,0,0,0,0,0,0,0,0,0,0,0,0,0,0,0,0,0,0,0,0,0,
0,0,0,0,0,0,0,0,0,0,0,0,0,0,0,0,0,0,0,0,0,0,0,0,0,0,0,0,0,0,0,0,0,0,0,0,0,0,0,0,0,0,0,0,0,0,0,0,0,0,0,0,0,0,0,0,0,0,0,0,
0,0,0,0,0,0,0,0,0,0,0,0,0,0,0,0,0,0,0,0,0,0,0,0,0,0,0,0,0,0,0,0,0,0,0,0,0,0,0,0,0,0,0,0,0,0,0,0,0,0,0,0,0,0,0,0,0,0,0,0,
0,0,0,0,0,0,0,0,0,0,0,0,0,0,0,0,0,0,0,0,0,0,0,0,0,0,0,0,0,0,0,0,0,0,0,0,0,0,0,0,0,0,0,0,0,0,0,0,0,0,0,0,0,0,0,0,0,0,0,0,
0,0,0,0,0,0,0,0,0,0,0,0,0,0,0,0,0,0,0,0,0,0,0,0,0,0,0,0,0,0,0,0,0,0,0,0,0,0,0,0,0,0,0,0,0,0,0,0,0,0,0,0,0,0,0,0,0,0,0,0,
0,0,1685,1686,0,0,0,0,0,0,0,0,0,0,0,0,0,0,0,0,0,0,0,0,0,0,0,0,0,0,0,0,0,0,0,0,0,0,0,0,0,0,0,0,0,0,0,0,0,0,0,0,0,0,0,0,0,0,0,0,
0,0,1735,1736,0,0,0,0,0,0,0,0,0,0,0,0,0,0,0,0,0,0,0,0,0,0,0,0,0,0,0,0,0,0,0,0,0,0,0,0,0,0,0,0,0,0,0,0,0,0,0,0,0,0,0,0,0,0,0,0,
0,0,1785,1786,0,0,0,0,0,0,0,0,0,0,0,0,0,0,0,0,0,0,0,0,0,0,0,0,0,0,0,0,0,0,0,0,0,0,0,0,0,0,0,0,0,0,0,0,0,0,0,0,0,0,0,0,0,0,0,0,
0,0,0,0,0,1537,1538,0,0,0,0,0,0,0,0,0,0,0,0,0,0,0,0,0,0,0,0,0,0,0,0,0,0,0,0,0,0,0,0,0,0,0,0,0,0,0,0,0,0,0,0,0,0,0,0,0,0,0,0,0,
0,0,0,0,0,0,0,0,0,0,0,0,0,0,0,0,0,0,0,0,0,0,0,0,0,0,0,0,0,0,0,0,0,0,0,0,0,0,0,0,0,0,0,0,0,0,0,0,0,0,0,0,0,0,0,0,0,0,0,0,
0,0,0,0,0,0,0,0,0,0,0,0,0,0,0,0,0,0,0,0,0,0,0,0,0,0,0,0,0,0,0,0,0,0,0,0,0,0,0,0,0,0,0,0,0,0,0,0,0,0,0,0,0,0,0,0,0,0,0,0,
0,0,0,0,0,0,0,0,0,0,0,0,0,0,0,0,0,0,0,0,0,0,0,0,0,0,0,0,0,0,0,0,0,0,0,0,0,0,0,0,0,0,0,0,0,0,0,0,0,0,0,0,0,0,0,0,0,0,0,0,
0,0,0,0,0,0,0,0,0,0,0,0,0,0,0,0,0,0,0,0,0,0,0,0,0,0,0,0,0,0,0,0,0,0,0,0,0,0,0,0,0,0,0,0,0,0,0,0,0,0,0,0,0,0,0,0,0,0,0,0,
0,0,0,0,0,0,0,0,0,0,0,0,0,0,0,0,0,0,0,0,0,0,0,0,0,0,0,0,0,0,0,0,0,0,0,0,0,0,0,0,0,0,0,0,0,0,0,0,0,0,0,0,0,0,0,0,0,0,0,0,
0,0,0,0,0,0,0,0,0,0,0,0,0,0,0,0,0,0,0,0,0,0,0,0,0,0,0,0,0,0,0,0,0,0,1683,1684,0,0,0,0,0,0,0,0,0,0,0,0,0,0,0,0,0,0,0,0,0,0,0,0,
0,0,0,0,0,0,0,0,0,0,0,0,0,0,0,0,0,0,0,0,0,0,0,0,0,0,0,0,0,0,0,0,0,0,1733,1734,0,0,0,0,0,0,0,0,0,0,0,0,0,0,0,0,0,0,0,0,0,0,0,0,
0,0,0,0,0,0,0,0,0,0,0,0,0,0,0,0,0,0,0,0,0,0,0,0,0,0,0,0,0,0,0,0,0,1782,1783,1784,0,0,0,0,0,0,0,0,0,0,0,0,0,0,0,0,0,0,0,0,0,0,0,0,
0,0,0,0,0,0,0,0,0,0,0,0,0,0,0,0,0,0,0,0,0,0,0,0,0,0,0,0,0,0,0,0,0,1832,1833,1834,0,0,0,0,0,0,0,0,0,0,0,0,0,0,0,0,0,0,0,0,0,0,0,0,
0,0,0,0,0,0,0,0,0,0,0,0,0,0,0,0,0,0,0,0,0,0,0,0,0,0,0,0,0,0,0,0,0,0,0,0,0,0,0,0,0,0,0,0,0,0,0,0,0,0,0,0,0,0,0,0,0,0,0,0,
0,0,0,0,0,0,0,0,0,0,0,0,0,0,0,0,0,0,0,0,0,0,0,0,0,0,0,0,0,0,0,0,0,0,0,0,0,0,0,0,0,0,0,0,0,0,0,0,0,0,0,0,0,0,0,0,0,0,0,0,
0,0,0,0,0,0,0,0,0,0,0,0,0,0,0,0,0,0,0,0,0,0,0,0,0,0,0,0,0,0,0,0,0,0,0,0,0,0,0,0,0,0,0,0,0,0,0,0,0,0,0,0,0,0,0,0,0,0,0,0,
0,0,0,0,0,0,0,0,0,0,0,0,0,0,0,0,0,0,0,0,0,0,0,0,0,0,0,0,0,0,0,0,0,0,0,0,0,0,0,0,0,0,0,0,0,0,0,0,0,0,0,0,0,0,0,0,0,0,0,0,
0,0,0,0,0,0,0,0,0,0,0,0,0,0,0,0,0,0,0,0,0,0,0,0,0,0,0,0,0,0,0,0,0,0,0,0,0,0,0,0,0,0,0,0,0,0,0,0,0,0,0,0,0,0,0,0,0,0,0,0,
0,0,0,0,0,0,0,0,0,0,0,0,0,0,0,0,0,0,0,0,0,0,0,0,0,0,0,0,0,0,0,0,0,0,0,0,0,0,0,0,0,0,0,0,0,0,0,0,0,0,0,0,0,0,0,0,0,0,0,0,
0,0,0,0,0,0,0,0,0,0,0,0,0,0,0,0,0,0,0,0,0,0,0,0,0,0,0,0,0,0,0,0,0,0,0,0,0,0,0,0,0,0,0,0,0,0,0,0,0,0,0,0,0,0,0,0,0,0,0,0,
0,0,0,0,0,0,0,0,0,0,0,0,0,0,0,0,0,0,0,0,0,0,0,0,0,0,0,0,0,0,0,0,0,0,0,0,0,0,0,0,0,0,0,0,0,0,0,0,0,0,0,0,0,0,0,0,0,0,0,0,
0,0,0,0,0,0,0,0,0,0,0,0,0,0,0,0,0,0,0,0,0,0,0,0,0,0,0,0,0,0,0,0,0,0,0,0,0,0,0,0,0,0,0,0,0,0,0,0,0,0,0,0,0,0,0,0,0,0,0,0,
0,0,0,0,0,0,0,0,0,0,0,0,0,0,0,0,0,0,0,0,0,0,0,0,0,0,0,0,0,0,0,0,0,0,0,0,0,0,0,0,0,0,0,0,0,0,0,0,0,0,0,0,0,0,0,0,0,0,0,0,
0,0,0,0,0,0,0,0,0,0,0,0,0,0,0,0,0,0,0,0,0,0,0,0,0,0,0,0,0,0,0,0,0,0,0,0,0,0,0,0,0,0,0,0,0,0,0,0,0,0,0,0,0,0,0,0,0,0,0,0,
0,0,0,0,0,0,0,0,0,0,0,0,0,0,0,0,0,0,0,0,0,0,0,0,0,0,0,0,0,0,0,0,0,0,0,0,0,0,0,0,0,0,0,0,0,0,0,0,0,0,0,0,0,0,0,0,0,0,0,0,
0,0,0,0,0,0,0,1537,1538,0,0,0,0,0,0,0,0,0,0,0,0,0,0,0,0,0,0,0,0,0,0,0,0,0,0,0,0,0,0,0,0,0,0,0,0,0,0,0,0,0,0,0,0,0,0,0,0,0,0,0,
0,0,0,0,0,0,0,0,0,0,0,0,0,0,0,0,0,0,0,0,0,0,0,0,0,0,0,0,0,0,0,0,0,0,0,0,0,0,0,0,0,0,0,0,0,0,0,0,0,0,0,0,0,0,0,0,0,0,0,0,
0,0,0,0,0,0,0,0,0,0,0,0,0,0,0,0,0,0,0,0,0,0,0,0,0,0,0,0,0,0,0,0,0,0,0,0,0,0,0,0,0,0,0,0,0,0,0,0,0,0,0,0,0,0,0,0,0,0,0,0,
0,0,0,0,0,0,0,0,0,0,0,0,0,0,0,0,0,0,0,0,0,0,0,0,0,0,0,0,0,0,0,0,0,0,0,0,0,0,0,0,0,0,0,0,0,0,0,0,0,0,0,0,0,0,0,0,0,0,0,0,
0,0,0,0,0,0,0,0,0,0,0,0,0,0,0,0,0,0,0,0,0,0,0,0,0,0,0,0,0,0,0,0,0,0,0,0,0,0,0,0,0,0,0,0,0,0,0,0,0,0,0,0,0,0,0,0,0,0,0,0,
0,0,0,0,0,0,0,0,0,0,0,0,0,0,0,0,0,0,0,0,0,0,0,0,0,0,0,0,0,0,0,0,0,0,0,0,0,0,0,0,0,0,0,0,0,0,0,0,0,0,0,0,0,0,0,0,0,0,0,0,
0,0,0,0,0,0,0,0,0,0,0,0,0,0,0,0,0,0,0,0,0,0,0,0,0,0,0,0,0,0,0,0,0,0,0,0,0,0,0,0,0,0,0,0,0,0,0,0,0,0,0,0,0,0,0,0,0,0,0,0,
0,0,0,0,0,0,0,0,0,0,0,0,0,0,0,0,0,0,0,0,0,0,0,0,0,0,0,0,0,0,0,0,0,0,0,0,0,0,0,0,0,0,0,0,0,0,0,0,0,0,0,0,0,0,0,0,0,0,0,0,
0,0,0,0,0,0,0,0,0,0,0,0,0,0,0,0,0,0,0,0,0,0,0,0,0,0,0,0,0,0,0,0,0,0,0,0,0,0,0,0,0,0,0,0,0,0,0,0,0,0,0,0,0,0,0,0,0,0,0,0
</data>
 </layer>
 <layer id="5" name="Paths" width="60" height="60">
  <data encoding="csv">
0,0,0,0,0,0,0,0,0,0,0,0,0,0,0,0,0,0,0,0,0,0,0,0,0,0,0,0,0,0,0,0,0,0,0,0,0,0,0,0,0,0,0,0,0,0,0,0,0,0,0,0,0,0,0,0,0,0,0,0,
0,0,0,0,0,0,0,0,0,0,0,0,0,0,0,0,0,0,0,0,0,0,0,0,0,0,0,0,0,0,0,0,0,0,0,0,0,0,0,0,0,0,0,0,0,0,0,0,0,0,0,0,0,0,0,0,0,0,0,0,
0,0,0,0,0,0,0,0,0,0,0,0,0,0,0,0,0,0,0,0,0,0,0,0,0,0,0,0,0,0,0,0,0,0,0,0,0,0,0,0,0,0,0,0,0,0,0,0,0,0,0,0,0,0,0,0,0,0,0,0,
0,0,0,0,0,0,0,0,0,0,0,0,0,0,0,0,0,0,0,0,0,0,0,0,0,0,0,0,0,0,0,0,0,0,0,0,0,0,0,0,0,0,0,0,0,0,0,0,0,0,0,0,0,0,0,0,0,0,0,0,
0,0,0,0,0,0,0,0,0,0,0,0,0,0,0,0,0,0,0,0,0,0,0,0,0,0,0,0,0,0,0,0,0,0,0,0,0,0,0,0,0,0,0,0,0,0,0,0,0,0,0,0,0,0,0,0,0,0,0,0,
0,0,0,0,0,0,0,0,0,0,0,0,0,0,0,0,0,0,0,0,0,0,0,0,0,0,0,0,0,0,0,0,0,0,0,0,0,0,0,0,0,0,0,0,0,0,0,0,0,0,0,0,0,0,0,0,0,0,0,0,
0,0,0,0,0,0,0,0,0,0,0,0,0,0,0,0,0,0,0,0,0,0,0,0,0,0,0,0,0,0,0,0,0,0,0,0,0,0,0,0,0,0,0,0,0,0,0,0,0,0,0,0,0,0,0,0,0,0,0,0,
0,0,0,0,0,0,0,0,0,0,0,0,0,0,0,0,0,0,0,0,0,0,0,0,0,0,0,0,0,0,0,0,0,0,0,0,0,0,0,0,0,0,0,0,0,0,0,0,0,0,0,0,0,0,0,0,0,0,0,0,
0,0,0,0,0,0,0,0,0,0,0,0,0,0,0,0,0,0,0,0,0,0,0,0,0,0,0,0,0,0,0,0,0,0,0,0,0,0,0,0,0,0,0,0,0,0,0,0,0,0,0,0,0,0,0,0,0,0,0,0,
0,0,0,0,0,0,0,0,0,0,0,0,0,0,0,0,0,0,0,0,0,0,0,0,0,0,0,0,0,0,0,0,0,0,0,0,0,0,0,0,0,0,0,0,0,0,0,0,0,0,0,0,0,0,0,0,0,0,0,0,
0,0,0,0,0,0,0,0,0,0,0,0,0,0,0,0,0,0,0,0,0,0,0,0,0,0,0,0,0,0,0,0,0,0,0,0,0,0,0,0,0,0,0,0,0,0,0,0,0,0,0,0,0,0,0,0,0,0,0,0,
0,0,0,0,0,0,0,0,0,0,0,0,0,0,0,0,0,0,0,0,0,0,0,0,0,0,0,0,0,0,0,0,0,0,0,0,0,0,0,0,0,0,0,0,0,0,0,0,0,0,0,0,0,0,0,0,0,0,0,0,
0,0,0,0,0,0,0,0,0,0,0,0,0,0,0,0,0,0,0,0,0,0,0,0,0,0,0,0,0,0,0,0,0,0,0,0,0,0,0,0,0,0,0,0,0,0,0,0,0,0,0,0,0,0,0,0,0,0,0,0,
0,0,0,0,0,0,0,0,0,0,0,0,0,0,0,0,0,0,0,0,0,0,0,0,0,0,0,0,0,0,0,0,0,0,0,0,0,0,0,0,0,0,0,0,0,0,0,0,0,0,0,0,0,0,0,0,0,0,0,0,
0,0,0,0,0,0,0,0,0,0,0,0,0,0,0,0,0,0,0,0,0,0,0,0,0,0,0,0,0,0,0,0,0,0,0,0,0,0,0,0,0,0,0,0,0,0,0,0,0,0,0,0,0,0,0,0,0,0,0,0,
0,0,0,0,0,0,0,0,0,0,0,0,0,0,0,0,0,0,0,0,0,0,0,0,0,0,0,0,0,0,0,0,0,0,0,0,0,0,0,0,0,0,0,0,0,0,0,0,0,0,0,0,0,0,0,0,0,0,0,0,
0,0,0,0,0,0,0,0,0,0,0,0,0,0,0,0,0,0,0,0,0,0,0,0,0,0,0,0,0,0,0,0,0,0,0,0,0,0,0,0,0,0,0,0,0,0,0,0,0,0,0,0,0,0,0,0,0,0,0,0,
0,0,0,0,0,0,0,0,0,0,0,0,0,0,0,0,0,0,0,0,0,0,0,0,0,0,0,0,0,0,0,0,0,0,0,0,0,0,0,0,0,0,0,0,0,0,0,0,0,0,0,0,0,0,0,0,0,0,0,0,
0,0,0,0,0,0,0,0,0,0,0,0,0,0,0,0,0,0,0,0,0,0,0,0,0,0,0,0,0,0,0,0,0,0,0,0,0,0,0,0,0,0,0,0,0,0,0,0,0,0,0,0,0,0,0,0,0,0,0,0,
0,0,0,0,0,0,0,0,0,0,0,0,0,0,0,0,0,0,0,0,0,0,0,0,0,0,0,0,0,0,0,0,0,0,0,0,0,0,0,0,0,0,0,0,0,0,0,0,0,0,0,0,0,0,0,0,0,0,0,0,
0,0,0,0,0,0,0,0,0,0,0,0,0,0,0,0,0,0,0,0,0,0,0,0,0,0,0,0,0,0,0,0,0,0,0,0,0,0,0,0,0,0,0,0,0,0,0,0,0,0,0,0,0,0,0,0,0,0,0,0,
0,0,0,0,0,0,0,0,0,0,0,0,0,0,0,0,0,0,0,0,0,0,0,0,0,0,0,0,0,0,0,0,0,0,0,0,0,0,0,0,0,0,0,0,0,0,0,0,0,0,0,0,0,0,0,0,0,0,0,0,
0,0,0,0,0,0,0,0,0,0,0,0,0,0,0,0,0,0,0,0,0,0,0,0,0,0,0,0,0,0,0,0,0,0,0,0,0,0,0,0,0,0,0,0,0,0,0,0,0,0,0,0,0,0,0,0,0,0,0,0,
0,0,0,0,0,0,0,0,0,0,0,0,0,0,0,0,0,0,0,0,0,0,0,0,0,0,0,0,0,0,0,0,0,0,0,0,0,0,0,0,0,0,0,0,0,0,0,0,0,0,0,0,0,0,0,0,0,0,0,0,
0,0,0,0,0,0,0,0,0,0,0,0,0,0,0,0,0,0,0,0,0,0,0,0,0,0,0,0,0,0,0,0,0,0,0,0,0,0,0,0,0,0,0,0,0,0,0,0,0,0,0,0,0,0,0,0,0,0,0,0,
0,0,0,0,0,0,0,0,0,0,0,0,0,0,0,0,0,0,0,0,0,0,0,0,0,0,0,0,0,0,0,0,0,0,0,0,0,0,0,0,0,0,0,0,0,0,0,0,0,0,0,0,0,0,0,0,0,0,0,0,
0,0,0,0,0,0,0,0,0,0,0,0,0,0,0,0,0,0,0,0,0,0,0,0,0,0,0,0,0,0,0,0,0,0,0,0,0,0,0,0,0,0,0,0,0,0,0,0,0,0,0,0,0,0,0,0,0,0,0,0,
0,0,0,0,0,0,0,0,0,0,0,0,0,0,0,0,0,0,0,0,0,0,0,0,0,0,0,0,0,0,0,0,0,0,0,0,0,0,0,0,0,0,0,0,0,0,0,0,0,0,0,0,0,0,0,0,0,0,0,0,
0,0,0,0,0,0,0,0,0,0,0,0,0,0,0,0,0,0,0,0,0,0,0,0,0,0,0,0,0,0,0,0,0,0,0,0,0,0,0,0,0,0,0,0,0,0,0,0,0,0,0,0,0,0,0,0,0,0,0,0,
0,0,0,0,0,0,0,0,0,0,0,0,0,0,0,0,0,0,0,0,0,0,0,0,0,0,0,0,0,0,0,0,0,0,0,0,0,0,0,0,0,0,0,0,0,0,0,0,0,0,0,0,0,0,0,0,0,0,0,0,
0,0,0,0,0,0,0,0,0,0,0,0,0,0,0,0,0,0,0,0,0,0,0,0,0,0,0,0,0,0,0,0,0,0,0,0,0,0,0,0,0,0,0,0,0,0,0,0,0,0,0,0,0,0,0,0,0,0,0,0,
0,0,0,0,0,0,0,0,0,0,0,0,0,0,0,0,0,0,0,0,0,0,0,0,0,0,0,0,0,0,0,0,0,0,0,0,0,0,0,0,0,0,0,0,0,0,0,0,0,0,0,0,0,0,0,0,0,0,0,0,
0,0,0,0,0,0,0,0,0,0,0,0,0,0,0,0,0,0,0,0,0,0,0,0,0,0,0,0,0,0,0,0,0,0,0,0,0,0,0,0,0,0,0,0,0,0,0,0,0,0,0,0,0,0,0,0,0,0,0,0,
0,0,0,0,0,0,0,0,0,0,0,0,0,0,0,0,0,0,0,0,0,0,0,0,0,0,0,0,0,0,0,0,0,0,0,0,0,0,0,0,0,0,0,0,0,0,0,0,0,0,0,0,0,0,0,0,0,0,0,0,
0,0,0,0,0,0,0,0,0,0,0,0,0,0,0,0,0,0,0,0,0,0,0,0,0,0,0,0,0,0,0,0,0,0,0,0,0,0,0,0,0,0,0,0,0,0,0,0,0,0,0,0,0,0,0,0,0,0,0,0,
0,0,0,0,0,0,0,0,0,0,0,0,0,0,0,0,0,0,0,0,0,0,0,0,0,0,0,0,0,0,0,0,0,0,0,0,0,0,0,0,0,0,0,0,0,0,0,0,0,0,0,0,0,0,0,0,0,0,0,0,
0,0,0,0,0,0,0,0,0,0,0,0,0,0,0,0,0,0,0,0,0,0,0,0,0,0,0,0,0,0,0,0,0,0,0,0,0,0,0,0,0,0,0,0,0,0,0,0,0,0,0,0,0,0,0,0,0,0,0,0,
0,0,0,0,0,0,0,0,0,0,0,0,0,0,0,0,0,0,0,0,0,0,0,0,0,0,0,0,0,0,0,0,0,0,0,0,0,0,0,0,0,0,0,0,0,0,0,0,0,0,0,0,0,0,0,0,0,0,0,0,
0,0,0,0,0,0,0,0,0,0,0,0,0,0,0,0,0,0,0,0,0,0,0,0,0,0,0,0,0,0,0,0,0,0,0,0,0,0,0,0,0,0,0,0,0,0,0,0,0,0,0,0,0,0,0,0,0,0,0,0,
0,0,0,0,0,0,0,0,0,0,0,0,0,0,0,0,0,0,0,0,0,0,0,0,0,0,0,0,0,0,0,0,0,0,0,0,0,0,0,0,0,0,0,0,0,0,0,0,0,0,0,0,0,0,0,0,0,0,0,0,
0,0,0,0,0,0,0,0,0,0,0,0,0,0,0,0,0,0,0,0,0,0,0,0,0,0,0,0,0,0,0,0,0,0,0,0,0,0,0,0,0,0,0,0,0,0,0,0,0,0,0,0,0,0,0,0,0,0,0,0,
0,0,0,0,0,0,0,0,0,0,0,0,0,0,0,0,0,0,0,0,0,0,0,0,0,0,0,0,0,0,0,0,0,0,0,0,0,0,0,0,0,0,0,0,0,0,0,0,0,0,0,0,0,0,0,0,0,0,0,0,
0,0,0,0,0,0,0,0,0,0,0,0,0,0,0,0,0,0,0,0,0,0,0,0,0,0,0,0,0,0,0,0,0,0,0,0,0,0,0,0,0,0,0,0,0,0,0,0,0,0,0,0,0,0,0,0,0,0,0,0,
0,0,0,0,0,0,0,0,0,0,0,0,0,0,0,0,0,0,0,0,0,0,0,0,0,0,0,0,0,0,0,0,0,0,0,0,0,0,0,0,0,0,0,0,0,0,0,0,0,0,0,0,0,0,0,0,0,0,0,0,
0,0,0,0,0,0,0,0,0,0,0,0,0,0,0,0,0,0,0,0,0,0,0,0,0,0,0,0,0,0,0,0,0,0,0,0,0,0,0,0,0,0,0,0,0,0,0,0,0,0,0,0,0,0,0,0,0,0,0,0,
0,0,0,0,0,0,0,0,0,0,0,0,0,0,0,0,0,0,0,0,0,0,0,0,0,0,0,0,0,0,0,0,0,0,0,0,0,0,0,0,0,0,0,0,0,0,0,0,0,0,0,0,0,0,0,0,0,0,0,0,
0,0,0,0,0,0,0,0,0,0,0,0,0,0,0,0,0,0,0,0,0,0,0,0,0,0,0,0,0,0,0,0,0,0,0,0,0,0,0,0,0,0,0,0,0,0,0,0,0,0,0,0,0,0,0,0,0,0,0,0,
0,0,0,0,0,0,0,0,0,0,0,0,0,0,0,0,0,0,0,0,0,0,0,0,0,0,0,0,0,0,0,0,0,0,0,0,0,0,0,0,0,0,0,0,0,0,0,0,0,0,0,0,0,0,0,0,0,0,0,0,
0,0,0,0,0,0,0,0,0,0,0,0,0,0,0,0,0,0,0,0,0,0,0,0,0,0,0,0,0,0,0,0,0,0,0,0,0,0,0,0,0,0,0,0,0,0,0,0,0,0,0,0,0,0,0,0,0,0,0,0,
0,0,0,0,0,0,0,0,0,0,0,0,0,0,0,0,0,0,0,0,0,0,0,0,0,0,0,0,0,0,0,0,0,0,0,0,0,0,0,0,0,0,0,0,0,0,0,0,0,0,0,0,0,0,0,0,0,0,0,0,
0,0,0,0,0,0,0,0,0,0,0,0,0,0,0,0,0,0,0,0,0,0,0,0,0,0,0,0,0,0,0,0,0,0,0,0,0,0,0,0,0,0,0,0,0,0,0,0,0,0,0,0,0,0,0,0,0,0,0,0,
0,0,0,0,0,0,0,0,0,0,0,0,0,0,0,0,0,0,0,0,0,0,0,0,0,0,0,0,0,0,0,0,0,0,0,0,0,0,0,0,0,0,0,0,0,0,0,0,0,0,0,0,0,0,0,0,0,0,0,0,
0,0,0,0,0,0,0,0,0,0,0,0,0,0,0,0,0,0,0,0,0,0,0,0,0,0,0,0,0,0,0,0,0,0,0,0,0,0,0,0,0,0,0,0,0,0,0,0,0,0,0,0,0,0,0,0,0,0,0,0,
0,0,0,0,0,0,0,0,0,0,0,0,0,0,0,0,0,0,0,0,0,0,0,0,0,0,0,0,0,0,0,0,0,0,0,0,0,0,0,0,0,0,0,0,0,0,0,0,0,0,0,0,0,0,0,0,0,0,0,0,
0,0,0,0,0,0,0,0,0,0,0,0,0,0,0,0,0,0,0,0,0,0,0,0,0,0,0,0,0,0,0,0,0,0,0,0,0,0,0,0,0,0,0,0,0,0,0,0,0,0,0,0,0,0,0,0,0,0,0,0,
0,0,0,0,0,0,0,0,0,0,0,0,0,0,0,0,0,0,0,0,0,0,0,0,0,0,0,0,0,0,0,0,0,0,0,0,0,0,0,0,0,0,0,0,0,0,0,0,0,0,0,0,0,0,0,0,0,0,0,0,
0,0,0,0,0,0,0,0,0,0,0,0,0,0,0,0,0,0,0,0,0,0,0,0,0,0,0,0,0,0,0,0,0,0,0,0,0,0,0,0,0,0,0,0,0,0,0,0,0,0,0,0,0,0,0,0,0,0,0,0,
0,0,0,0,0,0,0,0,0,0,0,0,0,0,0,0,0,0,0,0,0,0,0,0,0,0,0,0,0,0,0,0,0,0,0,0,0,0,0,0,0,0,0,0,0,0,0,0,0,0,0,0,0,0,0,0,0,0,0,0,
0,0,0,0,0,0,0,0,0,0,0,0,0,0,0,0,0,0,0,0,0,0,0,0,0,0,0,0,0,0,0,0,0,0,0,0,0,0,0,0,0,0,0,0,0,0,0,0,0,0,0,0,0,0,0,0,0,0,0,0,
0,0,0,0,0,0,0,0,0,0,0,0,0,0,0,0,0,0,0,0,0,0,0,0,0,0,0,0,0,0,0,0,0,0,0,0,0,0,0,0,0,0,0,0,0,0,0,0,0,0,0,0,0,0,0,0,0,0,0,0
</data>
 </layer>
 <layer id="3" name="Front" width="60" height="60">
  <data encoding="csv">
0,0,0,0,0,38,0,0,0,0,0,1391,0,0,0,0,0,0,0,0,0,3053,3054,3055,3056,3057,3058,0,0,0,0,0,0,0,0,0,0,38,0,41,1386,0,940,0,0,0,0,0,0,40,0,0,0,40,0,0,0,0,0,0,
0,0,41,0,0,0,0,0,0,0,0,0,0,38,0,0,1486,0,0,41,0,3103,3104,3105,3106,3107,3108,0,0,0,0,0,41,0,0,0,0,0,0,0,0,0,0,0,0,0,0,0,0,0,0,0,0,0,0,0,0,0,42,0,
0,0,0,0,0,0,0,0,0,0,0,0,0,0,0,0,0,0,0,0,0,3153,3154,3155,3156,3157,3158,0,0,0,0,0,0,0,0,0,0,0,0,0,0,0,0,0,0,0,0,0,0,0,0,0,0,0,0,0,0,0,0,0,
0,0,0,0,0,0,0,41,1586,0,0,0,0,0,0,0,0,0,0,0,0,0,0,0,0,197,198,0,0,0,0,0,0,0,0,0,0,0,0,0,0,0,0,0,0,0,0,0,0,709,0,0,0,0,0,0,0,0,0,0,
0,0,0,0,0,0,0,0,0,0,0,0,0,0,0,0,0,0,0,0,0,0,0,0,0,218,219,0,0,0,0,0,0,0,0,0,0,0,0,0,0,0,0,0,0,0,0,0,0,730,0,0,0,0,0,0,0,38,0,1586,
0,0,0,0,0,0,0,0,0,0,0,0,0,0,0,0,0,0,0,0,0,0,0,0,0,239,240,0,0,0,0,0,0,0,240,0,0,0,0,0,237,0,0,0,0,0,0,0,0,0,0,0,0,0,0,0,0,0,0,0,
0,0,0,0,0,0,0,0,0,0,0,0,240,0,273,212,213,1437,1438,0,0,0,0,0,0,260,261,0,0,0,0,1486,0,0,0,0,0,0,1486,0,0,0,0,0,0,212,213,0,0,0,0,0,0,0,0,0,0,0,212,213,
0,0,0,0,0,0,0,0,0,198,0,0,0,0,0,273,0,335,0,0,0,0,0,0,0,0,0,0,0,0,0,0,0,0,0,0,0,0,0,0,0,1586,0,0,0,0,0,0,0,836,837,838,839,840,841,0,0,0,0,0,
0,0,0,0,0,0,0,0,0,219,0,0,1486,0,0,0,0,0,0,0,0,0,0,0,0,0,0,0,0,0,0,0,0,0,0,0,38,0,0,0,38,0,0,0,0,0,0,0,856,0,0,0,0,0,0,0,0,0,0,0,
0,0,0,0,0,0,40,0,0,240,0,0,0,0,0,0,0,0,0,0,0,0,0,0,0,0,0,0,0,0,0,0,0,0,0,0,0,0,0,0,0,0,0,0,0,0,0,0,0,0,0,0,0,0,0,0,0,0,0,42,
0,0,0,0,40,0,0,0,0,335,0,0,0,0,0,0,0,0,0,0,0,0,0,0,0,0,0,0,0,0,0,0,0,0,0,0,0,0,0,0,0,0,0,0,0,0,38,0,0,0,0,0,863,864,865,0,0,0,940,0,
0,0,0,0,0,0,0,0,0,0,0,0,0,0,0,0,0,0,0,0,0,0,0,0,0,0,0,0,0,0,0,0,0,0,0,0,0,0,0,0,0,0,0,0,0,0,0,0,0,0,0,0,0,0,0,0,0,153,0,0,
42,0,0,0,0,0,0,0,0,0,0,0,0,0,0,0,0,0,0,0,0,0,0,0,0,0,0,0,0,0,0,0,0,0,0,0,0,0,0,212,213,0,0,0,0,0,0,0,0,0,0,0,0,0,0,0,170,0,0,0,
0,0,0,0,0,0,0,0,0,0,0,0,0,0,0,0,0,0,0,0,0,0,0,39,0,0,0,0,0,0,0,0,0,41,0,0,0,0,0,0,0,0,0,0,0,0,0,0,0,42,0,0,0,0,0,170,0,0,0,40,
0,0,0,0,0,0,0,0,0,0,0,0,0,0,0,0,0,0,0,0,0,0,0,0,0,0,0,0,0,0,0,0,0,0,0,0,1486,41,0,0,0,0,0,0,0,0,0,0,0,0,0,1386,0,0,170,0,0,0,0,0,
0,0,40,0,0,0,0,198,0,0,0,0,0,0,0,0,0,0,0,0,0,0,172,150,151,150,151,150,151,150,151,150,151,150,171,0,0,0,0,0,0,0,0,0,0,0,0,0,0,0,0,0,0,170,0,0,0,0,1486,0,
0,0,0,0,0,0,0,0,0,0,0,0,0,0,0,41,0,0,0,0,172,150,152,1491,0,0,0,0,0,0,0,38,0,0,1486,150,171,0,0,0,0,0,0,0,0,0,40,0,0,0,0,0,0,0,0,0,0,0,0,38,
0,0,0,0,0,0,0,0,0,0,38,0,0,0,0,0,0,0,0,172,152,0,0,0,0,0,0,0,0,0,0,0,0,0,0,0,149,171,0,0,41,0,0,0,0,0,0,0,0,335,0,0,0,0,0,0,0,0,0,0,
0,0,0,0,0,0,135,0,0,0,0,0,0,0,0,0,0,0,0,0,0,1486,0,42,0,0,0,0,0,0,0,0,0,0,0,41,0,156,0,0,0,0,0,0,0,0,0,0,335,356,0,0,0,0,0,0,0,0,0,0,
0,0,0,0,0,0,0,0,1386,0,0,0,0,0,0,0,0,0,172,152,0,0,42,0,0,0,0,0,0,0,0,0,0,0,0,0,0,149,171,0,0,0,0,0,0,0,1386,0,356,0,0,335,0,0,0,0,0,0,0,0,
0,0,0,0,0,0,0,0,0,0,0,0,0,0,0,0,0,0,0,0,0,0,0,0,0,0,0,0,0,0,0,0,0,0,0,0,0,0,0,0,0,0,0,0,0,0,0,0,0,0,0,0,172,0,0,0,0,0,0,0,
0,0,0,0,0,0,0,0,0,0,0,0,0,0,0,0,0,0,0,0,0,0,0,0,0,0,0,0,0,0,0,0,0,0,0,0,1586,0,0,0,41,0,0,0,0,0,0,42,172,150,151,0,0,0,0,0,41,0,0,0,
0,0,0,0,0,0,0,0,0,0,0,0,0,0,0,0,0,1586,0,0,0,0,0,0,0,0,0,0,0,0,0,0,0,0,0,0,0,0,0,171,0,0,0,0,0,0,0,0,0,0,0,0,0,0,0,0,1486,0,0,0,
0,42,0,0,0,0,0,0,0,0,0,0,0,0,0,0,0,0,0,0,0,0,0,0,0,0,0,0,0,0,0,0,0,0,0,0,0,0,0,0,0,0,0,0,0,0,0,0,0,0,0,0,0,0,0,0,0,0,0,0,
0,0,0,0,0,0,1586,0,0,0,0,0,0,0,0,0,0,0,0,0,0,0,588,589,590,591,592,593,594,595,596,597,598,599,600,0,0,0,40,0,0,0,0,0,0,0,0,170,0,0,41,0,0,0,0,0,0,0,0,0,
0,0,0,0,0,0,0,0,0,0,0,0,0,0,0,0,0,0,0,0,39,0,609,610,611,612,613,614,615,616,617,618,619,620,621,0,0,0,0,0,0,0,0,0,0,0,170,0,0,0,0,0,0,0,0,0,0,0,0,0,
0,0,0,0,0,0,0,0,0,0,42,0,0,0,0,0,0,0,0,0,0,0,0,0,0,0,0,0,0,0,0,0,0,0,726,0,0,0,0,0,0,0,0,0,0,0,0,0,0,0,0,0,0,0,0,0,0,0,39,0,
0,0,0,0,0,0,0,0,0,0,0,0,0,0,0,0,0,0,0,212,213,0,0,0,0,0,0,0,0,0,0,0,0,0,0,0,212,213,0,0,0,0,0,0,0,0,0,0,41,0,0,0,0,0,0,0,0,0,0,41,
0,0,1391,1391,1491,0,0,0,0,0,0,0,0,0,0,0,0,0,0,0,0,0,0,0,0,0,0,0,0,0,0,0,0,0,0,0,0,0,0,0,0,0,0,0,0,172,0,0,0,0,0,0,0,0,0,0,0,0,0,0,
42,0,0,0,0,0,0,0,38,0,0,0,0,0,0,0,1486,0,0,0,0,0,0,0,0,0,0,0,0,0,0,0,0,0,0,0,0,0,0,0,0,0,0,0,0,0,0,0,0,0,0,0,0,0,0,0,0,0,0,0,
0,0,0,0,0,0,0,0,0,0,0,0,0,0,0,0,0,0,0,273,41,0,0,212,213,0,0,0,0,0,0,0,212,213,0,0,335,0,0,0,0,0,0,0,0,0,0,0,0,0,0,0,0,0,0,0,0,0,41,0,
0,0,0,0,0,0,0,0,0,0,0,0,0,0,0,0,0,0,0,0,0,0,0,0,0,0,0,0,0,0,0,0,0,0,335,0,356,0,156,0,0,39,0,0,0,0,0,0,0,0,0,0,0,0,0,0,0,41,1391,0,
39,0,0,0,0,0,0,0,0,0,0,0,0,0,0,0,0,0,0,0,0,0,0,273,0,0,0,0,0,0,0,0,0,0,356,0,0,0,0,0,0,0,0,0,0,0,0,0,0,0,0,0,0,0,0,0,0,0,0,0,
38,0,0,0,0,0,0,0,0,0,0,0,0,0,0,0,0,0,0,0,0,0,39,0,0,0,0,0,0,0,0,0,0,0,0,335,0,0,0,0,0,0,0,0,0,0,0,0,0,0,0,0,0,0,0,0,0,0,0,0,
0,0,0,0,0,0,0,0,0,0,0,0,0,0,0,0,0,0,0,0,0,0,0,0,0,0,0,0,0,0,0,0,0,0,0,357,0,0,0,0,0,0,0,0,0,0,0,0,0,0,0,40,0,0,0,0,41,0,0,0,
0,0,0,940,0,0,0,0,0,0,0,39,0,0,0,0,0,0,0,0,0,0,0,0,0,0,0,0,0,0,0,0,0,0,0,0,0,0,0,0,0,0,0,0,0,0,0,0,40,0,0,0,0,0,0,0,0,0,0,0,
0,0,940,0,0,0,0,0,0,0,0,0,0,0,0,0,0,0,0,0,0,0,0,0,0,0,0,0,0,0,0,0,0,0,0,0,0,0,0,0,0,0,0,0,0,0,0,0,0,0,0,0,0,0,0,0,0,0,0,0,
0,0,0,0,0,0,0,0,0,0,0,0,0,0,0,0,0,0,0,0,0,0,0,0,0,0,0,0,0,0,0,0,0,0,0,0,0,0,0,0,0,0,0,0,0,0,0,0,0,0,0,0,0,0,0,0,1491,0,0,0,
0,0,0,0,0,0,0,0,940,0,0,0,0,0,0,0,0,0,0,1491,0,0,0,0,940,0,0,0,0,0,0,0,1491,0,0,0,0,1586,0,0,0,0,0,0,0,0,0,0,0,0,0,41,0,0,0,0,0,0,0,41,
40,0,0,0,0,0,0,0,0,0,0,0,0,0,0,0,0,0,0,0,0,0,0,0,0,0,0,0,0,0,0,0,0,0,0,0,0,0,0,0,0,0,0,0,0,0,0,0,0,0,0,0,0,0,0,0,0,0,0,0,
0,0,0,1386,0,0,0,0,0,0,0,1486,0,0,0,0,0,0,0,0,0,0,0,0,0,0,0,0,0,0,0,0,0,0,0,0,0,0,0,0,0,0,0,0,0,0,0,48,0,0,0,0,0,0,0,0,0,41,1491,0,
0,0,0,0,0,0,0,0,0,0,0,0,0,0,0,0,0,0,0,0,0,0,0,0,0,0,0,0,0,0,0,0,0,0,0,0,0,0,0,0,0,0,0,0,0,0,0,69,0,0,0,0,0,0,1391,0,0,0,0,0,
0,0,0,0,0,0,0,1386,0,0,0,0,0,0,0,0,0,0,0,0,0,0,0,0,0,0,0,0,0,0,0,0,0,0,0,0,0,0,0,0,0,0,0,0,0,0,0,174,0,0,0,0,0,0,0,41,0,0,0,0,
0,0,0,0,0,0,0,0,0,0,668,0,0,0,0,0,0,0,0,0,0,0,0,0,0,0,0,478,479,480,0,0,0,0,0,0,0,0,0,0,0,0,0,0,0,0,0,195,0,0,0,0,0,0,0,0,0,1586,0,0,
0,0,0,0,0,0,0,0,0,0,0,0,0,0,0,0,0,0,0,0,0,0,0,0,0,0,0,0,0,0,0,0,0,0,0,0,0,0,0,0,0,0,0,0,0,0,0,0,0,0,0,0,0,0,0,0,0,0,0,0,
0,42,0,0,0,0,0,41,0,0,0,711,712,713,714,0,0,809,810,811,812,813,0,0,0,355,0,0,0,0,0,337,0,0,0,39,0,0,0,955,956,957,958,959,960,0,0,0,0,0,0,0,0,0,0,0,0,0,38,0,
0,0,0,0,0,0,0,0,0,0,0,0,1491,0,0,0,335,0,0,0,0,0,0,0,0,0,0,0,0,0,0,0,0,0,0,0,38,0,0,0,0,0,0,0,0,0,0,0,0,0,0,0,0,0,0,0,0,0,0,0,
0,0,0,0,0,0,0,0,0,0,0,0,0,0,0,0,0,0,0,0,0,0,0,0,0,0,0,0,0,0,0,0,0,0,0,0,0,0,0,0,0,0,0,0,0,0,0,0,0,0,0,0,0,0,0,0,0,0,0,0,
0,0,0,0,0,0,0,0,0,0,0,0,0,0,871,0,0,0,0,0,0,0,0,0,273,0,0,0,0,0,0,0,0,0,0,0,0,0,940,0,0,0,0,0,0,0,0,172,0,0,0,0,0,0,0,0,0,0,38,0,
0,0,0,0,0,0,0,0,0,39,0,0,0,0,0,0,0,0,0,0,0,1491,0,0,0,0,0,0,0,0,0,0,0,0,0,0,0,0,0,940,0,0,40,0,0,0,0,0,172,151,151,171,0,0,0,0,0,0,0,0,
0,0,0,0,0,0,0,0,0,0,0,0,0,0,0,0,0,0,0,0,0,0,0,0,0,0,0,0,0,0,0,0,0,824,825,826,827,828,0,0,0,0,0,0,0,172,151,0,0,0,0,0,0,150,171,41,0,0,0,0,
0,0,0,0,0,0,0,0,0,0,1391,0,0,0,0,0,0,0,0,0,0,0,0,0,0,0,0,0,0,0,0,0,335,0,0,0,0,0,0,0,0,0,0,0,172,0,0,0,0,0,0,0,0,0,0,150,151,171,0,0,
0,0,0,0,0,0,0,0,0,0,0,40,0,0,0,0,0,0,0,0,0,0,0,0,0,0,0,0,0,0,0,0,0,0,0,0,0,0,0,0,1491,38,0,170,1491,0,0,0,0,0,0,0,1586,0,0,0,0,0,0,0,
0,0,0,0,0,0,0,0,0,0,172,150,151,171,0,0,0,0,0,0,0,0,0,0,0,0,0,0,0,0,0,0,0,0,0,0,0,0,0,0,0,0,170,0,0,40,0,0,0,0,0,0,0,0,0,39,0,0,1486,0,
0,0,0,40,0,0,0,0,0,170,0,0,0,0,0,0,0,0,0,0,0,0,0,0,0,0,0,0,0,0,0,0,0,0,0,0,0,0,355,0,0,0,0,0,0,0,0,0,0,69,0,0,0,1391,0,0,0,0,0,0,
0,0,0,0,0,0,0,0,0,153,0,0,0,0,0,0,0,955,956,957,958,959,960,0,0,0,0,0,0,0,0,0,0,0,0,0,0,0,0,0,0,0,0,41,0,0,1486,0,0,90,0,0,0,0,0,0,0,0,0,0,
0,0,39,0,0,0,1391,0,0,0,0,0,0,0,0,0,0,0,0,0,0,335,0,0,0,0,0,0,0,0,0,0,0,0,0,0,0,42,0,0,0,0,0,0,0,0,0,0,0,111,0,0,0,0,0,0,0,0,0,0,
0,0,0,0,0,0,0,0,0,132,0,0,0,0,0,0,0,0,0,0,1586,0,0,0,38,0,0,0,0,0,0,0,0,0,0,0,0,0,0,0,0,0,0,0,0,0,0,0,0,0,1486,0,0,0,0,0,0,0,1586,42,
0,0,0,0,0,0,1587,1588,172,0,0,40,0,0,0,0,0,0,1386,0,0,0,0,0,0,0,0,0,0,0,0,0,0,0,1491,0,0,0,1386,0,0,0,0,0,0,0,0,0,0,0,0,0,0,0,41,0,0,0,0,0,
0,0,0,0,0,0,0,0,0,0,0,0,0,0,0,0,0,41,0,0,0,0,0,38,0,0,0,0,0,0,0,0,0,41,0,0,0,0,0,0,0,0,0,0,0,0,0,0,0,0,0,0,0,0,0,0,0,0,0,0
</data>
 </layer>
 <layer id="4" name="AlwaysFront" width="60" height="60">
  <data encoding="csv">
0,0,0,0,0,0,0,0,0,0,0,0,0,0,0,0,0,0,0,0,0,0,0,0,0,0,0,0,0,0,0,0,0,0,0,0,0,0,0,0,0,0,0,0,0,0,0,0,0,0,0,0,0,0,0,0,0,0,0,0,
0,0,0,0,0,0,0,0,0,0,0,0,0,0,0,0,0,0,0,0,0,0,0,0,0,0,0,0,0,0,0,0,0,0,0,0,0,0,0,0,0,0,0,0,0,0,0,0,0,0,0,0,0,0,715,0,0,0,0,0,
0,0,0,0,0,0,0,0,0,0,0,0,0,0,0,0,0,0,0,0,0,0,0,0,0,0,0,0,0,0,0,0,0,0,0,0,0,0,0,0,0,0,0,0,0,0,0,0,0,0,0,0,0,0,736,0,0,0,0,0,
0,0,0,0,0,0,0,0,0,0,0,0,0,0,0,0,0,0,0,0,0,0,0,0,0,0,0,0,0,0,0,0,0,0,0,0,0,0,0,0,0,0,0,0,0,0,0,0,751,752,753,754,755,756,757,0,0,0,0,0,
0,0,0,0,0,0,0,0,0,0,0,0,0,0,0,0,0,0,0,0,0,0,0,0,0,0,0,0,0,0,0,0,0,0,0,0,0,0,0,0,0,0,0,0,0,0,0,0,772,773,774,775,776,777,778,0,0,0,0,0,
0,0,0,0,0,0,0,0,0,0,0,0,0,0,0,0,0,0,0,0,0,0,0,0,0,0,0,0,0,0,0,0,0,0,0,0,0,0,0,0,0,0,0,0,0,0,0,0,793,794,795,796,797,798,799,0,0,0,0,0,
0,0,0,0,0,0,0,0,0,0,0,0,0,0,0,0,0,0,0,0,0,0,0,0,0,0,0,0,0,0,0,0,0,0,0,0,0,0,0,0,0,0,0,0,0,0,0,0,814,815,816,817,818,819,820,0,0,0,0,0,
0,0,0,0,0,0,0,0,0,0,0,0,0,0,0,0,0,0,0,0,0,0,0,0,0,0,0,0,0,0,0,0,0,0,0,0,0,0,0,0,0,0,0,0,0,0,0,0,0,0,0,0,0,0,0,0,0,0,0,0,
0,0,0,0,0,0,0,0,0,0,0,0,0,0,0,0,0,0,0,0,0,0,0,0,0,0,0,0,0,0,0,0,0,0,0,0,0,0,0,0,0,0,0,0,0,0,0,0,0,0,0,0,0,0,0,0,0,0,898,0,
0,0,0,0,0,0,0,0,0,0,0,0,0,0,0,0,0,0,0,0,0,0,0,0,0,0,0,0,0,0,0,0,0,0,0,0,0,0,0,0,0,0,0,0,0,0,0,0,0,0,0,0,842,843,844,0,0,0,919,0,
0,0,0,0,0,0,0,0,0,0,0,0,0,0,0,0,0,0,0,0,0,0,0,0,0,0,0,299,300,301,0,0,0,0,0,0,0,0,0,0,0,0,0,0,0,0,0,0,0,0,0,0,0,0,0,0,0,0,0,0,
0,0,0,0,0,0,0,0,0,0,0,0,0,0,0,0,0,0,0,0,0,0,0,0,0,0,0,320,321,322,0,0,0,0,0,0,0,0,0,0,0,0,0,0,0,0,0,0,0,0,0,0,0,0,0,0,0,0,0,0,
0,0,0,0,0,0,0,0,0,0,0,0,0,0,0,0,0,0,0,0,0,0,0,0,0,0,0,341,342,343,0,0,0,0,0,0,0,0,0,0,0,0,0,0,0,0,0,0,0,0,0,0,0,0,0,0,0,0,0,0,
0,0,0,0,0,0,0,0,0,0,0,0,0,0,0,0,0,0,0,0,0,0,0,0,0,0,361,362,363,364,365,0,0,0,0,0,0,0,0,0,0,0,0,0,0,0,0,0,0,0,0,0,0,0,0,0,0,0,0,0,
0,0,0,0,0,0,0,0,0,0,0,0,0,0,0,0,0,0,0,0,0,0,0,0,380,381,382,383,384,385,386,0,0,0,0,0,0,0,0,0,0,0,0,0,0,0,0,0,0,0,0,0,0,0,0,0,0,0,0,0,
0,0,0,0,0,0,0,0,0,0,0,0,0,0,0,0,0,0,0,0,0,0,0,0,401,402,403,404,405,406,407,0,0,0,0,0,0,0,0,0,0,0,0,0,0,0,0,0,0,0,0,0,0,0,0,0,0,0,0,0,
0,0,0,0,0,0,0,0,0,0,0,0,0,0,0,0,0,0,0,0,0,0,0,0,422,423,424,425,426,427,428,0,0,0,0,0,0,0,0,0,0,0,0,0,0,0,0,0,0,0,0,0,0,0,0,0,0,0,0,0,
0,0,0,0,0,0,0,0,0,0,0,0,0,0,0,0,0,0,0,0,0,0,0,0,443,444,445,446,447,448,449,450,451,0,0,0,0,0,0,0,0,0,0,0,0,0,0,0,0,0,0,0,0,0,0,0,0,0,0,0,
0,0,0,0,0,0,0,0,0,0,0,0,0,0,0,0,0,0,0,0,0,461,0,0,0,465,466,467,468,469,470,471,472,473,474,475,0,0,0,0,0,0,0,0,0,0,0,0,0,0,0,0,0,0,0,0,0,0,0,0,
0,0,0,0,0,0,0,0,0,0,0,0,0,0,0,0,0,0,0,0,0,0,0,0,0,486,487,488,489,490,491,492,493,494,495,496,0,0,0,0,0,0,0,0,0,0,0,0,0,0,0,0,0,0,0,0,0,0,0,0,
0,0,0,0,0,0,0,0,0,0,0,0,0,0,0,0,0,0,0,0,0,0,504,505,506,507,508,509,510,511,512,513,514,515,516,517,0,0,0,0,0,0,0,0,0,0,0,0,0,0,0,0,0,0,0,0,0,0,0,0,
0,0,0,0,0,0,0,0,0,0,0,0,0,0,0,0,0,0,0,0,0,0,525,526,527,528,529,530,531,532,533,534,535,536,537,0,0,0,0,0,0,0,0,0,0,0,0,0,0,0,0,0,0,0,0,0,0,0,0,0,
0,0,0,0,0,0,0,0,0,0,0,0,0,0,0,0,0,0,0,0,0,0,546,547,548,549,550,551,552,553,554,555,556,557,558,0,0,0,0,0,0,0,0,0,0,0,0,0,0,0,0,0,0,0,0,0,0,0,0,0,
0,0,0,0,0,0,0,0,0,0,0,0,0,0,0,0,0,0,0,0,0,0,567,568,569,570,571,572,573,574,575,576,577,578,579,0,0,0,0,0,0,0,0,0,0,0,0,0,0,0,0,0,0,0,0,0,0,0,0,0,
0,0,0,0,0,0,0,0,0,0,0,0,0,0,0,0,0,0,0,0,0,0,0,0,0,0,0,0,0,0,0,0,0,0,0,0,0,0,0,0,0,0,0,0,0,0,0,0,0,0,0,0,0,0,0,0,0,0,0,0,
0,0,0,0,0,0,0,0,0,0,0,0,0,0,0,0,0,0,0,0,0,0,0,0,0,0,0,0,0,0,0,0,0,0,0,0,0,0,0,0,0,0,0,0,0,0,0,0,0,0,0,0,0,0,0,0,0,0,0,0,
0,0,0,0,0,0,0,0,0,0,0,0,0,0,0,0,0,0,0,0,0,0,0,0,0,0,0,0,0,0,0,0,0,0,0,0,0,0,0,0,0,0,0,0,0,0,0,0,0,0,0,0,0,0,0,0,0,0,0,0,
0,0,0,0,0,0,0,0,0,0,0,0,0,0,0,0,0,0,0,0,0,0,0,0,0,0,316,0,0,0,316,0,0,0,0,0,0,0,0,0,0,0,0,0,0,0,0,0,0,3150,3151,0,0,0,0,0,0,0,0,0,
0,0,0,0,0,0,0,0,0,0,0,0,0,0,0,0,0,0,0,0,0,0,0,0,0,0,0,0,0,0,0,0,0,0,0,0,0,0,0,0,0,0,0,0,0,0,0,3198,3199,3200,3201,0,0,0,0,0,0,0,0,0,
0,0,0,0,0,0,0,0,0,0,0,0,0,0,0,0,0,0,0,0,0,0,0,0,0,0,0,0,0,0,0,0,0,0,0,0,0,0,0,0,0,0,0,0,0,0,3247,3248,3249,3250,3251,3252,0,0,0,0,0,0,0,0,
0,0,0,0,0,0,0,0,0,0,0,0,0,0,0,0,0,0,0,0,0,0,0,0,0,0,0,0,0,0,0,0,0,0,0,0,0,0,0,0,0,0,0,0,0,0,3297,3298,3299,3300,3301,3302,0,0,0,0,0,0,0,0,
0,0,0,0,0,0,0,0,0,0,0,0,0,0,0,0,0,0,0,0,0,0,0,0,0,0,0,0,0,0,0,0,0,0,0,0,0,0,0,0,0,0,0,0,0,0,3347,3348,3349,3350,3351,0,0,0,0,0,0,0,0,0,
0,0,0,0,0,0,0,0,0,0,0,0,0,0,0,0,0,0,0,0,0,0,0,0,0,0,0,0,0,0,0,0,0,0,0,0,0,0,0,0,0,0,0,0,0,0,0,3398,3399,3400,3401,0,0,0,0,0,0,0,0,0,
0,0,0,898,0,0,0,0,0,0,0,0,0,0,0,0,0,0,0,0,0,0,0,0,0,0,0,0,0,0,0,0,0,0,0,0,0,0,0,0,0,0,0,0,0,0,0,0,0,0,0,0,0,0,0,0,0,0,0,0,
0,0,898,919,0,0,0,0,0,0,0,0,0,0,0,0,0,0,0,0,0,0,0,0,0,0,0,0,0,0,0,0,0,0,0,0,0,0,0,0,0,0,0,0,0,0,0,0,0,0,0,0,0,0,0,0,0,0,0,0,
0,0,919,0,0,0,0,0,0,0,0,0,0,0,0,0,0,0,0,0,0,0,0,0,0,0,0,0,0,0,0,0,0,0,0,0,0,0,0,0,0,0,0,0,0,0,0,0,0,0,0,0,0,0,0,0,0,0,0,0,
0,0,0,0,0,0,0,0,898,0,0,0,0,0,0,0,0,0,0,0,0,0,0,0,898,0,0,0,0,0,0,0,0,0,0,0,0,0,0,0,0,0,0,0,0,0,0,0,0,0,0,0,0,0,0,0,0,0,0,0,
0,0,0,0,0,0,0,0,919,0,0,0,0,0,0,0,0,0,0,0,0,0,0,0,919,0,0,0,0,0,0,0,0,0,0,0,0,0,0,0,0,0,0,0,0,0,0,0,0,0,0,0,0,0,0,0,0,0,0,0,
0,0,0,0,0,0,0,0,0,0,0,0,0,0,0,0,0,0,0,0,0,0,0,0,0,0,0,0,0,0,0,0,0,0,0,0,0,0,0,0,0,0,0,0,0,0,0,0,0,0,0,0,0,0,0,0,0,0,0,0,
0,0,0,0,0,0,0,0,0,0,0,0,0,0,0,0,0,0,0,0,0,0,0,0,0,0,0,0,0,0,0,0,0,0,0,0,0,0,0,0,0,0,0,0,0,0,0,0,0,0,0,0,0,0,0,0,0,0,0,0,
0,0,0,0,0,0,0,0,0,0,0,0,0,0,0,0,0,0,0,0,0,0,0,0,0,0,0,415,416,0,0,0,0,0,0,0,0,0,0,0,0,0,0,0,0,0,0,0,0,0,0,0,0,0,0,0,0,0,0,0,
0,0,0,0,0,0,0,0,0,0,0,0,0,0,0,0,0,0,0,0,0,0,0,0,0,0,0,436,437,438,0,0,0,0,0,0,0,0,0,0,0,0,0,0,0,0,0,0,0,0,0,0,0,0,0,0,0,0,0,0,
0,0,0,0,0,0,0,0,0,0,0,0,0,0,0,0,0,0,0,0,0,0,0,0,0,0,0,457,458,459,0,0,0,0,0,0,0,0,0,0,0,0,0,0,0,0,0,0,0,0,0,0,0,0,0,0,0,0,0,0,
0,0,0,0,0,0,0,0,0,0,0,0,0,0,0,0,0,0,0,0,0,771,0,0,0,314,0,0,0,0,0,0,0,0,0,0,0,0,0,0,0,0,0,0,0,0,0,0,0,0,0,0,0,0,0,0,0,0,0,0,
0,0,0,0,0,0,0,0,0,0,0,0,0,0,0,0,0,788,789,790,791,792,0,0,0,334,0,0,0,0,0,0,0,0,0,0,0,0,0,0,0,0,0,0,0,0,0,0,0,0,0,0,0,0,0,0,0,0,0,0,
0,0,0,0,0,0,0,0,0,0,0,0,0,0,0,0,0,0,0,0,0,0,0,0,0,0,0,0,0,0,0,0,0,0,0,0,0,0,0,0,0,0,0,0,0,0,0,0,0,0,0,0,0,0,0,0,0,0,0,0,
0,0,0,0,0,0,0,0,0,0,0,0,0,0,829,0,0,0,0,0,0,0,0,0,0,0,0,0,0,0,0,0,0,0,0,0,0,0,898,0,0,0,0,0,0,0,0,0,0,0,0,0,0,0,0,0,0,0,0,0,
0,0,0,0,0,0,0,0,0,0,0,0,0,0,850,0,0,0,0,0,0,0,0,0,0,0,0,0,0,0,0,0,0,761,762,763,764,765,919,898,0,0,0,0,0,0,0,0,0,0,0,0,0,0,0,0,0,0,0,0,
0,0,0,0,0,0,0,0,0,0,0,0,0,0,0,0,0,0,0,0,0,0,0,0,0,0,0,0,0,0,0,0,0,782,783,784,785,786,0,919,0,0,0,0,0,0,0,0,0,0,0,0,0,0,0,0,0,0,0,0,
0,0,0,0,0,0,0,0,0,0,0,0,0,0,0,0,0,0,0,0,0,0,0,0,0,0,0,0,0,0,0,0,0,803,804,805,806,807,0,0,0,0,0,0,0,0,0,0,2897,2898,2899,2900,2901,0,0,0,0,0,0,0,
0,0,0,0,0,0,0,0,0,0,0,0,0,0,0,0,0,0,0,0,0,0,0,0,0,0,0,0,0,0,0,0,0,0,0,0,0,0,0,0,0,0,0,0,0,0,0,0,2947,2948,2949,2950,2951,0,0,0,0,0,0,0,
0,0,0,0,0,0,0,0,0,0,0,0,0,0,0,0,0,0,0,0,0,0,0,0,0,0,0,0,0,0,0,0,0,0,0,0,0,0,0,0,0,0,0,0,0,0,0,0,2997,2998,2999,3000,3001,0,0,0,0,0,0,0,
0,0,0,0,0,0,0,0,0,0,0,0,0,0,0,0,0,0,0,0,0,0,0,0,0,0,0,0,0,0,0,0,0,0,0,0,0,0,314,0,0,0,0,0,0,0,0,0,3047,3048,3049,3050,3051,0,0,0,0,0,0,0,
0,0,0,0,0,0,0,0,0,2897,2898,2899,2900,2901,0,0,0,0,0,0,0,0,0,0,0,0,987,0,0,0,0,0,0,0,987,0,0,0,334,0,0,0,0,0,0,0,0,0,3097,3098,3099,3100,3101,0,0,0,0,0,0,0,
0,0,0,0,0,0,0,0,0,2947,2948,2949,2950,2951,0,0,0,0,0,0,0,0,0,0,0,0,0,0,0,0,0,0,0,0,0,0,0,0,0,0,0,0,0,0,0,0,0,0,0,0,0,0,0,0,0,0,0,0,0,0,
0,0,0,0,0,0,0,0,0,2997,2998,2999,3000,3001,0,0,0,0,0,0,0,0,0,0,0,0,0,0,0,0,0,0,0,0,0,0,0,0,0,0,0,0,0,0,0,0,0,0,0,0,0,0,0,0,0,0,0,0,0,0,
0,0,0,0,0,0,0,0,0,3047,3048,3049,3050,3051,0,0,0,0,0,0,0,0,0,0,0,0,0,0,0,0,0,0,0,0,0,0,0,0,0,0,0,0,0,0,0,0,0,0,0,0,0,0,0,0,0,0,0,0,0,0,
0,0,0,0,0,0,0,0,0,3097,3098,3099,3100,3101,0,0,0,0,0,0,0,0,0,0,0,0,0,0,0,0,0,0,0,0,0,0,0,0,0,0,0,0,0,0,0,0,0,0,0,0,0,0,0,0,0,0,0,0,0,0,
0,0,0,0,0,0,0,0,0,0,0,0,0,0,0,0,0,0,0,0,0,0,0,0,0,0,0,0,0,0,0,0,0,0,0,0,0,0,0,0,0,0,0,0,0,0,0,0,0,0,0,0,0,0,0,0,0,0,0,0,
0,0,0,0,0,0,0,0,0,0,0,0,0,0,0,0,0,0,0,0,0,0,0,0,0,0,0,0,0,0,0,0,0,0,0,0,0,0,0,0,0,0,0,0,0,0,0,0,0,0,0,0,0,0,0,0,0,0,0,0
</data>
 </layer>
 <objectgroup id="6" name="Back"/>
 <objectgroup id="7" name="Buildings">
  <object id="155" x="800" y="144" width="16" height="16">
   <properties>
    <property name="Action" value="Door squiddonaut.WhatsLeftofMalhaCP_Sonia"/>
   </properties>
  </object>
 </objectgroup>
 <objectgroup id="12" name="Buildings2"/>
 <objectgroup id="8" name="Front"/>
 <objectgroup id="9" name="AlwaysFront"/>
 <objectgroup id="10" name="Paths"/>
</map>
