<?xml version="1.0" encoding="UTF-8"?>
<map version="1.10" tiledversion="1.10.1" orientation="orthogonal" renderorder="right-down" compressionlevel="0" width="6" height="9" tilewidth="16" tileheight="16" infinite="0" nextlayerid="11" nextobjectid="19">
 <properties>
  <property name="AmbientLight" value="110 110 110"/>
  <property name="Light" value="7 3 6 3 9 6 6 3 4 1 3 4 10 3 4 7 8 4"/>
  <property name="Warp" value="3 10 Beach 49 11"/>
 </properties>
 <tileset firstgid="1" name="path" tilewidth="16" tileheight="16" tilecount="36" columns="4">
  <image source="paths" width="64" height="144"/>
 </tileset>
 <tileset firstgid="37" name="z_MalhaInterior" tilewidth="16" tileheight="16" tilecount="400" columns="20">
  <image source="z_MalhaInterior.png" width="320" height="320"/>
 </tileset>
 <tileset firstgid="437" name="untitled tile sheet" tilewidth="16" tileheight="16" tilecount="2176" columns="32">
  <image source="townInterior.png" width="512" height="1088"/>
 </tileset>
 <layer id="1" name="Back" width="6" height="9">
  <data encoding="csv">
279,279,279,279,279,279,
279,279,279,279,279,279,
0,299,299,299,0,299,
319,319,319,319,319,319,
239,239,239,239,239,239,
239,239,239,239,239,239,
239,339,239,239,239,339,
239,239,239,239,239,239,
239,239,239,239,239,239
</data>
 </layer>
 <layer id="2" name="Buildings" width="6" height="9">
  <data encoding="csv">
0,0,0,0,0,0,
0,0,0,0,0,0,
299,340,341,342,299,359,
0,360,361,362,0,379,
0,0,0,0,0,0,
0,0,0,0,0,0,
0,0,1092,1093,1094,0,
0,0,1124,1125,1126,0,
0,0,0,0,0,0
</data>
 </layer>
 <layer id="3" name="Front" width="6" height="9">
  <data encoding="csv">
0,300,301,0,0,0,
0,320,321,0,0,0,
0,0,0,0,0,0,
0,0,0,0,0,0,
0,0,0,0,0,0,
0,0,1060,1061,1062,0,
0,0,0,0,0,0,
0,0,0,0,0,0,
0,0,0,0,0,0
</data>
 </layer>
 <layer id="4" name="Paths" width="6" height="9">
  <data encoding="csv">
0,0,0,0,0,0,
0,0,0,0,0,0,
0,0,0,0,0,0,
0,0,0,0,0,0,
0,0,0,0,8,0,
0,0,0,0,0,0,
0,0,0,0,0,0,
0,0,0,0,0,0,
0,0,0,0,0,0
</data>
 </layer>
 <layer id="5" name="AlwaysFront" width="6" height="9">
  <data encoding="csv">
0,0,0,0,0,0,
0,0,0,0,0,0,
0,0,0,0,0,0,
0,0,0,0,0,0,
0,0,0,0,0,0,
0,0,0,0,0,0,
0,0,0,0,0,0,
0,0,0,0,0,0,
0,0,0,0,0,0
</data>
 </layer>
 <objectgroup id="6" name="Back"/>
 <objectgroup id="7" name="Buildings"/>
 <objectgroup id="8" name="Front"/>
 <objectgroup id="9" name="Paths"/>
 <objectgroup id="10" name="AlwaysFront"/>
</map>
