<?xml version="1.0" encoding="UTF-8"?>
<map version="1.10" tiledversion="1.10.1" orientation="orthogonal" renderorder="right-down" compressionlevel="0" width="4" height="4" tilewidth="16" tileheight="16" infinite="0" nextlayerid="11" nextobjectid="69">
 <properties>
  <property name="AmbientLight" value="110 110 110"/>
  <property name="Light" value="7 3 6 3 9 6 6 3 4 1 3 4 10 3 4 7 8 4"/>
  <property name="Warp" value="3 10 Beach 49 11"/>
 </properties>
 <tileset firstgid="1" name="path" tilewidth="16" tileheight="16" tilecount="36" columns="4">
  <image source="paths" width="64" height="144"/>
 </tileset>
 <tileset firstgid="37" name="spring_outdoorsTileSheet" tilewidth="16" tileheight="16" tilecount="1975" columns="25">
  <image source="spring_outdoorsTileSheet.png" width="400" height="1264"/>
 </tileset>
 <layer id="1" name="Back" width="4" height="4">
  <data encoding="csv">
0,0,0,0,
0,0,0,0,
0,0,0,0,
0,0,0,0
</data>
 </layer>
 <layer id="2" name="Buildings" width="4" height="4">
  <data encoding="csv">
395,396,396,397,
420,421,421,422,
0,0,0,0,
0,0,0,0
</data>
 </layer>
 <layer id="3" name="Front" width="4" height="4">
  <data encoding="csv">
0,0,0,0,
0,0,0,0,
0,0,0,0,
0,0,0,0
</data>
 </layer>
 <layer id="4" name="Paths" width="4" height="4">
  <data encoding="csv">
0,0,0,0,
0,0,0,0,
0,0,8,0,
0,0,0,0
</data>
 </layer>
 <layer id="5" name="AlwaysFront" width="4" height="4">
  <data encoding="csv">
0,0,0,0,
0,0,0,0,
0,0,0,0,
0,0,0,0
</data>
 </layer>
 <objectgroup id="6" name="Back">
  <object id="29" x="16" y="48" height="16"/>
 </objectgroup>
 <objectgroup id="7" name="Buildings"/>
 <objectgroup id="8" name="Front"/>
 <objectgroup id="9" name="Paths"/>
 <objectgroup id="10" name="AlwaysFront"/>
</map>
