<?xml version="1.0" encoding="UTF-8"?>
<map version="1.10" tiledversion="1.10.1" orientation="orthogonal" renderorder="right-down" compressionlevel="0" width="4" height="4" tilewidth="16" tileheight="16" infinite="0" nextlayerid="11" nextobjectid="68">
 <properties>
  <property name="AmbientLight" value="110 110 110"/>
  <property name="Light" value="7 3 6 3 9 6 6 3 4 1 3 4 10 3 4 7 8 4"/>
  <property name="Warp" value="3 10 Beach 49 11"/>
 </properties>
 <tileset firstgid="1" name="path" tilewidth="16" tileheight="16" tilecount="36" columns="4">
  <image source="paths" width="64" height="144"/>
 </tileset>
 <tileset firstgid="37" name="spring_outdoorsTileSheet" tilewidth="16" tileheight="16" tilecount="1975" columns="25">
  <image source="spring_outdoorsTileSheet.png" width="400" height="1264"/>
 </tileset>
 <tileset firstgid="2012" name="z_RydenPatio" tilewidth="16" tileheight="16" tilecount="28" columns="7">
  <image source="spring_zRydenPatio.png" width="112" height="64"/>
  <tile id="0">
   <animation>
    <frame tileid="0" duration="1000"/>
    <frame tileid="3" duration="1000"/>
   </animation>
  </tile>
  <tile id="1">
   <animation>
    <frame tileid="1" duration="1000"/>
    <frame tileid="4" duration="1000"/>
   </animation>
  </tile>
  <tile id="2">
   <animation>
    <frame tileid="2" duration="1000"/>
    <frame tileid="5" duration="1000"/>
   </animation>
  </tile>
  <tile id="6">
   <properties>
    <property name="Type" value="Wood"/>
   </properties>
  </tile>
  <tile id="7">
   <animation>
    <frame tileid="7" duration="1000"/>
    <frame tileid="10" duration="1000"/>
   </animation>
  </tile>
  <tile id="8">
   <animation>
    <frame tileid="8" duration="1000"/>
    <frame tileid="11" duration="1000"/>
   </animation>
  </tile>
  <tile id="9">
   <animation>
    <frame tileid="9" duration="1000"/>
    <frame tileid="12" duration="1000"/>
   </animation>
  </tile>
  <tile id="13">
   <properties>
    <property name="Type" value="Wood"/>
   </properties>
  </tile>
  <tile id="14">
   <animation>
    <frame tileid="14" duration="1000"/>
    <frame tileid="17" duration="1000"/>
   </animation>
  </tile>
  <tile id="15">
   <animation>
    <frame tileid="15" duration="1000"/>
    <frame tileid="18" duration="1000"/>
   </animation>
  </tile>
  <tile id="16">
   <animation>
    <frame tileid="16" duration="1000"/>
    <frame tileid="19" duration="1000"/>
   </animation>
  </tile>
  <tile id="20">
   <properties>
    <property name="Type" value="Wood"/>
   </properties>
  </tile>
 </tileset>
 <layer id="1" name="Back" width="4" height="4">
  <data encoding="csv">
0,0,0,0,
1280,1281,1281,1282,
1305,1306,1306,1307,
1283,1283,1283,1283
</data>
 </layer>
 <layer id="2" name="Buildings" width="4" height="4">
  <data encoding="csv">
2033,2034,2034,2035,
2012,2018,2013,2014,
2019,2025,2020,2021,
2026,2032,2027,2028
</data>
 </layer>
 <layer id="3" name="Front" width="4" height="4">
  <data encoding="csv">
0,0,0,0,
0,0,0,0,
0,0,0,0,
0,0,0,0
</data>
 </layer>
 <layer id="4" name="Paths" width="4" height="4">
  <data encoding="csv">
0,0,0,0,
0,0,8,0,
0,0,0,0,
0,0,0,0
</data>
 </layer>
 <layer id="5" name="AlwaysFront" width="4" height="4">
  <data encoding="csv">
0,0,0,0,
0,0,0,0,
0,0,0,0,
0,0,0,0
</data>
 </layer>
 <objectgroup id="6" name="Back">
  <object id="29" x="16" y="48" height="16"/>
 </objectgroup>
 <objectgroup id="7" name="Buildings">
  <object id="60" name="TileData" x="32" y="16" width="16" height="16">
   <properties>
    <property name="NPCPassable" value="T"/>
   </properties>
  </object>
  <object id="62" name="TileData" x="16" y="48" width="16" height="16">
   <properties>
    <property name="Passable" value="T"/>
   </properties>
  </object>
  <object id="63" name="TileData" x="16" y="32" width="16" height="16">
   <properties>
    <property name="Passable" value="T"/>
   </properties>
  </object>
  <object id="64" name="TileData" x="16" y="16" width="16" height="16">
   <properties>
    <property name="Passable" value="T"/>
   </properties>
  </object>
 </objectgroup>
 <objectgroup id="8" name="Front"/>
 <objectgroup id="9" name="Paths"/>
 <objectgroup id="10" name="AlwaysFront"/>
</map>
