<?xml version="1.0" encoding="UTF-8"?>
<map version="1.10" tiledversion="1.10.2" orientation="orthogonal" renderorder="right-down" compressionlevel="0" width="6" height="9" tilewidth="16" tileheight="16" infinite="0" nextlayerid="11" nextobjectid="19">
 <properties>
  <property name="AmbientLight" value="110 110 110"/>
  <property name="Light" value="7 3 6 3 9 6 6 3 4 1 3 4 10 3 4 7 8 4"/>
  <property name="Warp" value="3 10 Beach 49 11"/>
 </properties>
 <tileset firstgid="1" name="path" tilewidth="16" tileheight="16" tilecount="36" columns="4">
  <image source="paths" width="64" height="144"/>
 </tileset>
 <tileset firstgid="37" name="z_MalhaInterior" tilewidth="16" tileheight="16" tilecount="900" columns="30">
  <image source="z_MalhaInterior.png" width="480" height="480"/>
 </tileset>
 <tileset firstgid="937" name="untitled tile sheet" tilewidth="16" tileheight="16" tilecount="2176" columns="32">
  <image source="townInterior.ru-RU.png" width="512" height="1088"/>
 </tileset>
 <layer id="1" name="Back" width="6" height="9">
  <data encoding="csv">
673,673,673,673,673,673,
399,399,399,399,399,399,
169,169,169,169,169,169,
107,108,107,108,107,108,
137,138,137,138,137,138,
167,168,167,168,167,168,
137,138,137,138,137,138,
167,168,167,168,167,168,
137,138,137,138,137,138
</data>
 </layer>
 <layer id="2" name="Buildings" width="6" height="9">
  <data encoding="csv">
227,227,227,227,227,227,
169,169,169,169,169,169,
262,262,262,262,262,262,
0,813,814,811,812,259,
0,0,0,0,0,0,
0,0,84,85,86,0,
0,0,114,115,116,0,
0,0,0,225,0,0,
0,0,0,0,815,816
</data>
 </layer>
 <layer id="3" name="Front" width="6" height="9">
  <data encoding="csv">
204,205,204,205,204,205,
0,753,754,0,0,199,
0,783,784,781,782,229,
0,0,0,0,0,0,
0,0,54,55,56,0,
0,0,0,0,0,0,
0,0,0,0,0,0,
0,0,0,0,0,0,
0,0,0,0,0,0
</data>
 </layer>
 <layer id="4" name="Paths" width="6" height="9">
  <data encoding="csv">
9,9,9,9,9,9,
0,0,0,0,0,9,
0,0,0,0,0,0,
0,0,0,0,0,0,
0,0,0,0,0,0,
0,0,0,0,0,0,
0,8,0,0,0,0,
0,0,0,0,0,0,
0,0,0,0,0,0
</data>
 </layer>
 <layer id="5" name="AlwaysFront" width="6" height="9">
  <data encoding="csv">
0,0,0,0,0,0,
0,0,0,0,0,0,
0,0,0,0,0,0,
0,0,0,0,0,0,
0,0,0,0,0,0,
0,0,0,0,0,0,
0,0,0,0,0,0,
0,0,0,0,0,0,
0,0,0,0,0,0
</data>
 </layer>
 <objectgroup id="6" name="Back"/>
 <objectgroup id="7" name="Buildings"/>
 <objectgroup id="8" name="Front"/>
 <objectgroup id="9" name="Paths"/>
 <objectgroup id="10" name="AlwaysFront"/>
</map>
