<?xml version="1.0" encoding="UTF-8"?>
<map version="1.10" tiledversion="1.10.1" orientation="orthogonal" renderorder="right-down" compressionlevel="0" width="3" height="3" tilewidth="16" tileheight="16" infinite="0" nextlayerid="9" nextobjectid="27">
 <properties>
  <property name="DayTiles" value="Front 6 1 256 Front 6 2 288 Front 7 1 256 Front 7 2 288 Front 27 1 256 Front 27 2 288 Front 36 1 225 Front 37 1 225 Front 36 2 469 Front 37 2 469 Front 36 3 501 Front 37 3 501 Front 2 14 256 Front 2 15 288 Buildings 32 2 38 Buildings 32 3 70 Back 32 4 102"/>
  <property name="Doors" value="13 11 1 120 20 11 1 120 14 16 1 120"/>
  <property name="NightTiles" value="Front 6 1 1253 Front 6 2 1285 Front 7 1 1253 Front 7 2 1285 Front 27 1 1253 Front 27 2 1285 Front 36 1 1222 Front 37 1 1222 Front 36 2 1219 Front 37 2 1219 Front 36 3 1251 Front 37 3 1251 Front 2 14 1253 Front 2 15 1285 Buildings 32 2 39 Buildings 32 3 71 Back 32 4 103"/>
  <property name="Warp" value="6 30 Town 43 57"/>
 </properties>
 <tileset firstgid="1" name="1" tilewidth="16" tileheight="16" tilecount="2176" columns="32">
  <image source="townInterior" width="512" height="1088"/>
  <tile id="546">
   <animation>
    <frame tileid="546" duration="150"/>
    <frame tileid="546" duration="150"/>
    <frame tileid="546" duration="150"/>
    <frame tileid="546" duration="150"/>
    <frame tileid="546" duration="150"/>
    <frame tileid="547" duration="150"/>
    <frame tileid="548" duration="150"/>
    <frame tileid="546" duration="150"/>
    <frame tileid="547" duration="150"/>
    <frame tileid="548" duration="150"/>
    <frame tileid="546" duration="150"/>
    <frame tileid="547" duration="150"/>
    <frame tileid="548" duration="150"/>
    <frame tileid="546" duration="150"/>
    <frame tileid="547" duration="150"/>
    <frame tileid="548" duration="150"/>
    <frame tileid="546" duration="150"/>
    <frame tileid="547" duration="150"/>
    <frame tileid="548" duration="150"/>
    <frame tileid="546" duration="150"/>
    <frame tileid="547" duration="150"/>
    <frame tileid="548" duration="150"/>
    <frame tileid="546" duration="150"/>
    <frame tileid="546" duration="150"/>
    <frame tileid="546" duration="150"/>
    <frame tileid="546" duration="150"/>
    <frame tileid="546" duration="150"/>
    <frame tileid="546" duration="150"/>
    <frame tileid="546" duration="150"/>
    <frame tileid="546" duration="150"/>
    <frame tileid="546" duration="150"/>
    <frame tileid="546" duration="150"/>
    <frame tileid="546" duration="150"/>
    <frame tileid="546" duration="150"/>
    <frame tileid="546" duration="150"/>
    <frame tileid="546" duration="150"/>
   </animation>
  </tile>
 </tileset>
 <tileset firstgid="2177" name="Paths" tilewidth="16" tileheight="16" tilecount="36" columns="4">
  <image source="paths" width="64" height="144"/>
 </tileset>
 <layer id="1" name="Back" width="3" height="3">
  <data encoding="csv">
1,1,1,
1,1,1,
1,1,1
</data>
 </layer>
 <layer id="2" name="Buildings" width="3" height="3">
  <data encoding="csv">
0,0,0,
0,0,0,
0,0,0
</data>
 </layer>
 <layer id="3" name="Front" width="3" height="3">
  <data encoding="csv">
0,0,0,
0,0,0,
0,0,0
</data>
 </layer>
 <layer id="4" name="Paths" width="3" height="3">
  <data encoding="csv">
0,0,0,
0,0,0,
0,0,0
</data>
 </layer>
 <objectgroup id="5" name="Back"/>
 <objectgroup id="6" name="Buildings"/>
 <objectgroup id="7" name="Front"/>
 <objectgroup id="8" name="Paths"/>
</map>
