<?xml version="1.0" encoding="UTF-8"?>
<map version="1.10" tiledversion="1.10.2" orientation="orthogonal" renderorder="right-down" compressionlevel="0" width="58" height="34" tilewidth="16" tileheight="16" infinite="0" nextlayerid="9" nextobjectid="31">
 <properties>
  <property name="AmbientLight" value="125 125 125"/>
  <property name="CustomMapOverlay" value="Underwater"/>
  <property name="Doors" value="9 13 1 120 42 21 1 120"/>
  <property name="Light" value="19 29 6 31 29 6 4 3 6 12 3 6"/>
  <property name="Music" value="malha_malharuins"/>
  <property name="Warp" value="24 32 Custom_Malha_Malha 28 30 25 32 Custom_Malha_Malha 28 30 26 32 Custom_Malha_Malha 28 30"/>
 </properties>
 <tileset firstgid="1" name="1" tilewidth="16" tileheight="16" tilecount="2176" columns="32">
  <image source="townInterior" width="512" height="1088"/>
  <tile id="546">
   <animation>
    <frame tileid="546" duration="150"/>
    <frame tileid="546" duration="150"/>
    <frame tileid="546" duration="150"/>
    <frame tileid="546" duration="150"/>
    <frame tileid="546" duration="150"/>
    <frame tileid="547" duration="150"/>
    <frame tileid="548" duration="150"/>
    <frame tileid="546" duration="150"/>
    <frame tileid="547" duration="150"/>
    <frame tileid="548" duration="150"/>
    <frame tileid="546" duration="150"/>
    <frame tileid="547" duration="150"/>
    <frame tileid="548" duration="150"/>
    <frame tileid="546" duration="150"/>
    <frame tileid="547" duration="150"/>
    <frame tileid="548" duration="150"/>
    <frame tileid="546" duration="150"/>
    <frame tileid="547" duration="150"/>
    <frame tileid="548" duration="150"/>
    <frame tileid="546" duration="150"/>
    <frame tileid="547" duration="150"/>
    <frame tileid="548" duration="150"/>
    <frame tileid="546" duration="150"/>
    <frame tileid="546" duration="150"/>
    <frame tileid="546" duration="150"/>
    <frame tileid="546" duration="150"/>
    <frame tileid="546" duration="150"/>
    <frame tileid="546" duration="150"/>
    <frame tileid="546" duration="150"/>
    <frame tileid="546" duration="150"/>
    <frame tileid="546" duration="150"/>
    <frame tileid="546" duration="150"/>
    <frame tileid="546" duration="150"/>
    <frame tileid="546" duration="150"/>
    <frame tileid="546" duration="150"/>
    <frame tileid="546" duration="150"/>
   </animation>
  </tile>
 </tileset>
 <tileset firstgid="2177" name="Paths" tilewidth="16" tileheight="16" tilecount="36" columns="4">
  <image source="paths" width="64" height="144"/>
 </tileset>
 <tileset firstgid="2213" name="z_MalhaInterior" tilewidth="16" tileheight="16" tilecount="900" columns="30">
  <image source="z_MalhaInterior.png" width="480" height="480"/>
 </tileset>
 <layer id="1" name="Back" width="58" height="34">
  <data encoding="csv">
0,0,0,0,0,0,0,0,0,0,0,0,0,0,0,0,0,0,0,0,0,0,0,0,0,0,0,0,0,0,0,0,0,0,0,0,0,0,0,0,0,0,0,0,0,0,0,0,0,0,0,0,0,0,0,0,0,0,
0,0,0,0,0,0,0,0,0,0,0,0,0,0,0,0,0,0,0,0,0,0,0,0,0,0,0,0,0,0,0,0,0,0,0,0,0,2383,2383,2383,2383,2383,2383,2383,2383,0,0,0,0,0,0,0,0,0,0,0,0,0,
0,0,2575,2595,2867,2595,2595,2595,2842,2575,2575,2575,2575,2575,2575,0,0,0,0,0,0,0,0,0,0,0,0,0,0,0,0,0,0,0,0,0,0,2383,2383,2383,2383,2383,2383,2383,2383,0,0,0,0,0,0,0,0,0,0,0,0,0,
0,2595,2595,2595,2595,2595,2595,2595,2872,2595,2595,2595,2595,2595,2595,0,0,0,0,0,0,0,0,0,0,0,0,0,0,0,0,0,0,0,0,0,0,2383,2383,2383,2383,2383,2383,2383,2383,0,0,0,0,0,0,0,0,0,0,0,0,0,
0,2595,2595,0,2547,2628,2628,0,0,0,0,0,0,0,2575,0,0,0,0,0,0,0,0,0,0,0,0,0,0,0,0,0,0,0,0,0,0,2503,2503,2503,2503,2503,2503,2503,2503,0,0,0,0,0,0,0,0,0,0,0,0,0,
0,0,2755,2635,2635,2635,2635,2635,2635,2635,2635,2635,2635,2635,2785,608,0,0,0,0,0,0,0,0,0,0,0,0,0,0,0,0,0,0,0,0,0,2503,2503,2503,2503,2503,2503,2503,2503,0,0,0,0,0,0,0,0,0,0,0,0,0,
0,0,2515,2515,2515,2515,2515,2515,2515,2515,2515,2515,2515,2515,2515,606,0,0,0,0,0,0,0,0,0,0,0,0,0,0,0,0,0,0,0,0,0,2503,2532,2533,2503,2503,2503,2503,2503,0,0,0,0,0,0,0,0,0,0,0,0,0,
0,0,2515,2515,2515,2515,2515,2515,2515,2515,2515,2515,2515,2515,2515,608,0,0,0,0,0,0,0,0,0,0,0,0,0,0,0,0,0,0,0,0,0,2383,2383,2383,2383,2383,2383,2383,2383,0,0,0,0,0,0,0,0,0,0,0,0,0,
0,0,2515,2515,2515,2515,2515,2515,2515,2515,2515,2515,2515,2515,2515,640,0,0,0,0,0,0,0,0,0,0,0,0,0,0,0,0,0,0,0,0,0,2383,2383,2383,2383,2383,2383,2383,2271,0,0,0,0,0,0,0,0,0,0,0,0,0,
0,0,2515,2515,2515,2515,2515,2515,2515,2515,2515,2869,2870,2871,2515,0,0,0,0,0,0,0,0,0,0,0,0,0,0,0,0,0,0,0,0,0,0,2383,2383,2383,2383,2383,2383,2383,2383,0,0,0,0,0,0,0,0,0,0,0,0,0,
0,0,2515,2515,2515,2515,2515,2515,2515,2515,2515,2899,2900,2901,2515,0,0,0,0,0,0,0,0,0,0,0,0,0,0,0,0,0,0,0,0,0,0,2383,2383,2383,2383,2383,2383,2383,2383,0,0,0,0,0,0,0,0,0,0,0,0,0,
0,0,2515,2515,2515,2515,2515,2515,2515,2515,2515,2515,2515,2515,2515,0,0,0,0,0,0,2543,2543,0,0,2563,2563,0,0,0,0,0,0,0,0,0,0,0,0,2383,0,0,0,0,0,0,0,0,0,0,0,0,0,0,0,0,0,0,
0,0,0,0,0,0,0,0,0,2383,0,0,0,0,0,0,0,0,0,0,0,2543,2543,0,2563,2563,2563,0,0,0,0,0,0,0,0,0,0,0,0,2383,0,0,0,0,0,0,0,0,0,0,0,0,0,0,0,0,0,0,
0,0,0,0,0,0,0,0,0,2383,0,0,0,0,0,0,0,0,0,0,0,0,0,0,2563,2563,2563,0,0,0,0,0,0,0,0,0,0,0,0,2383,0,0,0,0,0,0,0,0,0,0,0,0,0,0,0,0,0,0,
0,0,0,0,0,0,0,0,0,2716,0,0,0,0,0,0,0,0,0,0,0,0,2593,2383,2383,2383,2383,2383,2383,2383,0,0,0,0,0,0,0,0,0,2383,0,0,0,0,0,0,0,0,0,0,0,0,0,0,0,0,0,0,
0,0,0,0,0,0,0,0,0,2746,0,0,0,0,0,0,0,0,2363,2363,2383,2383,2383,2383,2384,2385,2386,2383,2383,2383,2383,2363,2363,2383,0,0,0,0,0,2271,0,0,0,0,0,0,0,0,0,0,0,0,0,0,0,0,0,0,
0,0,0,0,0,0,0,0,0,2383,0,0,0,0,0,0,0,2383,2383,2383,2383,2383,2383,2383,2389,2390,2391,2383,2383,2383,2383,2383,2383,2383,0,0,0,0,0,2383,2383,2383,2383,2383,0,0,0,0,0,0,0,0,0,0,0,0,0,0,
0,0,0,0,0,0,0,0,0,2383,2383,2383,2383,2383,2383,2383,2383,2383,2383,2383,2383,2383,2383,2383,2414,2415,2416,2383,2383,2383,2383,2383,2383,2383,2383,2383,2383,2383,2383,2383,2383,2383,2383,2383,0,0,0,0,0,0,0,0,0,0,0,0,0,0,
0,0,0,0,0,0,0,0,0,0,0,0,0,0,0,0,2363,2383,2383,2383,2383,2383,2383,2383,2686,2687,2688,2383,2383,2383,2383,2271,2383,2383,2383,0,0,0,0,0,0,0,2383,0,0,0,0,0,0,0,0,0,0,0,0,0,0,0,
0,0,0,0,0,0,0,0,0,0,0,0,0,0,0,0,2363,2383,2383,2383,2383,2383,2383,2383,2414,2415,2416,2383,2383,2383,2383,2383,2383,2383,2383,0,0,0,0,0,0,0,2383,0,0,0,0,0,0,0,0,0,0,0,0,0,0,0,
0,0,0,0,0,0,0,0,0,0,0,0,0,0,0,0,2363,2383,2383,2383,2383,2383,2383,2383,2414,2415,2416,2383,2383,2383,2383,2383,2383,2383,2383,0,0,0,0,0,0,0,2383,0,0,0,0,0,0,0,0,0,0,0,0,0,0,0,
0,0,0,0,0,0,0,0,0,0,0,0,0,0,0,0,2363,2383,2383,2383,2383,2383,2383,2383,2414,2415,2416,2383,2383,2383,2383,2383,2383,2383,2383,0,0,0,0,0,0,0,2383,0,0,0,0,0,0,0,0,0,0,0,0,0,0,0,
0,0,0,0,0,0,0,0,0,0,0,0,0,0,0,0,2363,2383,2383,2271,2383,2383,2383,2383,2414,2415,2416,2383,2383,2383,2383,2383,2383,2383,2383,0,0,0,0,0,0,0,2383,0,0,0,0,0,0,0,0,0,0,0,0,0,0,0,
0,0,0,0,0,0,0,0,0,0,0,0,0,0,0,0,2363,2383,2383,2383,2383,2383,2383,2383,2414,2415,2416,2383,2383,2383,2383,2383,2383,2383,2363,0,0,0,0,0,0,0,0,0,0,0,0,0,0,0,0,0,0,0,0,0,0,0,
0,0,0,0,0,0,0,0,0,0,0,0,0,0,0,0,2363,2383,2383,2383,2383,2383,2383,2383,2389,2390,2391,2383,2383,2383,2383,2383,2383,2383,2363,0,0,0,0,0,0,0,0,0,0,0,0,0,0,0,0,0,0,0,0,0,0,0,
0,0,0,0,0,0,0,0,0,0,0,0,0,0,0,0,2363,2383,2383,2383,2383,2383,2383,2383,2414,2415,2416,2383,2383,2383,2383,2383,2383,2383,2363,0,0,0,0,0,0,0,0,0,0,0,0,0,0,0,0,0,0,0,0,0,0,0,
0,0,0,0,0,0,0,0,0,0,0,0,0,0,0,0,2363,2383,2383,2383,2383,2383,2383,2383,2444,2445,2446,2383,2383,2383,2383,2383,2383,2383,2363,0,0,0,0,0,0,0,0,0,0,0,0,0,0,0,0,0,0,0,0,0,0,0,
0,0,0,0,0,0,0,0,0,0,0,0,0,0,0,0,2363,2383,2383,2383,2383,2383,2383,2383,2383,2383,2383,2383,2383,2383,2383,2383,2271,2383,2363,0,0,0,0,0,0,0,0,0,0,0,0,0,0,0,0,0,0,0,0,0,0,0,
0,0,0,0,0,0,0,0,0,0,0,0,0,0,0,0,2363,2383,2383,2383,2383,2383,2383,2383,2383,2383,2383,2383,2383,2383,2383,2383,2383,2383,2363,0,0,0,0,0,0,0,0,0,0,0,0,0,0,0,0,0,0,0,0,0,0,0,
0,0,0,0,0,0,0,0,0,0,0,0,0,0,0,0,0,0,0,0,0,0,0,0,2383,2383,2383,2383,0,0,0,0,0,0,0,0,0,0,0,0,0,0,0,0,0,0,0,0,0,0,0,0,0,0,0,0,0,0,
0,0,0,0,0,0,0,0,0,0,0,0,0,0,0,0,0,0,0,0,0,0,0,2383,2383,2383,2383,2383,0,0,0,0,0,0,0,0,0,0,0,0,0,0,0,0,0,0,0,0,0,0,0,0,0,0,0,0,0,0,
0,0,0,0,0,0,0,0,0,0,0,0,0,0,0,0,0,0,0,0,0,0,0,0,2383,2383,2383,0,0,0,0,0,0,0,0,0,0,0,0,0,0,0,0,0,0,0,0,0,0,0,0,0,0,0,0,0,0,0,
0,0,0,0,0,0,0,0,0,0,0,0,0,0,0,0,0,0,0,0,0,0,0,0,0,0,0,0,0,0,0,0,0,0,0,0,0,0,0,0,0,0,0,0,0,0,0,0,0,0,0,0,0,0,0,0,0,0,
0,0,0,0,0,0,0,0,0,0,0,0,0,0,0,0,0,0,0,0,0,0,0,0,0,0,0,0,0,0,0,0,0,0,0,0,0,0,0,0,0,0,0,0,0,0,0,0,0,0,0,0,0,0,0,0,0,0
</data>
 </layer>
 <layer id="2" name="Buildings" width="58" height="34">
  <data encoding="csv">
0,0,0,0,0,0,0,0,0,0,0,0,0,0,0,0,0,0,0,0,0,0,0,0,0,0,0,0,0,0,0,0,0,0,0,0,2213,2213,2213,2213,2213,2213,2213,2213,2213,2213,0,0,0,0,0,0,0,0,0,0,0,0,
0,2213,2213,2213,2213,2213,2213,2213,2213,2213,2213,2213,2213,2213,2213,2213,0,0,0,0,0,0,0,0,0,0,0,0,0,0,0,0,0,0,0,0,2213,0,0,0,0,0,0,0,0,2213,0,0,0,0,0,0,0,0,0,0,0,0,
0,2213,2866,2867,2867,2867,2867,2867,0,2867,2867,2867,2867,2867,2868,2213,0,0,0,0,0,0,0,0,0,0,0,0,0,0,0,0,0,0,0,0,2213,0,0,0,0,0,2721,2722,0,2213,0,0,0,0,0,0,0,0,0,0,0,0,
0,2213,2896,0,0,0,2897,0,0,0,0,0,0,2897,2898,2213,0,0,0,0,0,0,0,0,0,0,0,0,0,0,0,0,0,0,0,0,2213,2748,2747,2748,601,2749,2751,2752,0,2213,0,0,0,0,0,0,0,0,0,0,0,0,
0,2213,2630,2628,2628,2837,2838,2628,2628,2628,2628,2628,2628,2628,2629,2213,0,0,0,0,0,0,0,0,0,0,0,0,0,0,0,0,0,0,0,0,2213,2778,2777,2778,2780,2779,2781,2782,2961,2213,0,0,0,0,0,0,0,0,0,0,0,0,
0,2213,2660,2895,0,0,0,0,0,0,2893,2894,0,0,2659,2213,0,0,0,0,0,0,0,0,0,0,0,0,0,0,0,0,0,0,0,0,2213,0,0,0,0,0,0,0,2961,2213,0,0,0,0,0,0,0,0,0,0,0,0,
0,2213,0,0,0,2835,2836,0,0,0,0,0,0,0,0,2213,0,0,0,0,0,0,0,0,0,0,0,0,0,0,0,0,0,0,0,0,2213,0,0,0,0,0,0,0,2991,2213,0,0,0,0,0,0,0,0,0,0,0,0,
0,2213,0,0,0,0,0,0,0,0,0,0,0,0,0,2213,0,0,0,0,0,0,0,0,0,0,0,0,0,0,0,0,0,0,0,0,2213,0,0,0,0,0,0,0,0,2213,0,0,0,0,0,0,0,0,0,0,0,0,
0,2213,2962,0,0,0,0,0,0,0,0,2839,2840,2841,0,2213,0,0,0,0,0,0,0,0,0,0,0,0,0,0,0,0,0,0,0,0,2213,0,0,0,0,2958,2959,2960,0,2213,0,0,0,0,0,0,0,0,0,0,0,0,
0,2213,2992,0,0,0,0,0,0,0,0,0,0,0,0,2213,0,0,0,0,0,0,0,0,0,0,0,0,0,0,0,0,0,0,0,0,2213,0,0,0,0,2988,2989,2990,0,2213,0,0,0,0,0,0,0,0,0,0,0,0,
0,2213,3022,0,0,0,0,0,0,0,0,0,0,0,0,2213,0,0,0,2213,2623,2213,2213,2213,2213,2213,2213,2213,2213,2213,2624,2213,0,0,0,0,2213,0,0,0,0,0,0,0,0,2213,0,0,0,0,0,0,0,0,0,0,0,0,
0,2213,3052,0,0,0,0,0,0,0,0,0,0,0,0,2213,2213,2213,2213,2213,2653,2564,2564,0,2544,2563,2544,0,2564,2564,2654,2213,2213,2213,2213,0,0,2213,2213,0,2213,2213,2213,2213,2213,2213,0,0,0,0,0,0,0,0,0,0,0,0,
0,2213,2213,2213,2213,2213,2213,2213,2213,0,2213,2213,2213,2213,2213,2213,2213,2564,2564,2564,2683,2563,2563,0,2563,2563,2563,0,2563,2563,2684,2564,2564,2564,2213,2213,0,0,2213,0,2213,0,0,0,0,0,0,0,0,0,0,0,0,0,0,0,0,0,
0,0,0,0,0,0,0,0,2213,121,2213,2213,2213,2213,2213,2213,2213,2563,2563,2563,2713,2563,2563,2520,2563,2563,2563,2523,2563,2563,2714,2563,2563,2563,2543,2213,2213,2213,2213,0,2213,2213,2213,2213,0,0,0,0,0,0,0,0,0,0,0,0,0,0,
0,0,0,0,0,0,0,0,2213,0,2601,2564,2564,2564,2564,2564,2602,2563,2563,2563,2743,2593,3032,2715,2551,0,2552,2719,2593,2593,2744,2563,2563,2563,2601,2564,2564,2564,2602,0,2601,2564,2564,2213,0,0,0,0,0,0,0,0,0,0,0,0,0,0,
0,0,0,0,0,0,0,0,2213,0,2631,2563,2563,2563,2563,2563,2632,2593,2593,2593,2773,3061,3062,2715,0,0,0,2719,0,0,2774,2593,2593,2593,2631,2563,2563,2563,2632,0,2631,2563,2563,2213,0,0,0,0,0,0,0,0,0,0,0,0,0,0,
0,0,0,0,0,0,0,0,2213,0,2661,2593,2593,2593,2593,2593,2662,0,2994,0,0,0,2473,2715,2447,2448,2449,2719,2473,0,0,0,2995,0,2661,2593,2593,2593,2662,0,2661,2593,2593,2213,0,0,0,0,0,0,0,0,0,0,0,0,0,0,
0,0,0,0,0,0,0,0,2213,0,0,0,0,0,0,0,0,0,0,0,0,0,0,2715,0,0,0,2719,0,0,0,0,0,0,0,0,0,0,0,0,0,0,0,2213,0,0,0,0,0,0,0,0,0,0,0,0,0,0,
0,0,0,0,0,0,0,0,2213,2213,2213,2213,2213,2213,2213,2213,2213,0,0,0,0,2473,0,2685,0,0,0,2689,0,2473,0,0,0,0,2213,2213,2213,2213,2213,2213,2213,2213,0,2213,0,0,0,0,0,0,0,0,0,0,0,0,0,0,
0,0,0,0,0,0,0,0,0,0,0,0,0,0,0,0,2213,2995,0,0,0,0,0,0,0,0,0,0,0,0,0,0,2999,3000,2213,0,0,0,0,0,0,2213,0,2213,0,0,0,0,0,0,0,0,0,0,0,0,0,0,
0,0,0,0,0,0,0,0,0,0,0,0,0,0,0,0,2213,3024,0,0,0,0,0,2529,2530,0,0,0,0,0,0,0,3029,3026,2213,0,0,0,0,0,0,2213,0,2213,0,0,0,0,0,0,0,0,0,0,0,0,0,0,
0,0,0,0,0,0,0,0,0,0,0,0,0,0,0,0,2213,3054,0,0,0,0,0,0,0,0,0,0,0,0,0,0,3059,3060,2213,0,0,0,0,0,0,2213,121,2213,0,0,0,0,0,0,0,0,0,0,0,0,0,0,
0,0,0,0,0,0,0,0,0,0,0,0,0,0,0,0,2213,3084,0,0,0,2473,0,0,0,0,0,0,0,2473,0,0,3089,3090,2213,0,0,0,0,0,0,2213,0,2213,0,0,0,0,0,0,0,0,0,0,0,0,0,0,
0,0,0,0,0,0,0,0,0,0,0,0,0,0,0,0,2213,2994,0,0,0,0,0,0,0,0,0,0,0,0,0,0,0,2995,2213,0,0,0,0,0,0,2213,2213,2213,0,0,0,0,0,0,0,0,0,0,0,0,0,0,
0,0,0,0,0,0,0,0,0,0,0,0,0,0,0,0,2213,3024,0,0,0,0,0,0,0,0,0,0,0,0,0,0,2147486648,2147486647,2213,0,0,0,0,0,0,0,0,0,0,0,0,0,0,0,0,0,0,0,0,0,0,0,
0,0,0,0,0,0,0,0,0,0,0,0,0,0,0,0,2213,2996,0,0,0,0,0,0,0,0,0,0,0,0,0,0,3029,3030,2213,0,0,0,0,0,0,0,0,0,0,0,0,0,0,0,0,0,0,0,0,0,0,0,
0,0,0,0,0,0,0,0,0,0,0,0,0,0,0,0,2213,3084,0,0,0,2473,0,0,0,0,0,0,0,2473,0,0,3059,3060,2213,0,0,0,0,0,0,0,0,0,0,0,0,0,0,0,0,0,0,0,0,0,0,0,
0,0,0,0,0,0,0,0,0,0,0,0,0,0,0,0,2213,2994,0,0,0,0,0,0,0,0,0,0,0,0,0,0,3089,3090,2213,0,0,0,0,0,0,0,0,0,0,0,0,0,0,0,0,0,0,0,0,0,0,0,
0,0,0,0,0,0,0,0,0,0,0,0,0,0,0,0,2213,0,0,0,0,0,0,0,0,0,0,0,0,0,0,0,0,0,2213,0,0,0,0,0,0,0,0,0,0,0,0,0,0,0,0,0,0,0,0,0,0,0,
0,0,0,0,0,0,0,0,0,0,0,0,0,0,0,0,2213,2213,2213,2213,2213,2213,2213,2213,0,0,0,2213,2213,2213,2213,2213,2213,2213,2213,0,0,0,0,0,0,0,0,0,0,0,0,0,0,0,0,0,0,0,0,0,0,0,
0,0,0,0,0,0,0,0,0,0,0,0,0,0,0,0,0,0,0,0,0,0,0,2213,0,0,0,2213,0,0,0,0,0,0,0,0,0,0,0,0,0,0,0,0,0,0,0,0,0,0,0,0,0,0,0,0,0,0,
0,0,0,0,0,0,0,0,0,0,0,0,0,0,0,0,0,0,0,0,0,0,0,2213,0,0,0,2213,0,0,0,0,0,0,0,0,0,0,0,0,0,0,0,0,0,0,0,0,0,0,0,0,0,0,0,0,0,0,
0,0,0,0,0,0,0,0,0,0,0,0,0,0,0,0,0,0,0,0,0,0,0,2213,2213,2213,2213,2213,0,0,0,0,0,0,0,0,0,0,0,0,0,0,0,0,0,0,0,0,0,0,0,0,0,0,0,0,0,0,
0,0,0,0,0,0,0,0,0,0,0,0,0,0,0,0,0,0,0,0,0,0,0,0,0,0,0,0,0,0,0,0,0,0,0,0,0,0,0,0,0,0,0,0,0,0,0,0,0,0,0,0,0,0,0,0,0,0
</data>
 </layer>
 <layer id="3" name="Front" width="58" height="34">
  <data encoding="csv">
0,0,0,0,0,0,0,0,0,0,0,0,0,0,0,0,0,0,0,0,0,0,0,0,0,0,0,0,0,0,0,0,0,0,0,0,2241,2235,2235,2235,2235,2235,2235,2235,2235,2239,0,0,0,0,0,0,0,0,0,0,0,0,
0,0,2234,2235,2235,2235,2235,2235,2235,2235,2235,2235,2235,2235,2236,0,0,0,0,0,0,0,0,0,0,0,0,0,0,0,0,0,0,0,0,0,2293,0,0,0,0,0,0,0,0,2294,0,0,0,0,0,0,0,0,0,0,0,0,
0,2263,2506,0,2804,0,0,0,0,0,0,0,2804,0,2508,2264,0,0,0,0,0,0,0,0,0,0,0,0,0,0,0,0,0,0,0,0,2293,3031,3032,0,0,0,0,0,0,2294,0,0,0,0,0,0,0,0,0,0,0,0,
0,2293,0,0,2834,2807,2808,0,0,0,0,0,2834,0,0,2294,0,0,0,0,0,0,0,0,0,0,0,0,0,0,0,0,0,0,0,0,2293,3061,3062,0,0,0,0,0,2931,2294,0,0,0,0,0,0,0,0,0,0,0,0,
0,2293,0,2865,0,2775,2776,0,0,0,2863,2864,0,0,0,2294,0,0,0,0,0,0,0,0,0,0,0,0,0,0,0,0,0,0,0,0,2293,0,0,0,0,0,0,0,0,2294,0,0,0,0,0,0,0,0,0,0,0,0,
0,2293,0,0,0,2805,2806,0,0,0,0,0,0,0,0,2294,0,0,0,0,0,0,0,0,0,0,0,0,0,0,0,0,0,0,0,0,2293,0,0,0,0,0,0,0,0,2294,0,0,0,0,0,0,0,0,0,0,0,0,
0,2293,0,0,0,0,0,0,0,0,0,0,0,0,0,2294,0,0,0,0,0,0,0,0,0,0,0,0,0,0,0,0,0,0,0,0,2293,0,0,0,0,0,0,0,0,2294,0,0,0,0,0,0,0,0,0,0,0,0,
0,2293,2932,0,0,0,0,0,0,0,0,2809,2810,2811,2812,2294,0,0,0,0,0,0,0,0,0,0,0,0,0,0,0,0,0,0,0,0,2293,0,0,0,0,2928,2929,2930,0,2294,0,0,0,0,0,0,0,0,0,0,0,0,
0,2293,0,0,0,0,0,0,0,0,0,0,0,0,0,2294,0,0,0,0,0,0,0,0,0,0,0,0,0,0,0,0,0,0,0,0,2293,0,0,0,0,0,0,0,0,2294,0,0,0,0,0,0,0,0,0,0,0,0,
0,2293,0,0,0,0,0,0,0,0,0,0,0,0,0,2294,0,0,0,0,0,0,0,0,0,0,0,0,0,0,0,0,0,0,0,0,2293,0,0,0,0,0,0,0,0,2294,0,0,0,0,0,0,0,0,0,0,0,0,
0,2293,0,0,0,0,0,0,0,0,0,0,0,0,0,2294,0,0,0,0,2234,2235,2235,2235,2235,2235,2235,2235,2235,2235,2236,0,0,0,0,0,2353,2354,2355,0,2356,2358,2358,2358,2359,2360,0,0,0,0,0,0,0,0,0,0,0,0,
0,2353,2354,2358,2358,2358,2358,2358,2355,57,2356,2358,2358,2358,2359,2360,2241,2235,2235,2237,2506,0,0,2479,2480,2474,2481,2482,0,0,2508,2240,2235,2235,2239,0,0,0,2293,0,2294,0,0,0,0,0,0,0,0,0,0,0,0,0,0,0,0,0,
0,0,0,0,0,0,0,0,2293,89,2294,0,0,0,0,0,2293,0,0,0,0,0,0,2509,2510,2504,2511,2512,0,0,0,0,0,0,2294,0,0,0,2293,0,2294,0,0,0,0,0,0,0,0,0,0,0,0,0,0,0,0,0,
0,0,0,0,0,0,0,0,2293,0,2326,2235,2235,2235,2235,2235,2327,0,0,0,0,0,0,2539,2540,2534,2541,2542,0,0,0,0,0,0,2326,2235,2235,2235,2327,0,2326,2235,2235,2239,0,0,0,0,0,0,0,0,0,0,0,0,0,0,
0,0,0,0,0,0,0,0,2293,0,0,0,3003,3004,3005,0,0,0,0,0,0,3031,2413,2569,2570,2388,2571,2572,0,0,0,0,0,0,0,3003,3004,3005,0,0,0,0,0,2294,0,0,0,0,0,0,0,0,0,0,0,0,0,0,
0,0,0,0,0,0,0,0,2293,0,0,0,0,0,0,0,0,0,0,0,0,0,2443,0,2417,2418,2419,0,2420,0,0,0,0,0,0,0,0,0,0,0,0,0,0,2294,0,0,0,0,0,0,0,0,0,0,0,0,0,0,
0,0,0,0,0,0,0,0,2293,0,0,0,0,0,0,0,0,0,0,0,0,2413,0,0,0,0,0,0,0,2413,0,0,0,0,0,0,0,0,0,0,0,0,0,2294,0,0,0,0,0,0,0,0,0,0,0,0,0,0,
0,0,0,0,0,0,0,0,2323,2358,2358,2358,2358,2358,2358,2358,2355,0,0,0,0,2443,0,0,0,0,0,0,0,2443,0,0,0,0,2356,2358,2358,2358,2358,2358,2358,2355,0,2294,0,0,0,0,0,0,0,0,0,0,0,0,0,0,
0,0,0,0,0,0,0,0,0,0,0,0,0,0,0,0,2293,0,0,0,0,0,0,0,0,0,0,0,0,0,0,0,0,0,2294,0,0,0,0,0,0,2293,0,2294,0,0,0,0,0,0,0,0,0,0,0,0,0,0,
0,0,0,0,0,0,0,0,0,0,0,0,0,0,0,0,2293,0,0,0,0,0,0,0,0,0,0,0,0,0,0,0,0,0,2294,0,0,0,0,0,0,2293,57,2294,0,0,0,0,0,0,0,0,0,0,0,0,0,0,
0,0,0,0,0,0,0,0,0,0,0,0,0,0,0,0,2293,0,0,0,0,0,0,0,0,0,0,0,0,2413,0,0,0,0,2294,0,0,0,0,0,0,2293,89,2294,0,0,0,0,0,0,0,0,0,0,0,0,0,0,
0,0,0,0,0,0,0,0,0,0,0,0,0,0,0,0,2293,3085,0,0,0,2420,0,0,0,0,0,0,0,2443,0,0,0,0,2294,0,0,0,0,0,0,2293,0,2294,0,0,0,0,0,0,0,0,0,0,0,0,0,0,
0,0,0,0,0,0,0,0,0,0,0,0,0,0,0,0,2293,0,0,0,0,0,0,0,0,0,0,0,0,0,0,0,0,0,2294,0,0,0,0,0,0,2323,2358,2324,0,0,0,0,0,0,0,0,0,0,0,0,0,0,
0,0,0,0,0,0,0,0,0,0,0,0,0,0,0,0,2293,0,0,0,0,0,0,0,0,0,0,0,0,0,0,0,0,0,2294,0,0,0,0,0,0,0,0,0,0,0,0,0,0,0,0,0,0,0,0,0,0,0,
0,0,0,0,0,0,0,0,0,0,0,0,0,0,0,0,2293,0,0,0,0,2413,0,0,0,0,0,0,0,0,0,0,3031,3032,2294,0,0,0,0,0,0,0,0,0,0,0,0,0,0,0,0,0,0,0,0,0,0,0,
0,0,0,0,0,0,0,0,0,0,0,0,0,0,0,0,2293,3086,0,0,0,2443,0,0,0,0,0,0,0,2420,0,0,3061,3062,2294,0,0,0,0,0,0,0,0,0,0,0,0,0,0,0,0,0,0,0,0,0,0,0,
0,0,0,0,0,0,0,0,0,0,0,0,0,0,0,0,2293,0,0,0,0,0,0,0,0,0,0,0,0,0,0,0,0,0,2294,0,0,0,0,0,0,0,0,0,0,0,0,0,0,0,0,0,0,0,0,0,0,0,
0,0,0,0,0,0,0,0,0,0,0,0,0,0,0,0,2293,0,0,0,0,0,0,0,0,0,0,0,0,0,0,0,0,0,2294,0,0,0,0,0,0,0,0,0,0,0,0,0,0,0,0,0,0,0,0,0,0,0,
0,0,0,0,0,0,0,0,0,0,0,0,0,0,0,0,2353,2354,2358,2358,2358,2358,2358,2355,0,0,0,2356,2358,2358,2358,2358,2358,2359,2360,0,0,0,0,0,0,0,0,0,0,0,0,0,0,0,0,0,0,0,0,0,0,0,
0,0,0,0,0,0,0,0,0,0,0,0,0,0,0,0,2213,2213,2213,2213,2213,2213,2213,2293,0,0,0,2294,2213,2213,2213,2213,2213,2213,2213,0,0,0,0,0,0,0,0,0,0,0,0,0,0,0,0,0,0,0,0,0,0,0,
0,0,0,0,0,0,0,0,0,0,0,0,0,0,0,0,0,0,0,0,0,0,0,2293,0,0,0,2294,0,0,0,0,0,0,0,0,0,0,0,0,0,0,0,0,0,0,0,0,0,0,0,0,0,0,0,0,0,0,
0,0,0,0,0,0,0,0,0,0,0,0,0,0,0,0,0,0,0,0,0,0,0,2323,2358,2358,2358,2324,0,0,0,0,0,0,0,0,0,0,0,0,0,0,0,0,0,0,0,0,0,0,0,0,0,0,0,0,0,0,
0,0,0,0,0,0,0,0,0,0,0,0,0,0,0,0,0,0,0,0,0,0,0,2213,2213,2213,2213,2213,0,0,0,0,0,0,0,0,0,0,0,0,0,0,0,0,0,0,0,0,0,0,0,0,0,0,0,0,0,0,
0,0,0,0,0,0,0,0,0,0,0,0,0,0,0,0,0,0,0,0,0,0,0,0,0,0,0,0,0,0,0,0,0,0,0,0,0,0,0,0,0,0,0,0,0,0,0,0,0,0,0,0,0,0,0,0,0,0
</data>
 </layer>
 <layer id="4" name="Paths" width="58" height="34">
  <data encoding="csv">
0,0,0,0,0,0,0,0,0,0,0,0,0,0,0,0,0,0,0,0,0,0,0,0,0,0,0,0,0,0,0,0,0,0,0,0,0,0,0,0,0,0,0,0,0,0,0,0,0,0,0,0,0,0,0,0,0,0,
0,0,0,0,0,0,0,0,0,0,0,0,0,0,0,0,0,0,0,0,0,0,0,0,0,0,0,0,0,0,0,0,0,0,0,0,0,0,0,0,0,0,0,0,0,0,0,0,0,0,0,0,0,0,0,0,0,0,
0,0,0,0,0,0,0,0,0,0,0,0,0,0,0,0,0,0,0,0,0,0,0,0,0,0,0,0,0,0,0,0,0,0,0,0,0,0,0,0,0,0,0,0,0,0,0,0,0,0,0,0,0,0,0,0,0,0,
0,0,0,0,0,0,0,0,0,0,0,0,0,0,0,0,0,0,0,0,0,0,0,0,0,0,0,0,0,0,0,0,0,0,0,0,0,0,0,0,0,0,0,0,0,0,0,0,0,0,0,0,0,0,0,0,0,0,
0,0,0,0,0,0,0,0,0,0,0,0,0,0,0,0,0,0,0,0,0,0,0,0,0,0,0,0,0,0,0,0,0,0,0,0,0,0,0,0,0,0,0,0,0,0,0,0,0,0,0,0,0,0,0,0,0,0,
0,0,0,0,0,0,0,0,0,0,0,0,0,0,0,0,0,0,0,0,0,0,0,0,0,0,0,0,0,0,0,0,0,0,0,0,0,0,0,0,0,0,0,0,0,0,0,0,0,0,0,0,0,0,0,0,0,0,
0,0,0,0,0,0,0,0,0,0,0,0,0,0,0,0,0,0,0,0,0,0,0,0,0,0,0,0,0,0,0,0,0,0,0,0,0,0,0,0,0,0,0,0,0,0,0,0,0,0,0,0,0,0,0,0,0,0,
0,0,0,0,0,0,0,0,0,0,0,0,0,0,0,0,0,0,0,0,0,0,0,0,0,0,0,0,0,0,0,0,0,0,0,0,0,0,0,0,0,0,0,0,0,0,0,0,0,0,0,0,0,0,0,0,0,0,
0,0,0,0,0,0,0,0,0,0,0,0,0,0,0,0,0,0,0,0,0,0,0,0,0,0,0,0,0,0,0,0,0,0,0,0,0,0,0,0,0,0,0,0,0,0,0,0,0,0,0,0,0,0,0,0,0,0,
0,0,0,0,0,0,0,0,0,0,0,0,0,0,0,0,0,0,0,0,0,0,0,0,0,0,0,0,0,0,0,0,0,0,0,0,0,0,0,0,0,0,0,0,0,0,0,0,0,0,0,0,0,0,0,0,0,0,
0,0,0,0,0,0,0,0,0,0,0,0,0,0,0,0,0,0,0,0,0,0,0,0,0,0,0,0,0,0,0,0,0,0,0,0,0,0,0,0,0,0,0,0,0,0,0,0,0,0,0,0,0,0,0,0,0,0,
0,0,0,0,0,0,0,0,0,0,0,0,0,0,0,0,0,0,0,0,0,0,0,0,0,0,0,0,0,0,0,0,0,0,0,0,0,0,0,0,0,0,0,0,0,0,0,0,0,0,0,0,0,0,0,0,0,0,
0,0,0,0,0,0,0,0,0,0,0,0,0,0,0,0,0,0,0,0,0,0,0,0,0,0,0,0,0,0,0,0,0,0,0,0,0,0,0,0,0,0,0,0,0,0,0,0,0,0,0,0,0,0,0,0,0,0,
0,0,0,0,0,0,0,0,0,0,0,0,0,0,0,0,0,0,0,0,0,0,0,0,0,0,0,0,0,0,0,0,0,0,0,0,0,0,0,0,0,0,0,0,0,0,0,0,0,0,0,0,0,0,0,0,0,0,
0,0,0,0,0,0,0,0,0,0,0,0,0,0,0,0,0,0,0,0,0,0,0,0,0,0,0,0,0,0,0,0,0,0,0,0,0,0,0,0,0,0,0,0,0,0,0,0,0,0,0,0,0,0,0,0,0,0,
0,0,0,0,0,0,0,0,0,0,0,0,0,0,0,0,0,0,0,0,0,0,0,0,0,0,0,0,0,0,0,0,0,0,0,0,0,0,0,0,0,0,0,0,0,0,0,0,0,0,0,0,0,0,0,0,0,0,
0,0,0,0,0,0,0,0,0,0,0,0,0,0,0,0,0,0,0,0,0,0,0,0,0,0,0,0,0,0,0,0,0,0,0,0,0,0,0,0,0,0,0,0,0,0,0,0,0,0,0,0,0,0,0,0,0,0,
0,0,0,0,0,0,0,0,0,0,0,0,0,0,0,0,0,0,0,0,0,0,0,0,0,0,0,0,0,0,0,0,0,0,0,0,0,0,0,0,0,0,0,0,0,0,0,0,0,0,0,0,0,0,0,0,0,0,
0,0,0,0,0,0,0,0,0,0,0,0,0,0,0,0,0,0,0,0,0,0,0,0,0,0,0,0,0,0,0,0,0,0,0,0,0,0,0,0,0,0,0,0,0,0,0,0,0,0,0,0,0,0,0,0,0,0,
0,0,0,0,0,0,0,0,0,0,0,0,0,0,0,0,0,0,0,0,0,0,0,0,0,0,0,0,0,0,0,0,0,0,0,0,0,0,0,0,0,0,0,0,0,0,0,0,0,0,0,0,0,0,0,0,0,0,
0,0,0,0,0,0,0,0,0,0,0,0,0,0,0,0,0,0,0,0,0,0,0,0,0,0,0,0,0,0,0,0,0,0,0,0,0,0,0,0,0,0,0,0,0,0,0,0,0,0,0,0,0,0,0,0,0,0,
0,0,0,0,0,0,0,0,0,0,0,0,0,0,0,0,0,0,0,0,0,0,0,0,0,0,0,0,0,0,0,0,0,0,0,0,0,0,0,0,0,0,0,0,0,0,0,0,0,0,0,0,0,0,0,0,0,0,
0,0,0,0,0,0,0,0,0,0,0,0,0,0,0,0,0,0,0,0,0,0,0,0,0,0,0,0,0,0,0,0,0,0,0,0,0,0,0,0,0,0,0,0,0,0,0,0,0,0,0,0,0,0,0,0,0,0,
0,0,0,0,0,0,0,0,0,0,0,0,0,0,0,0,0,0,0,0,0,0,0,0,0,0,0,0,0,0,0,0,0,0,0,0,0,0,0,0,0,0,0,0,0,0,0,0,0,0,0,0,0,0,0,0,0,0,
0,0,0,0,0,0,0,0,0,0,0,0,0,0,0,0,0,0,0,0,0,0,0,0,0,0,0,0,0,0,0,0,0,0,0,0,0,0,0,0,0,0,0,0,0,0,0,0,0,0,0,0,0,0,0,0,0,0,
0,0,0,0,0,0,0,0,0,0,0,0,0,0,0,0,0,0,0,0,0,0,0,0,0,0,0,0,0,0,0,0,0,0,0,0,0,0,0,0,0,0,0,0,0,0,0,0,0,0,0,0,0,0,0,0,0,0,
0,0,0,0,0,0,0,0,0,0,0,0,0,0,0,0,0,0,0,0,0,0,0,0,0,0,0,0,0,0,0,0,0,0,0,0,0,0,0,0,0,0,0,0,0,0,0,0,0,0,0,0,0,0,0,0,0,0,
0,0,0,0,0,0,0,0,0,0,0,0,0,0,0,0,0,0,0,0,0,0,0,0,0,0,0,0,0,0,0,0,0,0,0,0,0,0,0,0,0,0,0,0,0,0,0,0,0,0,0,0,0,0,0,0,0,0,
0,0,0,0,0,0,0,0,0,0,0,0,0,0,0,0,0,0,0,0,0,0,0,0,0,0,0,0,0,0,0,0,0,0,0,0,0,0,0,0,0,0,0,0,0,0,0,0,0,0,0,0,0,0,0,0,0,0,
0,0,0,0,0,0,0,0,0,0,0,0,0,0,0,0,0,0,0,0,0,0,0,0,0,0,0,0,0,0,0,0,0,0,0,0,0,0,0,0,0,0,0,0,0,0,0,0,0,0,0,0,0,0,0,0,0,0,
0,0,0,0,0,0,0,0,0,0,0,0,0,0,0,0,0,0,0,0,0,0,0,0,0,0,0,0,0,0,0,0,0,0,0,0,0,0,0,0,0,0,0,0,0,0,0,0,0,0,0,0,0,0,0,0,0,0,
0,0,0,0,0,0,0,0,0,0,0,0,0,0,0,0,0,0,0,0,0,0,0,0,0,0,0,0,0,0,0,0,0,0,0,0,0,0,0,0,0,0,0,0,0,0,0,0,0,0,0,0,0,0,0,0,0,0,
0,0,0,0,0,0,0,0,0,0,0,0,0,0,0,0,0,0,0,0,0,0,0,0,0,0,0,0,0,0,0,0,0,0,0,0,0,0,0,0,0,0,0,0,0,0,0,0,0,0,0,0,0,0,0,0,0,0,
0,0,0,0,0,0,0,0,0,0,0,0,0,0,0,0,0,0,0,0,0,0,0,0,0,0,0,0,0,0,0,0,0,0,0,0,0,0,0,0,0,0,0,0,0,0,0,0,0,0,0,0,0,0,0,0,0,0
</data>
 </layer>
 <objectgroup id="5" name="Back"/>
 <objectgroup id="6" name="Buildings">
  <object id="28" name="TileData" x="144" y="208" width="16" height="16">
   <properties>
    <property name="Action" value="Door squiddonaut.WhatsLeftofMalhaCP_Ryden"/>
   </properties>
  </object>
  <object id="30" name="TileData" x="672" y="336" width="16" height="16">
   <properties>
    <property name="Action" value="Door WLMMarcus"/>
   </properties>
  </object>
 </objectgroup>
 <objectgroup id="7" name="Front"/>
 <objectgroup id="8" name="Paths"/>
</map>
