<?xml version="1.0" encoding="UTF-8"?>
<map version="1.10" tiledversion="1.10.1" orientation="orthogonal" renderorder="right-down" compressionlevel="0" width="42" height="24" tilewidth="16" tileheight="16" infinite="0" nextlayerid="9" nextobjectid="7">
 <properties>
  <property name="AmbientLight" value="120 120 80"/>
  <property name="CustomMapOverlay" value="Underwater"/>
 </properties>
 <tileset firstgid="1" name="p" tilewidth="16" tileheight="16" tilecount="36" columns="4">
  <image source="paths" width="64" height="144"/>
 </tileset>
 <tileset firstgid="37" name="untitled tile sheet" tilewidth="16" tileheight="16" tilecount="2176" columns="32">
  <image source="townInterior" width="512" height="1088"/>
 </tileset>
 <tileset firstgid="2213" name="z_MalhaInterior" tilewidth="16" tileheight="16" tilecount="480" columns="20">
  <image source="z_MalhaInterior.png" width="320" height="384"/>
 </tileset>
 <tileset firstgid="2693" name="z_jellytopia" tilewidth="16" tileheight="16" tilecount="462" columns="21">
  <image source="z_jellytopia.png" width="336" height="352"/>
  <tile id="19">
   <animation>
    <frame tileid="19" duration="600"/>
    <frame tileid="61" duration="600"/>
    <frame tileid="103" duration="600"/>
    <frame tileid="145" duration="600"/>
    <frame tileid="187" duration="600"/>
    <frame tileid="229" duration="600"/>
   </animation>
  </tile>
  <tile id="20">
   <animation>
    <frame tileid="20" duration="600"/>
    <frame tileid="62" duration="600"/>
    <frame tileid="104" duration="600"/>
    <frame tileid="146" duration="600"/>
    <frame tileid="188" duration="600"/>
    <frame tileid="230" duration="600"/>
   </animation>
  </tile>
  <tile id="40">
   <animation>
    <frame tileid="40" duration="600"/>
    <frame tileid="82" duration="600"/>
    <frame tileid="124" duration="600"/>
    <frame tileid="166" duration="600"/>
    <frame tileid="208" duration="600"/>
    <frame tileid="250" duration="600"/>
   </animation>
  </tile>
  <tile id="41">
   <animation>
    <frame tileid="41" duration="600"/>
    <frame tileid="83" duration="600"/>
    <frame tileid="125" duration="600"/>
    <frame tileid="167" duration="600"/>
    <frame tileid="209" duration="600"/>
    <frame tileid="251" duration="600"/>
   </animation>
  </tile>
  <tile id="271">
   <animation>
    <frame tileid="271" duration="500"/>
    <frame tileid="272" duration="500"/>
    <frame tileid="292" duration="500"/>
    <frame tileid="293" duration="500"/>
    <frame tileid="313" duration="500"/>
    <frame tileid="314" duration="500"/>
    <frame tileid="334" duration="500"/>
    <frame tileid="335" duration="500"/>
    <frame tileid="355" duration="500"/>
    <frame tileid="356" duration="500"/>
   </animation>
  </tile>
  <tile id="376">
   <animation>
    <frame tileid="376" duration="1000"/>
    <frame tileid="377" duration="1000"/>
   </animation>
  </tile>
 </tileset>
 <layer id="1" name="Back" width="42" height="24">
  <data encoding="csv">
0,0,0,0,0,0,0,0,0,0,0,0,0,0,0,0,0,0,0,0,0,0,0,0,0,0,0,0,0,0,0,0,0,0,0,0,0,0,0,0,0,0,
0,0,0,0,0,0,0,0,0,0,0,0,0,0,0,0,0,0,0,0,0,0,0,0,0,0,0,0,0,0,0,0,0,0,0,0,0,0,0,0,0,0,
0,0,0,0,0,0,2695,2695,2695,2695,2695,0,0,398,398,398,398,398,398,398,398,398,0,0,0,0,0,0,0,0,2693,2693,2693,2693,2693,2693,0,0,0,0,0,0,
0,0,0,0,0,0,2716,2716,2716,2716,2716,0,398,398,398,398,398,398,398,398,398,398,398,398,398,398,0,0,0,0,2714,2714,2714,2714,2714,2714,0,0,0,0,0,0,
0,0,0,0,0,0,2737,2737,2737,2737,2737,0,398,398,398,398,398,398,398,398,398,398,398,398,398,398,0,0,0,0,2735,2735,2735,2735,2735,2735,0,0,0,0,0,0,
0,0,0,0,0,0,2758,2758,2758,2758,2758,0,398,143,143,143,143,143,143,143,143,143,143,143,143,398,0,0,0,0,2756,2756,2756,2756,2756,2756,0,0,0,0,0,0,
0,0,0,0,0,0,2779,2779,2779,2779,2779,268,235,236,237,236,265,236,237,2165,2165,2165,2165,2165,2165,172,269,0,0,0,2777,2777,2777,2777,2777,2777,0,0,0,0,0,0,
0,0,0,0,0,0,2800,2800,2800,2800,2800,300,301,300,301,300,297,2156,301,236,237,236,236,237,237,172,301,0,0,0,2798,2798,2798,2798,2798,2798,0,0,0,0,0,0,
0,0,0,0,0,0,2821,2821,2821,2821,2821,268,269,268,269,2155,269,2156,269,268,1149,1150,1150,1151,269,236,37,0,0,0,2819,2819,2819,2819,2819,2819,0,0,0,0,0,0,
0,0,0,0,0,0,2842,2842,2842,2842,2842,300,301,300,2188,2187,301,300,301,2156,1181,1182,1182,1183,2188,300,37,0,0,0,2840,2840,2840,2840,2840,2840,0,0,0,0,0,0,
0,0,0,0,0,0,2863,2863,2863,2863,2863,268,269,268,269,268,269,268,269,2156,269,268,269,268,2156,268,37,0,0,0,2861,2861,2861,2861,2861,2861,0,0,0,0,0,0,
0,0,0,0,0,0,2884,2884,2884,2884,2884,300,301,300,301,300,301,300,2889,2890,2891,2892,2893,399,399,399,37,0,0,0,2882,2882,2882,2882,2882,2882,0,0,0,0,0,0,
0,0,0,0,0,0,2905,2905,2905,2905,2905,0,0,0,0,0,0,37,2910,37,37,1085,2914,1085,1085,1085,269,0,0,0,2903,2903,2903,2903,2903,2903,0,0,0,0,0,0,
0,0,0,0,0,0,2926,2926,2926,2926,2926,0,0,0,0,0,0,37,2931,37,37,1117,2935,1117,1117,1117,301,0,0,0,2924,2924,2924,2924,2924,2924,0,0,0,0,0,0,
0,0,0,0,0,0,2947,2947,2947,2947,2947,0,0,0,0,0,0,2951,2952,0,37,1117,2956,2957,1117,1117,269,0,0,0,2945,2945,2945,2945,2945,2945,0,0,0,0,0,0,
0,0,0,0,0,0,2968,2968,2968,2968,2968,0,0,0,0,0,2971,2972,2973,2974,2975,2976,2977,2978,2979,1117,301,0,0,0,2966,2966,2966,2966,2966,2966,0,0,0,0,0,0,
0,0,0,0,0,0,2989,2989,2989,2989,2989,0,0,0,0,0,2992,2993,2994,2995,2996,2997,2998,2999,3000,1117,269,0,0,0,2987,2987,2987,2987,2987,2987,0,0,0,0,0,0,
0,0,0,0,0,0,3010,3010,3010,3010,3010,0,0,0,0,0,3013,3014,3015,3016,3017,3018,3019,3020,3021,300,301,0,0,0,3008,3008,3008,3008,3008,3008,0,0,0,0,0,0,
0,0,0,0,0,0,3031,3031,3031,3031,3031,0,0,0,0,0,3034,3035,3036,3037,3038,3039,3040,3041,3042,0,0,0,0,0,3029,3029,3029,3029,3029,3029,0,0,0,0,0,0,
0,0,0,0,0,0,3052,3052,3052,3052,3052,0,0,0,0,0,3055,3056,3057,3058,3059,3060,3061,3062,3063,0,0,0,0,0,3050,3050,3050,3050,3050,3050,0,0,0,0,0,0,
0,0,0,0,0,0,3073,3073,3073,3073,3073,0,0,0,0,0,3076,3077,3078,3079,3080,3081,3082,3083,3084,0,0,0,0,0,3071,3071,3071,3071,3071,3071,0,0,0,0,0,0,
0,0,0,0,0,0,3094,3094,3094,3094,3094,0,0,0,0,0,3097,3098,3099,3100,3101,3102,3103,3104,3105,0,0,0,0,0,3092,3092,3092,3092,3092,3092,0,0,0,0,0,0,
0,0,0,0,0,0,0,0,0,0,0,0,0,0,0,0,0,0,0,0,0,0,0,0,0,0,0,0,0,0,0,0,0,0,0,0,0,0,0,0,0,0,
0,0,0,0,0,0,0,0,0,0,0,0,0,0,0,0,0,0,0,0,0,0,0,0,0,0,0,0,0,0,0,0,0,0,0,0,0,0,0,0,0,0
</data>
 </layer>
 <layer id="2" name="Buildings" width="42" height="24">
  <data encoding="csv">
2706,2706,2701,2701,2701,2701,2701,2701,2701,2701,2701,2701,2701,2701,2701,2701,2701,2701,2701,2701,2701,2701,2701,2701,2701,2701,2701,2701,2701,2701,2701,2701,2701,2701,2701,2701,2701,2701,2701,2701,2706,2706,
2706,2706,2701,2701,2701,2701,2701,2701,2701,2701,2701,2701,2701,2701,2701,2701,2701,2701,2701,2701,2701,2701,2701,2701,2701,2701,2701,2701,2701,2701,2701,2701,2701,2701,2701,2701,2701,2701,2701,2701,2706,2706,
2711,2711,2711,2711,2711,2711,0,0,0,0,0,2693,2694,2695,2696,2697,2698,2699,2700,2701,2702,2703,2704,2705,2706,2707,2708,2709,2710,2711,0,0,0,0,0,0,2710,2710,2710,2710,2711,2711,
2732,2732,2732,2732,2732,2732,0,0,0,0,0,2714,2715,2716,2717,2718,2719,2720,2721,2722,2723,2724,2725,2726,2727,2728,2729,2730,2731,2732,0,0,0,0,0,0,2731,2731,2731,2731,2732,2732,
2753,2753,2753,2753,2753,2753,0,0,0,0,0,2735,2736,2737,2738,2739,2740,2741,2742,2743,2744,2745,2746,2747,2748,2749,2750,2751,2752,2753,0,0,0,0,0,0,2752,2752,2752,2752,2753,2753,
2774,2774,2774,2774,2774,2774,0,0,0,0,0,2756,2757,2758,2759,2760,2761,2762,2763,2764,2765,2766,2767,2768,2769,2770,2771,2772,2773,2774,0,0,0,0,0,0,2773,2773,2773,2773,2774,2774,
2795,2795,2795,2795,2795,2795,0,0,0,0,0,2777,2778,2779,2780,2781,2782,2783,2784,2785,2786,2787,2788,2789,2790,2791,2792,2793,2794,2795,0,0,0,0,0,0,2794,2794,2794,2794,2795,2795,
2816,2816,2816,2816,2816,2816,0,0,0,0,0,2798,2799,2800,2801,2802,2803,2804,2805,2806,2807,2808,2809,2810,2811,2812,2813,2814,2815,2816,0,0,0,0,0,0,2815,2815,2815,2815,2816,2816,
2837,2837,2837,2837,2837,2837,0,0,0,0,0,2819,2820,2821,2822,2823,2824,2825,2826,2827,2828,2829,2830,2831,2832,2833,2834,2835,2836,2837,0,0,0,0,0,0,2836,2836,2836,2836,2837,2837,
2858,2858,2858,2858,2858,2858,0,0,0,0,0,2840,2841,2842,2843,2844,2845,2846,2847,2848,2849,2850,2851,2852,2853,2854,2855,2856,2857,2858,0,0,0,0,0,0,2857,2857,2857,2857,2858,2858,
2879,2879,2879,2879,2879,2879,0,0,0,0,0,2861,2862,2863,2864,2865,2866,2867,2868,2869,2870,2871,2872,2873,2874,2875,2876,2877,2878,2879,0,0,0,0,0,0,2878,2878,2878,2878,2879,2879,
2900,2900,2900,2900,2900,2900,0,0,0,0,0,2882,2883,2884,2885,2886,2887,2888,0,0,0,0,0,2894,2895,2896,2897,2898,2899,2900,0,0,0,0,0,0,2899,2899,2899,2899,2900,2900,
2921,2921,2921,2921,2921,2921,0,0,0,0,0,2903,2904,2905,2906,2907,2908,2909,0,2911,2912,2913,0,2915,2916,2917,2918,2919,2920,2921,0,0,0,0,0,0,2920,2920,2920,2920,2921,2921,
2942,2942,2942,2942,2942,2942,0,0,0,0,0,2924,2925,2926,2927,2928,2929,2930,0,2932,2933,2934,0,2936,2937,2938,2939,2940,2941,2942,0,0,0,0,0,0,2941,2941,2941,2941,2942,2942,
2963,2963,2963,2963,2963,2963,0,0,0,0,0,2945,2946,2947,2948,2949,2950,0,0,2953,2954,2955,0,0,2958,2959,2960,2961,2962,2963,0,0,0,0,0,0,2962,2962,2962,2962,2963,2963,
2984,2984,2984,2984,2984,2984,0,0,0,0,0,2966,2967,2968,2969,2970,0,0,0,0,0,0,0,0,0,2980,2981,2982,2983,2984,0,0,0,0,0,0,2983,2983,2983,2983,2984,2984,
3005,3005,3005,3005,3005,3005,0,0,0,0,0,2987,2988,2989,2990,2991,0,0,0,0,0,0,0,0,0,3001,3002,3003,3004,3005,0,0,0,0,0,0,3004,3004,3004,3004,3005,3005,
3026,3026,3026,3026,3026,3026,0,0,0,0,0,3008,3009,3010,3011,3012,0,0,0,0,0,0,0,0,0,3022,3023,3024,3025,3026,0,0,0,0,0,0,3025,3025,3025,3025,3026,3026,
3047,3047,3047,3047,3047,3047,0,0,0,0,0,3029,3030,3031,3032,3033,0,0,0,0,0,0,0,0,0,3043,3044,3045,3046,3047,0,0,0,0,0,0,3046,3046,3046,3046,3047,3047,
3068,3068,3068,3068,3068,3068,0,0,0,0,0,3050,3051,3052,3053,3054,0,0,0,0,0,0,0,0,0,3064,3065,3066,3067,3068,0,0,0,0,0,0,3067,3067,3067,3067,3068,3068,
3089,3089,3089,3089,3089,3089,0,0,0,0,0,3071,3072,3073,3074,3075,0,0,0,0,0,0,0,0,0,3085,3086,3087,3088,3089,0,0,0,0,0,0,3088,3088,3088,3088,3089,3089,
3110,3110,3110,3110,3110,3110,0,0,0,0,0,3092,3093,3094,3095,3096,0,0,0,0,0,0,0,0,0,3106,3107,3108,3109,3110,0,0,0,0,0,0,3109,3109,3109,3109,3110,3110,
3108,3108,3089,3088,3089,3088,3089,3088,3089,3088,3089,3071,3072,3115,3116,3117,3118,3119,3120,3121,3122,3123,3124,3125,3126,3127,3128,3129,3130,3089,3088,3089,3088,3089,3088,3089,3088,3088,3088,3088,3108,3108,
3108,3108,3110,3109,3110,3109,3110,3109,3110,3109,3110,3092,3093,3136,3137,3138,3139,3140,3141,3142,3143,3144,3145,3146,3147,3148,3149,3150,3151,3110,3109,3110,3109,3110,3109,3110,3109,3109,3109,3109,3108,3108
</data>
 </layer>
 <layer id="3" name="Front" width="42" height="24">
  <data encoding="csv">
0,0,0,0,0,0,0,0,0,0,0,0,0,2964,0,0,0,0,0,0,0,0,0,0,0,0,0,2964,0,0,0,0,0,0,0,0,0,0,0,0,2964,0,
0,2964,0,0,0,0,0,0,2964,0,0,0,0,0,0,0,0,0,0,0,0,0,2712,2713,0,0,0,0,0,0,0,2964,0,0,0,2712,2713,0,0,0,0,0,
0,0,2964,0,0,0,0,0,0,0,0,0,0,0,0,0,0,0,0,0,0,0,2733,2734,0,0,0,0,0,0,0,0,0,0,0,2733,2734,0,0,0,0,0,
0,2964,0,0,0,0,2964,0,0,0,0,0,0,2964,0,0,0,2964,0,0,0,0,0,0,0,0,0,0,2964,0,0,0,0,0,0,0,0,0,0,0,2964,0,
0,0,0,0,0,0,0,0,0,0,0,0,0,2712,2713,0,0,0,0,0,0,0,0,2964,0,0,2964,0,0,0,0,0,0,0,2964,0,0,2964,0,0,0,0,
0,0,2964,0,0,2964,0,0,0,2964,0,0,0,2733,2734,0,0,2964,0,0,0,0,0,0,0,0,0,2712,2713,0,0,2964,0,0,0,0,0,0,0,0,0,0,
0,0,0,0,2712,2713,0,0,0,0,0,0,0,0,0,0,0,0,0,0,0,0,2964,0,2964,0,0,2733,2734,2964,0,0,0,0,0,0,0,0,2964,0,0,0,
0,0,2964,0,2733,2734,0,2964,0,0,0,0,0,2964,0,0,0,0,0,0,2712,2713,0,0,0,0,0,0,0,0,0,0,0,0,0,0,0,0,0,0,0,0,
0,0,0,0,0,0,0,0,0,0,2964,0,0,0,0,0,0,0,0,0,2733,2734,0,0,0,0,0,0,0,0,0,0,0,2964,0,2964,0,0,0,0,0,0,
0,0,0,0,0,0,0,0,0,0,0,0,0,0,2964,0,0,0,0,0,0,0,0,0,0,2964,0,0,0,0,0,0,0,0,0,0,0,0,0,2964,0,0,
2964,0,0,0,0,2964,0,0,0,0,0,0,2964,0,0,0,2964,0,0,0,0,0,0,0,0,0,0,0,0,0,2964,0,0,0,0,0,0,0,0,0,0,0,
0,0,0,0,0,0,0,0,2964,0,0,0,0,0,0,0,0,0,0,0,0,0,0,0,0,0,0,2964,0,0,0,0,2964,0,0,0,0,0,0,0,0,0,
0,0,2964,0,0,0,0,0,0,0,0,0,2712,2713,0,0,0,0,0,0,0,0,0,0,0,0,0,0,2964,0,0,0,0,2712,2713,0,2964,0,0,0,0,2964,
0,0,0,0,0,2964,0,0,0,0,0,0,2733,2734,0,0,0,0,0,0,0,0,0,0,0,0,0,0,0,0,0,0,0,2733,2734,0,0,0,0,0,0,0,
0,0,2964,0,0,0,0,2964,0,0,0,0,0,0,0,0,0,0,0,0,0,0,0,0,0,0,0,2964,0,0,0,0,0,0,0,0,0,0,0,0,2964,0,
0,0,0,0,2964,0,0,0,0,0,2964,0,0,0,0,2964,0,0,0,0,0,0,0,0,0,0,0,0,0,0,0,0,2964,0,0,2964,0,0,0,0,0,0,
0,2964,0,0,0,0,0,0,0,0,0,0,0,0,0,0,0,3069,0,0,0,0,0,0,2964,0,0,0,0,2964,0,0,0,0,0,0,0,0,0,0,0,0,
0,0,0,0,2964,0,0,2964,0,0,0,0,0,0,0,0,0,3090,0,0,0,0,0,0,0,0,0,0,0,0,0,0,0,0,0,0,0,0,0,0,0,0,
0,0,0,0,0,0,0,0,0,0,0,2964,0,2964,0,0,0,2964,0,0,0,0,2964,0,0,0,0,2712,2713,0,0,0,0,0,2964,0,0,0,0,2964,0,0,
0,2964,0,0,0,0,2712,2713,0,0,0,0,0,0,0,0,0,0,0,0,0,0,0,0,0,0,0,2733,2734,0,0,0,2964,0,0,0,0,0,0,0,0,0,
0,0,0,0,0,0,2733,2734,0,2964,0,0,0,0,0,0,0,0,0,0,0,2964,0,0,0,3069,0,0,0,0,0,0,0,0,0,0,0,0,0,0,0,0,
0,0,2964,0,0,0,0,0,0,0,0,0,0,2964,0,0,3069,0,0,0,0,0,0,0,0,3090,2964,0,0,2964,0,0,0,0,0,0,0,2964,0,0,0,0,
0,0,0,0,0,0,0,0,0,0,0,0,0,0,0,0,3090,0,0,0,0,0,0,3069,0,0,0,0,0,0,0,0,0,0,0,0,0,0,0,0,0,0,
0,0,0,0,0,0,2964,0,0,0,0,0,0,0,0,0,0,0,0,0,0,0,0,3090,0,0,0,0,0,0,0,0,0,2964,0,0,0,0,0,0,0,0
</data>
 </layer>
 <layer id="4" name="Paths" width="42" height="24">
  <data encoding="csv">
0,0,0,0,0,0,0,0,0,0,0,0,0,0,0,0,0,0,0,0,0,0,0,0,0,0,0,0,0,0,0,0,0,0,0,0,0,0,0,0,0,0,
0,0,0,0,0,0,0,0,0,0,0,0,0,0,0,0,0,0,0,0,0,0,9,9,0,0,0,0,0,0,0,0,0,0,0,9,9,0,0,0,0,0,
0,0,0,0,0,0,0,0,0,0,0,0,0,0,0,0,0,0,0,0,0,0,9,9,0,0,0,0,0,0,0,0,0,0,0,9,9,0,0,0,0,0,
0,0,0,0,0,0,0,0,0,0,0,0,0,0,0,0,0,0,0,0,0,0,0,0,0,0,0,0,0,0,0,0,0,0,0,0,0,0,0,0,0,0,
0,0,0,0,0,0,0,0,0,0,0,0,0,9,9,0,0,0,0,0,0,0,0,0,0,0,0,0,0,0,0,0,0,0,0,0,0,0,0,0,0,0,
0,0,0,0,0,0,0,0,0,0,0,0,0,9,9,0,0,0,0,0,0,0,0,0,0,0,0,9,9,0,0,0,0,0,0,0,0,0,0,0,0,0,
0,0,0,0,9,9,0,0,0,0,0,0,0,0,0,0,0,0,0,0,0,0,0,0,0,0,0,9,9,0,0,0,0,0,0,0,0,0,0,0,0,0,
0,0,0,0,9,9,0,0,0,0,0,0,0,0,0,0,0,0,0,0,9,9,0,0,0,0,0,0,0,0,0,0,0,0,0,0,0,0,0,0,0,0,
0,0,0,0,0,0,0,0,0,0,0,0,0,0,0,0,0,0,0,0,9,9,0,0,0,0,0,0,0,0,0,0,0,0,0,0,0,0,0,0,0,0,
0,0,0,0,0,0,0,0,0,0,0,0,0,0,0,0,0,0,0,0,0,0,0,0,0,0,0,0,0,0,0,0,0,0,0,0,0,0,0,0,0,0,
0,0,0,0,0,0,0,0,0,0,0,0,0,0,0,0,0,0,0,0,0,0,0,0,0,0,0,0,0,0,0,0,0,0,0,0,0,0,0,0,0,0,
0,0,0,0,0,0,0,0,0,0,0,0,0,0,0,0,0,0,0,0,0,0,0,0,0,0,0,0,0,0,0,0,0,0,0,0,0,0,0,0,0,0,
0,0,0,0,0,0,0,0,0,0,0,0,9,9,0,0,0,0,0,0,9,0,0,0,0,0,0,0,0,0,0,0,0,9,9,0,0,0,0,0,0,0,
0,0,0,0,0,0,0,0,0,0,0,0,9,9,0,0,0,0,0,0,9,0,0,0,0,0,0,0,0,0,0,0,0,9,9,0,0,0,0,0,0,0,
0,0,0,0,0,0,0,0,0,0,0,0,0,0,0,0,0,0,0,0,0,0,0,0,0,0,0,0,0,0,0,0,0,0,0,0,0,0,0,0,0,0,
0,0,0,0,0,0,0,0,0,0,0,0,0,0,0,0,0,0,0,0,0,0,0,0,0,0,0,0,0,0,0,0,0,0,0,0,0,0,0,0,0,0,
0,0,0,0,0,0,0,0,0,0,0,0,0,0,0,0,0,0,0,0,0,0,0,0,0,0,0,0,0,0,0,0,0,0,0,0,0,0,0,0,0,0,
0,0,0,0,0,0,0,0,0,0,0,0,0,0,0,0,0,0,0,0,0,0,0,0,0,0,0,0,0,0,0,0,0,0,0,0,0,0,0,0,0,0,
0,0,0,0,0,0,0,0,0,0,0,0,0,0,0,0,0,0,0,0,0,0,0,0,0,0,0,9,9,0,0,0,0,0,0,0,0,0,0,0,0,0,
0,0,0,0,0,0,9,9,0,0,0,0,0,0,0,0,0,0,0,0,0,0,0,0,0,0,0,9,9,0,0,0,0,0,0,0,0,0,0,0,0,0,
0,0,0,0,0,0,9,9,0,0,0,0,0,0,0,0,0,0,0,0,0,0,0,0,0,0,0,0,0,0,0,0,0,0,0,0,0,0,0,0,0,0,
0,0,0,0,0,0,0,0,0,0,0,0,0,0,0,0,0,0,0,0,0,0,0,0,0,0,0,0,0,0,0,0,0,0,0,0,0,0,0,0,0,0,
0,0,0,0,0,0,0,0,0,0,0,0,0,0,0,0,0,0,0,0,0,0,0,0,0,0,0,0,0,0,0,0,0,0,0,0,0,0,0,0,0,0,
0,0,0,0,0,0,0,0,0,0,0,0,0,0,0,0,0,0,0,0,0,0,0,0,0,0,0,0,0,0,0,0,0,0,0,0,0,0,0,0,0,0
</data>
 </layer>
 <objectgroup id="5" name="Back"/>
 <objectgroup id="6" name="Buildings"/>
 <objectgroup id="7" name="Front"/>
 <objectgroup id="8" name="Paths"/>
</map>
