<?xml version="1.0" encoding="UTF-8"?>
<map version="1.10" tiledversion="1.10.1" orientation="orthogonal" renderorder="right-down" compressionlevel="0" width="25" height="18" tilewidth="16" tileheight="16" infinite="0" nextlayerid="11" nextobjectid="7">
 <properties>
  <property name="AmbientLight" value="80 80 40"/>
  <property name="CustomMapOverlay" value="Underwater"/>
  <property name="Light" value="6 9 4 13 9 4 8 2 6 11 2 6"/>
  <property name="Warp" value="9 14 Custom_Malha_Malha 50 10"/>
 </properties>
 <tileset firstgid="1" name="p" tilewidth="16" tileheight="16" tilecount="36" columns="4">
  <image source="paths" width="64" height="144"/>
 </tileset>
 <tileset firstgid="37" name="untitled tile sheet" tilewidth="16" tileheight="16" tilecount="2176" columns="32">
  <image source="townInterior" width="512" height="1088"/>
 </tileset>
 <tileset firstgid="2213" name="z_MalhaInterior" tilewidth="16" tileheight="16" tilecount="400" columns="20">
  <image source="z_MalhaInterior.png" width="320" height="320"/>
 </tileset>
 <tileset firstgid="2613" name="z_MalhaRuins" tilewidth="16" tileheight="16" tilecount="1260" columns="21">
  <image source="z_MalhaRuins.png" width="336" height="960"/>
  <tile id="126">
   <animation>
    <frame tileid="126" duration="250"/>
    <frame tileid="127" duration="250"/>
    <frame tileid="128" duration="250"/>
    <frame tileid="129" duration="250"/>
    <frame tileid="130" duration="250"/>
    <frame tileid="131" duration="250"/>
    <frame tileid="132" duration="250"/>
    <frame tileid="25" duration="250"/>
    <frame tileid="26" duration="250"/>
    <frame tileid="27" duration="250"/>
    <frame tileid="28" duration="250"/>
    <frame tileid="29" duration="250"/>
    <frame tileid="30" duration="250"/>
    <frame tileid="51" duration="250"/>
   </animation>
  </tile>
 </tileset>
 <layer id="1" name="Back" width="25" height="18">
  <data encoding="csv">
0,0,0,0,0,0,0,0,0,0,0,0,0,0,0,0,0,0,0,0,0,0,0,0,0,
0,0,0,0,0,0,0,398,2455,2455,2455,398,398,398,398,2455,2455,0,0,0,0,0,0,0,0,
0,0,0,0,0,0,2362,2305,2305,2305,2305,2305,2305,2305,2305,2305,2305,2305,2305,2455,0,0,0,0,0,
0,0,0,0,0,2455,2305,2305,2305,2305,2305,2305,2305,2305,2305,2305,2305,2305,2305,2455,0,0,0,0,0,
0,0,0,0,0,2455,2305,2305,2305,2305,2305,2305,2305,2305,2305,2305,2305,2305,2305,2284,0,0,0,0,0,
0,0,0,0,0,0,2291,2264,2263,2264,2263,2264,2263,2264,2263,2264,2263,2264,2292,2264,0,0,0,0,0,
0,0,0,0,0,0,2311,2284,2283,2284,2283,2284,2283,2264,2263,2264,2263,2264,2312,2284,0,0,0,0,0,
0,0,0,0,0,2283,2303,2304,2303,2304,2303,2304,2303,2304,2384,2385,2386,2304,2303,2304,0,0,0,0,0,
0,0,0,0,0,2283,2283,2284,2283,2284,2283,2284,2283,2284,2404,2405,2406,2284,2263,2284,0,0,0,0,0,
0,0,0,0,0,0,2303,2304,2303,2304,2303,2304,2303,2304,2303,2304,2303,2304,2303,2304,0,0,0,0,0,
0,0,0,0,0,2303,2283,2284,2283,2284,2283,2284,2283,2284,2283,2284,2283,2284,2283,2284,0,0,0,0,0,
0,0,0,0,0,2303,2303,2304,2303,2304,2303,2304,2303,2304,2303,2304,2303,2304,2303,2304,0,0,0,0,0,
0,0,0,0,0,0,0,0,2283,2284,0,0,2302,2301,2301,2301,2301,2301,2301,0,0,0,0,0,0,
0,0,0,0,0,0,0,0,2303,2304,0,0,2302,2302,2302,2302,2302,2302,2302,0,0,0,0,0,0,
0,0,0,0,0,0,0,0,0,0,0,0,2302,2302,2302,2302,2302,2302,2302,0,0,0,0,0,0,
0,0,0,0,0,0,0,0,0,0,0,0,0,2302,2302,2302,2302,2302,2302,0,0,0,0,0,0,
0,0,0,0,0,0,0,0,0,0,0,0,0,2302,2302,2302,2302,2302,2302,0,0,0,0,0,0,
0,0,0,0,0,0,0,0,0,0,0,0,0,0,0,0,0,0,0,0,0,0,0,0,0
</data>
 </layer>
 <layer id="2" name="Buildings" width="25" height="18">
  <data encoding="csv">
0,0,0,0,0,0,0,0,0,0,0,0,0,0,0,0,0,0,0,0,0,0,0,0,0,
0,0,0,0,0,2213,2213,2213,2213,2213,2213,2213,2213,2213,2213,2213,2213,2213,2213,2213,0,0,0,0,0,
0,0,0,0,0,2213,0,2343,2343,2343,2343,2343,2343,2343,2343,2343,2343,2343,2363,2213,0,0,0,0,0,
0,0,0,0,0,2213,0,0,0,0,0,0,0,0,0,0,2407,2408,0,2213,0,0,0,0,0,
0,0,0,0,0,2213,2290,2368,2368,2368,2368,2368,2368,2424,2425,2426,2427,2428,2289,2213,0,0,0,0,0,
0,0,0,0,0,2213,2310,0,0,2341,0,0,0,2444,2445,2446,2447,2448,2309,2213,0,0,0,0,0,
0,0,0,0,0,2213,0,2341,2250,2251,2252,2341,0,0,0,0,0,0,2469,2213,0,0,0,0,0,
0,0,0,0,0,2213,0,0,2270,2271,2272,0,0,0,0,0,0,0,2489,2213,0,0,0,0,0,
0,0,0,0,0,2213,0,0,0,0,0,0,0,0,0,0,0,0,0,2213,0,0,0,0,0,
0,0,0,0,0,2213,0,0,0,0,0,0,0,0,0,0,0,0,0,2213,0,0,0,0,0,
0,0,0,0,0,2213,0,0,0,0,0,0,0,0,0,0,0,0,0,2213,0,0,0,0,0,
0,0,0,0,0,2213,2365,0,0,0,0,0,0,2365,0,0,0,0,0,2213,0,0,0,0,0,
0,0,0,0,0,2213,2213,2213,2213,0,2213,2213,2213,0,0,0,2249,2326,2327,2213,0,0,0,0,0,
0,0,0,0,0,0,0,0,2213,0,2213,0,2213,2370,0,0,2269,2346,2347,2213,0,0,0,0,0,
0,0,0,0,0,0,0,0,2213,2213,2213,0,2213,2390,0,0,0,0,0,2213,0,0,0,0,0,
0,0,0,0,0,0,0,0,0,0,0,0,2213,0,0,0,0,2366,2367,2213,0,0,0,0,0,
0,0,0,0,0,0,0,0,0,0,0,0,2213,2352,0,0,0,0,0,2213,0,0,0,0,0,
0,0,0,0,0,0,0,0,0,0,0,0,2213,2213,2213,2213,2213,2213,2213,2213,0,0,0,0,0
</data>
 </layer>
 <layer id="3" name="Front" width="25" height="18">
  <data encoding="csv">
0,0,0,0,0,0,0,0,0,0,0,0,0,0,0,0,0,0,0,0,0,0,0,0,0,
0,0,0,0,0,0,2227,2228,2228,2228,2228,2228,2228,2228,2228,2228,2228,2228,2229,0,0,0,0,0,0,
0,0,0,0,0,2225,2267,2288,0,0,0,2288,0,0,0,0,0,0,2268,2226,0,0,0,0,0,
0,0,0,0,0,2245,0,2308,0,2342,0,2308,0,0,0,0,0,0,0,2246,0,0,0,0,0,
0,0,0,0,0,2245,0,0,0,0,0,0,0,0,0,0,0,0,0,2246,0,0,0,0,0,
0,0,0,0,0,2245,0,0,2230,2231,2232,0,0,0,0,0,0,0,2449,2246,0,0,0,0,0,
0,0,0,0,0,2245,0,0,0,0,0,0,0,0,0,0,0,0,0,2246,0,0,0,0,0,
0,0,0,0,0,2245,0,0,0,0,0,0,0,0,0,0,0,0,0,2246,0,0,0,0,0,
0,0,0,0,0,2245,0,0,0,0,0,0,0,0,0,0,0,0,0,2246,0,0,0,0,0,
0,0,0,0,0,2245,2325,0,0,0,0,0,0,2325,0,0,0,0,0,2246,0,0,0,0,0,
0,0,0,0,0,2245,2345,0,0,0,0,0,0,2345,0,0,0,0,0,2246,0,0,0,0,0,
0,0,0,0,0,2306,2307,2285,2247,0,2248,2285,2247,0,0,0,0,0,0,2246,0,0,0,0,0,
0,0,0,0,0,0,0,0,2245,0,2246,0,2245,2350,0,0,0,0,0,2246,0,0,0,0,0,
0,0,0,0,0,0,0,0,2265,2285,2266,0,2245,0,0,0,0,0,0,2246,0,0,0,0,0,
0,0,0,0,0,0,0,0,0,0,0,0,2245,0,0,0,0,0,0,2246,0,0,0,0,0,
0,0,0,0,0,0,0,0,0,0,0,0,2245,2332,0,0,0,0,0,2246,0,0,0,0,0,
0,0,0,0,0,0,0,0,0,0,0,0,2306,2307,2285,2285,2285,2285,2286,2287,0,0,0,0,0,
0,0,0,0,0,0,0,0,0,0,0,0,0,0,0,0,0,0,0,0,0,0,0,0,0
</data>
 </layer>
 <layer id="4" name="Paths" width="25" height="18">
  <data encoding="csv">
0,0,0,0,0,0,0,0,0,0,0,0,0,0,0,0,0,0,0,0,0,0,0,0,0,
0,0,0,0,0,0,0,0,0,0,0,0,0,0,0,0,0,0,0,0,0,0,0,0,0,
0,0,0,0,0,0,0,0,0,0,0,0,0,0,0,0,0,0,0,0,0,0,0,0,0,
0,0,0,0,0,0,0,0,0,0,0,0,0,0,0,0,0,0,0,0,0,0,0,0,0,
0,0,0,0,0,0,0,0,0,0,0,0,0,0,0,0,0,0,0,0,0,0,0,0,0,
0,0,0,0,0,0,0,0,0,0,0,0,0,0,0,0,0,0,0,0,0,0,0,0,0,
0,0,0,0,0,0,0,0,0,0,0,0,0,0,0,0,0,0,0,0,0,0,0,0,0,
0,0,0,0,0,0,0,0,0,0,0,0,0,0,0,0,0,0,0,0,0,0,0,0,0,
0,0,0,0,0,0,0,0,0,0,0,0,0,0,0,0,0,0,0,0,0,0,0,0,0,
0,0,0,0,0,0,0,0,0,0,0,0,0,0,0,0,0,0,0,0,0,0,0,0,0,
0,0,0,0,0,0,0,0,0,0,0,0,0,0,0,0,0,0,0,0,0,0,0,0,0,
0,0,0,0,0,0,0,0,0,0,0,0,0,0,0,0,0,0,0,0,0,0,0,0,0,
0,0,0,0,0,0,0,0,0,0,0,0,0,0,0,0,0,0,0,0,0,0,0,0,0,
0,0,0,0,0,0,0,0,0,0,0,0,0,0,0,0,0,0,0,0,0,0,0,0,0,
0,0,0,0,0,0,0,0,0,0,0,0,0,0,0,0,0,0,0,0,0,0,0,0,0,
0,0,0,0,0,0,0,0,0,0,0,0,0,0,0,0,0,0,0,0,0,0,0,0,0,
0,0,0,0,0,0,0,0,0,0,0,0,0,0,0,0,0,0,0,0,0,0,0,0,0,
0,0,0,0,0,0,0,0,0,0,0,0,0,0,0,0,0,0,0,0,0,0,0,0,0
</data>
 </layer>
 <layer id="9" name="AlwaysFront" width="25" height="18">
  <properties>
   <property name="CustomMapOverlay" value="Underwater"/>
   <property name="Light" value=""/>
   <property name="Music" value="malha_malharuins"/>
  </properties>
  <data encoding="csv">
0,0,0,0,0,0,0,0,0,0,0,0,0,0,0,0,0,0,0,0,0,0,0,0,0,
0,0,0,0,0,0,0,0,0,0,0,0,0,0,0,0,0,0,0,0,0,0,0,0,0,
0,0,0,0,0,0,0,0,0,0,0,0,0,2331,2330,2331,2330,2331,0,0,0,0,0,0,0,
0,0,0,0,0,0,0,0,0,0,0,0,0,0,0,0,0,0,0,0,0,0,0,0,0,
0,0,0,0,0,0,0,0,0,0,0,0,0,0,0,0,0,0,0,0,0,0,0,0,0,
0,0,0,0,0,0,0,0,0,0,0,0,0,0,0,0,0,0,0,0,0,0,0,0,0,
0,0,0,0,0,0,0,0,0,0,0,0,0,0,0,0,0,0,0,0,0,0,0,0,0,
0,0,0,0,0,0,0,0,0,0,0,0,0,0,0,0,0,0,0,0,0,0,0,0,0,
0,0,0,0,0,0,0,0,0,0,0,0,0,0,0,0,0,0,0,0,0,0,0,0,0,
0,0,0,0,0,0,0,0,0,0,0,0,0,0,0,0,0,0,0,0,0,0,0,0,0,
0,0,0,0,0,0,0,0,0,0,0,0,0,0,0,0,0,0,0,0,0,0,0,0,0,
0,0,0,0,0,0,0,0,0,0,0,0,0,0,0,0,0,0,0,0,0,0,0,0,0,
0,0,0,0,0,0,0,0,0,0,0,0,0,0,0,0,0,0,0,0,0,0,0,0,0,
0,0,0,0,0,0,0,0,0,0,0,0,0,0,0,0,0,2328,2329,0,0,0,0,0,0,
0,0,0,0,0,0,0,0,0,0,0,0,0,0,0,0,0,2348,2349,0,0,0,0,0,0,
0,0,0,0,0,0,0,0,0,0,0,0,0,0,0,0,0,0,0,0,0,0,0,0,0,
0,0,0,0,0,0,0,0,0,0,0,0,0,0,0,0,0,0,0,0,0,0,0,0,0,
0,0,0,0,0,0,0,0,0,0,0,0,0,0,0,0,0,0,0,0,0,0,0,0,0
</data>
 </layer>
 <objectgroup id="5" name="Back"/>
 <objectgroup id="6" name="Buildings"/>
 <objectgroup id="7" name="Front"/>
 <objectgroup id="8" name="Paths"/>
 <objectgroup id="10" name="AllwaysFront"/>
</map>
