<?xml version="1.0" encoding="UTF-8"?>
<map version="1.10" tiledversion="1.10.1" orientation="orthogonal" renderorder="right-down" compressionlevel="0" width="25" height="18" tilewidth="16" tileheight="16" infinite="0" nextlayerid="11" nextobjectid="7">
 <properties>
  <property name="AmbientLight" value="145 145 145"/>
  <property name="CustomMapOverlay" value="Underwater"/>
  <property name="Light" value="13 9 4 7 3 6 11 3 6 15 15 4"/>
  <property name="Warp" value="9 14 Custom_Malha_Malha 50 10"/>
 </properties>
 <tileset firstgid="1" name="p" tilewidth="16" tileheight="16" tilecount="36" columns="4">
  <image source="paths" width="64" height="144"/>
 </tileset>
 <tileset firstgid="37" name="untitled tile sheet" tilewidth="16" tileheight="16" tilecount="2176" columns="32">
  <image source="townInterior" width="512" height="1088"/>
  <tile id="1824">
   <animation>
    <frame tileid="1824" duration="80"/>
    <frame tileid="1825" duration="80"/>
    <frame tileid="1826" duration="80"/>
    <frame tileid="1827" duration="80"/>
    <frame tileid="1828" duration="80"/>
    <frame tileid="1829" duration="80"/>
    <frame tileid="1830" duration="80"/>
    <frame tileid="1831" duration="80"/>
    <frame tileid="1832" duration="80"/>
    <frame tileid="1833" duration="80"/>
    <frame tileid="1833" duration="80"/>
    <frame tileid="1833" duration="80"/>
    <frame tileid="1833" duration="80"/>
    <frame tileid="1833" duration="80"/>
    <frame tileid="1833" duration="80"/>
    <frame tileid="1833" duration="80"/>
    <frame tileid="1833" duration="80"/>
    <frame tileid="1833" duration="80"/>
    <frame tileid="1833" duration="80"/>
    <frame tileid="1833" duration="80"/>
    <frame tileid="1833" duration="80"/>
    <frame tileid="1833" duration="80"/>
    <frame tileid="1833" duration="80"/>
    <frame tileid="1833" duration="80"/>
    <frame tileid="1833" duration="80"/>
   </animation>
  </tile>
 </tileset>
 <tileset firstgid="2213" name="z_MalhaInterior" tilewidth="16" tileheight="16" tilecount="480" columns="20">
  <image source="z_MalhaInterior.png" width="320" height="384"/>
 </tileset>
 <tileset firstgid="2693" name="z_MalhaRuins" tilewidth="16" tileheight="16" tilecount="1260" columns="21">
  <image source="z_MalhaRuins.png" width="336" height="960"/>
  <tile id="126">
   <animation>
    <frame tileid="126" duration="250"/>
    <frame tileid="127" duration="250"/>
    <frame tileid="128" duration="250"/>
    <frame tileid="129" duration="250"/>
    <frame tileid="130" duration="250"/>
    <frame tileid="131" duration="250"/>
    <frame tileid="132" duration="250"/>
    <frame tileid="25" duration="250"/>
    <frame tileid="26" duration="250"/>
    <frame tileid="27" duration="250"/>
    <frame tileid="28" duration="250"/>
    <frame tileid="29" duration="250"/>
    <frame tileid="30" duration="250"/>
    <frame tileid="51" duration="250"/>
   </animation>
  </tile>
 </tileset>
 <layer id="1" name="Back" width="25" height="18">
  <data encoding="csv">
0,0,0,0,0,0,0,0,0,0,0,0,0,0,0,0,0,0,0,0,0,0,0,0,0,
0,0,0,0,0,0,0,398,2455,2455,2455,398,398,398,398,2455,2455,0,0,0,0,0,0,0,0,
0,0,0,0,0,2319,2319,2319,2319,2319,2319,2319,2369,2319,2319,2319,2319,2319,2319,2319,0,0,0,0,0,
0,0,0,0,0,2319,2319,2319,2319,2319,2319,2319,2389,2319,2319,2319,2319,2319,2319,2319,0,0,0,0,0,
0,0,0,0,0,2319,2319,2319,2410,2319,2319,2319,2409,2319,2319,2319,2319,2319,2319,2319,0,0,0,0,0,
0,0,0,0,0,0,2626,2544,2543,2544,2543,2544,2543,2544,2543,2544,2543,2544,2627,2544,0,0,0,0,0,
0,0,0,0,0,0,2646,2564,2563,2564,2563,2564,2563,2543,2544,2543,2544,2543,2544,2564,0,0,0,0,0,
0,0,0,0,0,2283,2583,2584,2583,2584,2583,2584,2583,2584,2505,2506,2507,2584,2583,2584,0,0,0,0,0,
0,0,0,0,0,2283,2563,2564,2603,2604,2563,2564,2563,2564,2525,2526,2527,2564,2563,2564,0,0,0,0,0,
0,0,0,0,0,0,2583,2584,2623,2624,2583,2584,2583,2584,2583,2584,2583,2584,2583,2584,0,0,0,0,0,
0,0,0,0,0,2303,2563,2564,2643,2644,2563,2564,2563,2564,2563,2564,2563,2564,2563,2564,0,0,0,0,0,
0,0,0,0,0,2303,2583,2584,2663,2664,2583,2584,2583,2584,2583,2584,2583,2584,2583,2584,0,0,0,0,0,
0,0,0,0,0,0,0,0,2563,2564,0,0,2302,2411,2411,2411,2411,2411,2411,0,0,0,0,0,0,
0,0,0,0,0,0,0,0,2583,2584,0,0,2302,2412,2412,2412,2412,2412,2412,0,0,0,0,0,0,
0,0,0,0,0,0,0,0,0,0,0,0,2302,2412,2412,2412,2412,2412,2412,0,0,0,0,0,0,
0,0,0,0,0,0,0,0,0,0,0,0,0,2412,2412,2412,2412,2412,2412,0,0,0,0,0,0,
0,0,0,0,0,0,0,0,0,0,0,0,0,2412,2412,2412,2412,2412,2412,0,0,0,0,0,0,
0,0,0,0,0,0,0,0,0,0,0,0,0,0,0,0,0,0,0,0,0,0,0,0,0
</data>
 </layer>
 <layer id="2" name="Buildings" width="25" height="18">
  <data encoding="csv">
0,0,0,0,0,0,0,0,0,0,0,0,0,0,0,0,0,0,0,0,0,0,0,0,0,
0,0,0,0,0,2213,2213,2213,2213,2213,2213,2213,2213,2213,2213,2213,2213,2213,2213,2213,0,0,0,0,0,
0,0,0,0,0,2213,2360,2317,2317,2317,2317,2317,2369,2317,2317,2317,2317,2317,2361,2213,0,0,0,0,0,
0,0,0,0,0,2213,0,0,0,0,2319,0,0,0,0,2410,2528,2529,2483,2213,0,0,0,0,0,
0,0,0,0,0,2213,2504,2612,2612,2612,2612,2612,2612,2545,2546,2547,2548,2549,2503,2213,0,0,0,0,0,
0,0,0,0,0,2213,2524,2429,2430,2648,0,0,0,2565,2566,2567,2568,2569,2523,2213,0,0,0,0,0,
0,0,0,0,0,2213,0,2648,2650,2651,2652,2648,0,0,0,0,0,0,2649,2213,0,0,0,0,0,
0,0,0,0,0,2213,0,0,2670,2671,2672,0,0,0,0,0,0,0,2669,2213,0,0,0,0,0,
0,0,0,0,0,2213,0,0,0,0,0,0,0,0,0,0,0,2429,2430,2213,0,0,0,0,0,
0,0,0,0,0,2213,0,0,0,0,0,0,0,0,0,0,0,0,0,2213,0,0,0,0,0,
0,0,0,0,0,2213,0,0,0,0,0,0,0,0,0,0,0,0,0,2213,0,0,0,0,0,
0,0,0,0,0,2213,2391,0,0,0,0,0,0,2365,0,0,0,0,0,2213,0,0,0,0,0,
0,0,0,0,0,2213,2213,2213,2213,0,2213,2213,2213,0,0,0,0,2570,2571,2213,0,0,0,0,0,
0,0,0,0,0,0,0,0,2213,0,2213,0,2213,2608,0,0,2552,2590,2591,2213,0,0,0,0,0,
0,0,0,0,0,0,0,0,2213,2213,2213,0,2213,2628,0,0,0,0,0,2213,0,0,0,0,0,
0,0,0,0,0,0,0,0,0,0,0,0,2213,0,0,0,0,2610,2611,2213,0,0,0,0,0,
0,0,0,0,0,0,0,0,0,0,0,0,2213,2625,0,0,0,0,0,2213,0,0,0,0,0,
0,0,0,0,0,0,0,0,0,0,0,0,2213,2213,2213,2213,2213,2213,2213,2213,0,0,0,0,0
</data>
 </layer>
 <layer id="3" name="Front" width="25" height="18">
  <data encoding="csv">
0,0,0,0,0,0,0,0,0,0,0,0,0,0,0,0,0,0,0,0,0,0,0,0,0,
0,0,0,0,0,0,2510,2511,2511,2511,2511,2511,2511,2511,2511,2511,2511,2511,2512,0,0,0,0,0,0,
0,0,0,0,0,2541,2550,2467,0,0,0,2488,0,0,0,0,0,0,2551,2542,0,0,0,0,0,
0,0,0,0,0,2561,0,2487,0,2342,0,2508,0,0,0,0,0,0,0,2562,0,0,0,0,0,
0,0,0,0,0,2561,0,0,0,0,0,0,0,0,0,0,0,0,0,2562,0,0,0,0,0,
0,0,0,0,0,2561,0,0,2630,2631,2632,0,0,0,0,0,0,0,2629,2562,0,0,0,0,0,
0,0,0,0,0,2561,0,0,0,0,0,0,0,0,0,0,0,0,0,2562,0,0,0,0,0,
0,0,0,0,0,2561,0,0,0,0,0,0,0,0,0,0,0,0,0,2562,0,0,0,0,0,
0,0,0,0,0,2561,0,0,0,0,0,0,0,0,0,0,0,0,0,2562,0,0,0,0,0,
0,0,0,0,0,2561,2351,0,0,0,0,0,0,2325,0,0,0,0,0,2562,0,0,0,0,0,
0,0,0,0,0,2561,2371,0,0,0,0,0,0,2345,0,0,0,0,0,2562,0,0,0,0,0,
0,0,0,0,0,2606,2607,2585,2530,0,2531,2585,2530,0,0,0,0,0,0,2562,0,0,0,0,0,
0,0,0,0,0,0,0,0,2561,0,2562,0,2561,2588,0,0,2532,0,0,2562,0,0,0,0,0,
0,0,0,0,0,0,0,0,2581,2585,2582,0,2561,0,0,0,0,0,0,2562,0,0,0,0,0,
0,0,0,0,0,0,0,0,0,0,0,0,2561,0,0,0,0,0,0,2562,0,0,0,0,0,
0,0,0,0,0,0,0,0,0,0,0,0,2561,2605,0,0,0,0,0,2562,0,0,0,0,0,
0,0,0,0,0,0,0,0,0,0,0,0,2606,2607,2585,2585,2585,2585,2586,2587,0,0,0,0,0,
0,0,0,0,0,0,0,0,0,0,0,0,0,0,0,0,0,0,0,0,0,0,0,0,0
</data>
 </layer>
 <layer id="4" name="Paths" width="25" height="18">
  <data encoding="csv">
0,0,0,0,0,0,0,0,0,0,0,0,0,0,0,0,0,0,0,0,0,0,0,0,0,
0,0,0,0,0,0,0,0,0,0,0,0,0,0,0,0,0,0,0,0,0,0,0,0,0,
0,0,0,0,0,0,0,0,0,0,0,0,0,0,0,0,0,0,0,0,0,0,0,0,0,
0,0,0,0,0,0,0,0,0,0,0,0,0,0,0,0,0,0,0,0,0,0,0,0,0,
0,0,0,0,0,0,0,0,0,0,0,0,0,0,0,0,0,0,0,0,0,0,0,0,0,
0,0,0,0,0,0,0,0,0,0,0,0,0,0,0,0,0,0,0,0,0,0,0,0,0,
0,0,0,0,0,0,0,0,0,0,0,0,0,0,0,0,0,0,0,0,0,0,0,0,0,
0,0,0,0,0,0,0,0,0,0,0,0,0,0,0,0,0,0,0,0,0,0,0,0,0,
0,0,0,0,0,0,0,0,0,0,0,0,0,0,0,0,0,0,0,0,0,0,0,0,0,
0,0,0,0,0,0,0,0,0,0,0,0,0,0,0,0,0,0,0,0,0,0,0,0,0,
0,0,0,0,0,0,0,0,0,0,0,0,0,0,0,0,0,0,0,0,0,0,0,0,0,
0,0,0,0,0,0,0,0,0,0,0,0,0,0,0,0,0,0,0,0,0,0,0,0,0,
0,0,0,0,0,0,0,0,0,0,0,0,0,0,0,0,0,0,0,0,0,0,0,0,0,
0,0,0,0,0,0,0,0,0,0,0,0,0,0,0,0,0,0,0,0,0,0,0,0,0,
0,0,0,0,0,0,0,0,0,0,0,0,0,0,0,0,0,0,0,0,0,0,0,0,0,
0,0,0,0,0,0,0,0,0,0,0,0,0,0,0,0,0,0,0,0,0,0,0,0,0,
0,0,0,0,0,0,0,0,0,0,0,0,0,0,0,0,0,0,0,0,0,0,0,0,0,
0,0,0,0,0,0,0,0,0,0,0,0,0,0,0,0,0,0,0,0,0,0,0,0,0
</data>
 </layer>
 <layer id="9" name="AlwaysFront" width="25" height="18">
  <properties>
   <property name="CustomMapOverlay" value="Underwater"/>
   <property name="Light" value=""/>
   <property name="Music" value="malha_malharuins"/>
  </properties>
  <data encoding="csv">
0,0,0,0,0,0,0,0,0,0,0,0,0,0,0,0,0,0,0,0,0,0,0,0,0,
0,0,0,0,0,0,0,0,0,0,0,0,0,0,0,0,0,0,0,0,0,0,0,0,0,
0,0,0,0,0,0,0,0,0,0,0,0,0,0,0,0,0,0,0,0,0,0,0,0,0,
0,0,0,0,0,0,0,0,0,0,0,0,0,0,0,0,0,0,0,0,0,0,0,0,0,
0,0,0,0,0,0,0,0,0,0,0,0,0,0,0,0,0,0,0,0,0,0,0,0,0,
0,0,0,0,0,0,0,0,0,0,0,0,0,0,0,0,0,0,0,0,0,0,0,0,0,
0,0,0,0,0,0,0,0,0,0,0,0,0,0,0,0,0,0,0,0,0,0,0,0,0,
0,0,0,0,0,0,0,0,0,0,0,0,0,0,0,0,0,0,0,0,0,0,0,0,0,
0,0,0,0,0,0,0,0,0,0,0,0,0,0,0,0,0,0,0,0,0,0,0,0,0,
0,0,0,0,0,0,0,0,0,0,0,0,0,0,0,0,0,0,0,0,0,0,0,0,0,
0,0,0,0,0,0,0,0,0,0,0,0,0,0,0,0,0,0,0,0,0,0,0,0,0,
0,0,0,0,0,0,0,0,0,0,0,0,0,0,0,0,0,0,0,0,0,0,0,0,0,
0,0,0,0,0,0,0,0,0,0,0,0,0,0,0,0,0,0,0,0,0,0,0,0,0,
0,0,0,0,0,0,0,0,0,0,0,0,0,0,0,0,0,2572,2589,0,0,0,0,0,0,
0,0,0,0,0,0,0,0,0,0,0,0,0,0,0,0,0,2592,2609,0,0,0,0,0,0,
0,0,0,0,0,0,0,0,0,0,0,0,0,0,0,0,0,0,0,0,0,0,0,0,0,
0,0,0,0,0,0,0,0,0,0,0,0,0,0,0,0,0,0,0,0,0,0,0,0,0,
0,0,0,0,0,0,0,0,0,0,0,0,0,0,0,0,0,0,0,0,0,0,0,0,0
</data>
 </layer>
 <objectgroup id="5" name="Back"/>
 <objectgroup id="6" name="Buildings"/>
 <objectgroup id="7" name="Front"/>
 <objectgroup id="8" name="Paths"/>
 <objectgroup id="10" name="AllwaysFront"/>
</map>
